luts/bleach_bypass_17.cube
# Generated by scripts/recipes/generate_demo_luts.py
# Retouch Engine -- demo LUT (safe to redistribute).
# Bleach-bypass / silver-retention look: high contrast + desaturated midtones.
# Luma S-curve (+18%), channels blended 45% toward luma in midtones only.
# Endpoints preserved; not a real film stock profile.
TITLE "Demo Bleach Bypass 17x17x17"
LUT_3D_SIZE 17
DOMAIN_MIN 0.0 0.0 0.0
DOMAIN_MAX 1.0 1.0 1.0
0.000000 0.000000 0.000000
0.061753 0.000000 0.000000
0.122010 0.000000 0.000000
0.180773 0.000000 0.000000
0.238041 0.000000 0.000000
0.293814 0.000000 0.000000
0.348385 0.000292 0.000292
0.402530 0.001654 0.001654
0.455555 0.003390 0.003390
0.507460 0.005501 0.005501
0.558245 0.007988 0.007988
0.607911 0.010849 0.010849
0.656456 0.014085 0.014085
0.703882 0.017696 0.017696
0.750188 0.021683 0.021683
0.795374 0.026044 0.026044
0.839441 0.030780 0.030780
0.000000 0.059986 0.000000
0.059238 0.059238 0.000000
0.116982 0.058491 0.000000
0.173975 0.058488 0.000745
0.230226 0.059238 0.002242
0.285358 0.060364 0.004115
0.339370 0.061864 0.006363
0.392262 0.063740 0.008986
0.444034 0.065990 0.011984
0.494686 0.068615 0.015357
0.544218 0.071616 0.019104
0.592631 0.074991 0.023227
0.639924 0.078742 0.027725
0.686097 0.082867 0.032598
0.731150 0.087368 0.037846
0.775083 0.092243 0.043469
0.817897 0.097493 0.049467
0.001246 0.116189 0.001246
0.059605 0.116328 0.002881
0.116843 0.116843 0.004890
0.172961 0.117732 0.007274
0.227960 0.118997 0.010034
0.281839 0.120636 0.013168
0.334598 0.122651 0.016678
0.386237 0.125041 0.020562
0.436756 0.127805 0.024821
0.486156 0.130945 0.029456
0.534435 0.134459 0.034465
0.581595 0.138349 0.039849
0.627635 0.142613 0.045609
0.672555 0.147253 0.051743
0.716356 0.152267 0.058253
0.759036 0.157657 0.065137
0.800597 0.163422 0.072397
0.008236 0.173106 0.008236
0.065341 0.173760 0.011132
0.121326 0.174789 0.014402
0.176192 0.176192 0.018048
0.229938 0.177971 0.022069
0.282564 0.180124 0.026465
0.334070 0.182653 0.031236
0.384456 0.185557 0.036382
0.433723 0.188835 0.041903
0.481870 0.192489 0.047799
0.528896 0.196518 0.054070
0.574803 0.200921 0.060716
0.619590 0.205700 0.067737
0.663258 0.210854 0.075133
0.705805 0.216383 0.082904
0.747233 0.222286 0.091050
0.787541 0.228565 0.099571
0.019469 0.229239 0.019469
0.075321 0.230406 0.023626
0.130054 0.231949 0.028159
0.183667 0.233867 0.033066
0.236160 0.236160 0.038349
0.287533 0.238828 0.044006
0.337786 0.241870 0.050038
0.386920 0.245288 0.056446
0.434933 0.249081 0.063228
0.481827 0.253249 0.070386
0.527601 0.257792 0.077918
0.572255 0.262709 0.085826
0.615790 0.268002 0.094108
0.658204 0.273670 0.102766
0.699499 0.279713 0.111798
0.739674 0.286131 0.121206
0.778729 0.292924 0.130989
0.034946 0.284586 0.034946
0.089545 0.286268 0.040365
0.143025 0.288325 0.046159
0.195385 0.290757 0.052328
0.246626 0.293564 0.058872
0.296746 0.296746 0.065791
0.345746 0.300303 0.073085
0.393627 0.304235 0.080754
0.440388 0.308542 0.088798
0.486029 0.313224 0.097217
0.530550 0.318280 0.106011
0.573951 0.323712 0.115180
0.616233 0.329519 0.124724
0.657395 0.335701 0.134643
0.697436 0.342258 0.144937
0.736358 0.349190 0.155606
0.774160 0.356497 0.166650
0.054667 0.339149 0.054667
0.108014 0.341345 0.061347
0.160241 0.343916 0.068403
0.211348 0.346862 0.075833
0.261335 0.350183 0.083639
0.310203 0.353879 0.091820
0.357950 0.357950 0.100375
0.404578 0.362396 0.109306
0.450086 0.367218 0.118611
0.494474 0.372414 0.128292
0.537743 0.377985 0.138347
0.579891 0.383931 0.148778
0.620920 0.390252 0.159584
0.660829 0.396948 0.170764
0.699618 0.404019 0.182320
0.737287 0.411465 0.194251
0.773836 0.419286 0.206556
0.078632 0.392927 0.078632
0.130726 0.395637 0.086574
0.181700 0.398723 0.094891
0.231554 0.402183 0.103583
0.280289 0.406018 0.112650
0.327904 0.410228 0.122092
0.374398 0.414813 0.131909
0.419773 0.419773 0.142101
0.464029 0.425109 0.152669
0.507164 0.430819 0.163611
0.549179 0.436904 0.174928
0.590075 0.443364 0.186620
0.629851 0.450199 0.198687
0.668507 0.457410 0.211129
0.706043 0.464995 0.223947
0.751760 0.471265 0.225831
0.799325 0.477041 0.226375
0.106841 0.445921 0.106841
0.157682 0.449145 0.116044
0.207403 0.452744 0.125623
0.256005 0.456718 0.135577
0.303486 0.461068 0.145905
0.349848 0.465792 0.156609
0.395090 0.470891 0.167688
0.439213 0.476366 0.179141
0.482215 0.482215 0.190970
0.524097 0.488439 0.203174
0.564860 0.495039 0.215752
0.605743 0.501983 0.225290
0.650081 0.508745 0.226072
0.695539 0.515132 0.226480
0.742117 0.521144 0.226512
0.789815 0.526781 0.226170
0.838633 0.532043 0.225453
0.139293 0.498129 0.139293
0.188882 0.501867 0.149759
0.237350 0.505981 0.160599
0.284699 0.510469 0.171814
0.330928 0.515333 0.183404
0.376037 0.520571 0.195369
0.420026 0.526184 0.207710
0.462896 0.532173 0.220425
0.504488 0.539347 0.225618
0.546720 0.546720 0.226264
0.590071 0.553717 0.226535
0.634542 0.560340 0.226431
0.680134 0.566588 0.225952
0.726844 0.572461 0.225098
0.774675 0.577959 0.223869
0.823626 0.583082 0.222265
0.873696 0.587829 0.220286
0.175990 0.549553 0.175990
0.224326 0.553805 0.187717
0.271541 0.558433 0.199819
0.317637 0.563435 0.212295
0.362546 0.568847 0.225012
0.401551 0.577205 0.225897
0.441676 0.585189 0.226406
0.482921 0.592798 0.226541
0.525285 0.600031 0.226300
0.568770 0.606890 0.225685
0.613374 0.613374 0.224694
0.659098 0.619483 0.223329
0.705942 0.625216 0.221588
0.753906 0.630575 0.219473
0.802989 0.635559 0.216982
0.853193 0.640167 0.214117
0.904516 0.644401 0.210876
0.216931 0.600191 0.216931
0.260033 0.606589 0.225378
0.296932 0.615558 0.226126
0.334950 0.624153 0.226499
0.374088 0.632372 0.226497
0.414346 0.640217 0.226120
0.455724 0.647687 0.225368
0.498221 0.654781 0.224241
0.541839 0.661501 0.222739
0.586576 0.667846 0.220862
0.632433 0.673815 0.218609
0.679410 0.679410 0.215982
0.727507 0.684629 0.212980
0.776723 0.689474 0.209603
0.827060 0.693944 0.205851
0.878516 0.698038 0.201724
0.931092 0.701758 0.197222
0.226541 0.663611 0.226541
0.263573 0.672442 0.226403
0.301724 0.680897 0.225889
0.340995 0.688978 0.225001
0.381386 0.696683 0.223737
0.422897 0.704014 0.222099
0.465527 0.710969 0.220085
0.509278 0.717550 0.217696
0.554148 0.723755 0.214933
0.600138 0.729586 0.211794
0.647248 0.735041 0.208281
0.695478 0.740122 0.204392
0.744827 0.744827 0.200128
0.795297 0.749158 0.195490
0.846886 0.753113 0.190476
0.899595 0.756694 0.185088
0.953424 0.759899 0.179324
0.224584 0.730763 0.224584
0.262868 0.739080 0.223184
0.302272 0.747021 0.221409
0.342796 0.754588 0.219259
0.384440 0.761779 0.216734
0.427204 0.768595 0.213834
0.471087 0.775037 0.210559
0.516090 0.781103 0.206908
0.562213 0.786795 0.202883
0.609456 0.792111 0.198483
0.657819 0.797052 0.193708
0.707301 0.801619 0.188558
0.757904 0.805810 0.183033
0.809626 0.809626 0.177133
0.862468 0.813067 0.170857
0.916430 0.816134 0.164207
0.971512 0.818825 0.157182
0.218383 0.798701 0.218383
0.257920 0.806503 0.215721
0.298577 0.813930 0.212685
0.340354 0.820982 0.209273
0.383250 0.827660 0.205486
0.427267 0.833962 0.201325
0.472403 0.839889 0.196788
0.518659 0.845441 0.191876
0.566035 0.850618 0.186590
0.614530 0.855421 0.180928
0.664146 0.859848 0.174891
0.714881 0.863900 0.168480
0.766737 0.867577 0.161693
0.819712 0.870879 0.154531
0.873807 0.873807 0.146994
0.929021 0.876359 0.139083
0.985356 0.878536 0.130796
0.207938 0.867422 0.207938
0.248728 0.874710 0.204015
0.290637 0.881624 0.199717
0.333667 0.888162 0.195043
0.377816 0.894325 0.189995
0.423086 0.900113 0.184572
0.469475 0.905526 0.178774
0.516984 0.910564 0.172600
0.565612 0.915227 0.166052
0.615361 0.919515 0.159129
0.666229 0.923428 0.151831
0.718217 0.926966 0.144157
0.771325 0.930130 0.136109
0.825553 0.932918 0.127686
0.880901 0.935331 0.118888
0.937369 0.937369 0.109714
0.994956 0.939032 0.100166
0.193249 0.936929 0.193249
0.235292 0.943703 0.188064
0.278454 0.950102 0.182504
0.322736 0.956126 0.176570
0.368139 0.961775 0.170260
0.414661 0.967049 0.163575
0.462303 0.971948 0.156515
0.511064 0.976472 0.149081
0.560946 0.980621 0.141271
0.611947 0.984395 0.133086
0.664068 0.987794 0.124526
0.717309 0.990818 0.115591
0.771670 0.993466 0.106282
0.827151 0.995740 0.096597
0.883752 0.997639 0.086537
0.941472 0.999163 0.076102
1.000000 1.000000 0.064980
0.000000 0.000000 0.062246
0.061499 0.000000 0.061499
0.121503 0.000000 0.060751
0.180012 0.000000 0.060004
0.237026 0.000000 0.059256
0.292545 0.000000 0.058509
0.347282 0.000713 0.058474
0.401301 0.002201 0.059216
0.454199 0.004065 0.060332
0.505978 0.006304 0.061823
0.556637 0.008917 0.063689
0.606176 0.011906 0.065930
0.654595 0.015270 0.068547
0.701894 0.019008 0.071538
0.748074 0.023122 0.074904
0.793133 0.027611 0.078645
0.837073 0.032474 0.082762
0.000000 0.059732 0.059732
0.058984 0.058984 0.058984
0.116474 0.058237 0.058237
0.173680 0.058701 0.058701
0.229805 0.059578 0.059578
0.284810 0.060831 0.060831
0.338695 0.062459 0.062459
0.391461 0.064462 0.064462
0.443106 0.066839 0.066839
0.493632 0.069592 0.069592
0.543038 0.072720 0.072720
0.591324 0.076223 0.076223
0.638491 0.080101 0.080101
0.684537 0.084353 0.084353
0.729464 0.088981 0.088981
0.773271 0.093984 0.093984
0.815958 0.099362 0.099362
0.001759 0.116194 0.058977
0.059991 0.116461 0.059991
0.117103 0.117103 0.061380
0.173095 0.118120 0.063145
0.227967 0.119512 0.065284
0.281720 0.121279 0.067798
0.334352 0.123420 0.070688
0.385865 0.125937 0.073952
0.436257 0.128829 0.077591
0.485530 0.132096 0.081605
0.533684 0.135738 0.085995
0.580717 0.139755 0.090759
0.626630 0.144147 0.095898
0.671424 0.148914 0.101413
0.715098 0.154056 0.107302
0.757652 0.159573 0.113567
0.799086 0.165465 0.120206
0.009177 0.173286 0.063880
0.066156 0.174067 0.066156
0.122015 0.175223 0.068807
0.176754 0.176754 0.071833
0.230373 0.178660 0.075233
0.282873 0.180941 0.079009
0.334253 0.183597 0.083160
0.384513 0.186628 0.087686
0.433652 0.190034 0.092587
0.481673 0.193815 0.097863
0.528573 0.197971 0.103514
0.574354 0.202502 0.109539
0.619014 0.207408 0.115940
0.662555 0.212689 0.122716
0.704976 0.218345 0.129867
0.746277 0.224377 0.137393
0.786458 0.230783 0.145294
0.020839 0.229593 0.073027
0.076565 0.230888 0.076565
0.131171 0.232558 0.080477
0.184657 0.234604 0.084764
0.237024 0.237024 0.089427
0.288270 0.239819 0.094464
0.338397 0.242989 0.099877
0.387404 0.246534 0.105664
0.435291 0.250454 0.111826
0.482059 0.254749 0.118364
0.527706 0.259420 0.125276
0.572234 0.264465 0.132564
0.615642 0.269885 0.140226
0.657930 0.275680 0.148264
0.699098 0.281850 0.156676
0.739146 0.288396 0.165464
0.778075 0.295316 0.174626
0.036744 0.285116 0.086418
0.091217 0.286925 0.091217
0.144571 0.289109 0.096391
0.196804 0.291668 0.101940
0.247918 0.294602 0.107864
0.297912 0.297912 0.114163
0.346786 0.301596 0.120837
0.394540 0.305655 0.127886
0.441174 0.310090 0.135310
0.486689 0.314899 0.143109
0.531084 0.320083 0.151283
0.574358 0.325642 0.159832
0.616513 0.331577 0.168756
0.657549 0.337886 0.178055
0.697464 0.344570 0.187729
0.736259 0.351630 0.197778
0.773935 0.359064 0.208202
0.056893 0.339853 0.104053
0.110114 0.342176 0.110114
0.162214 0.344875 0.116549
0.213195 0.347948 0.123360
0.263056 0.351396 0.130545
0.311797 0.355220 0.138106
0.359418 0.359418 0.146041
0.405920 0.363992 0.154352
0.451301 0.368940 0.163037
0.495563 0.374263 0.172098
0.538705 0.379962 0.181533
0.580727 0.386035 0.191344
0.621629 0.392484 0.201530
0.661411 0.399307 0.212090
0.700074 0.406506 0.223026
0.737617 0.414079 0.234336
0.774039 0.422028 0.246022
0.081287 0.393806 0.125932
0.133254 0.396643 0.133254
0.184102 0.399856 0.140951
0.233830 0.403443 0.149023
0.282438 0.407406 0.157470
0.329926 0.411743 0.166293
0.376295 0.416456 0.175490
0.421543 0.421543 0.185062
0.465672 0.427006 0.195009
0.508681 0.432843 0.205331
0.550570 0.439056 0.216028
0.591339 0.445643 0.227100
0.630988 0.452606 0.238547
0.669518 0.459944 0.250369
0.709223 0.467244 0.259834
0.755794 0.473268 0.261373
0.803486 0.478917 0.262538
0.109924 0.446974 0.152055
0.160639 0.450325 0.160639
0.210234 0.454052 0.169597
0.258709 0.458153 0.178931
0.306064 0.462630 0.188640
0.352299 0.467482 0.198723
0.397415 0.472708 0.209182
0.441411 0.478310 0.220015
0.484287 0.484287 0.231224
0.526043 0.490638 0.242808
0.566679 0.497365 0.254766
0.608843 0.504321 0.260438
0.653307 0.510956 0.261841
0.698892 0.517215 0.262868
0.745596 0.523100 0.263521
0.793421 0.528610 0.263799
0.842365 0.533744 0.263701
0.142805 0.499357 0.182422
0.192267 0.503222 0.192267
0.240609 0.507463 0.202487
0.287832 0.512079 0.213083
0.333934 0.517070 0.224053
0.378917 0.522435 0.235398
0.422779 0.528176 0.247118
0.465522 0.534292 0.259213
0.506780 0.541893 0.260992
0.549138 0.549138 0.262258
0.592616 0.556009 0.263149
0.637214 0.562504 0.263665
0.682931 0.568625 0.263807
0.729769 0.574370 0.263573
0.777726 0.579741 0.262964
0.826803 0.584736 0.261980
0.877000 0.589357 0.260621
0.179931 0.550955 0.217033
0.228140 0.555335 0.228140
0.275229 0.560090 0.239621
0.321198 0.565219 0.251478
0.363904 0.571727 0.259992
0.403035 0.579959 0.261496
0.443287 0.587815 0.262626
0.484658 0.595297 0.263381
0.527149 0.602403 0.263760
0.570760 0.609134 0.263765
0.615491 0.615491 0.263394
0.661341 0.621472 0.262649
0.708312 0.627078 0.261529
0.756402 0.632310 0.260033
0.805612 0.637166 0.258163
0.855942 0.641647 0.255917
0.907392 0.645754 0.253297
0.221300 0.601768 0.255888
0.260583 0.609677 0.260583
0.297608 0.618519 0.261951
0.335753 0.626986 0.262944
0.375017 0.635079 0.263562
0.415402 0.642796 0.263805
0.456906 0.650138 0.263673
0.499530 0.657106 0.263166
0.543274 0.663698 0.262284
0.588138 0.669915 0.261028
0.634121 0.675757 0.259396
0.681224 0.681224 0.257389
0.729448 0.686317 0.255007
0.778791 0.691034 0.252250
0.829254 0.695376 0.249118
0.880836 0.699343 0.245611
0.933539 0.702936 0.241728
0.226536 0.666652 0.263213
0.263694 0.675355 0.263694
0.301972 0.683684 0.263801
0.341369 0.691637 0.263532
0.381887 0.699215 0.262889
0.423524 0.706418 0.261870
0.466281 0.713246 0.260477
0.510158 0.719699 0.258708
0.555155 0.725778 0.256565
0.601271 0.731481 0.254046
0.648508 0.736809 0.251153
0.696864 0.741762 0.247884
0.746340 0.746340 0.244241
0.796936 0.750543 0.240222
0.848652 0.754371 0.235829
0.901487 0.757824 0.231060
0.955443 0.760902 0.225916
0.224151 0.733630 0.263341
0.262561 0.741819 0.262561
0.302092 0.749633 0.261406
0.342742 0.757072 0.259876
0.384512 0.764136 0.257971
0.427402 0.770825 0.255691
0.471412 0.777139 0.253036
0.516542 0.783078 0.250006
0.562792 0.788642 0.246601
0.610161 0.793831 0.242821
0.658650 0.798645 0.238666
0.708259 0.803084 0.234136
0.758988 0.807148 0.229231
0.810837 0.810837 0.223951
0.863805 0.814151 0.218296
0.917894 0.817090 0.212265
0.973102 0.819654 0.205860
0.217521 0.801392 0.259226
0.257185 0.809067 0.257185
0.297968 0.816367 0.254768
0.339871 0.823292 0.251976
0.382894 0.829842 0.248810
0.427037 0.836017 0.245268
0.472300 0.841817 0.241352
0.518682 0.847242 0.237060
0.566185 0.852291 0.232393
0.614807 0.856966 0.227352
0.664549 0.861266 0.221935
0.715411 0.865191 0.216144
0.767392 0.868741 0.209977
0.820494 0.871916 0.203435
0.874715 0.874715 0.196519
0.930057 0.877140 0.189227
0.986518 0.879190 0.181560
0.206648 0.869939 0.250867
0.247564 0.877100 0.247564
0.289600 0.883886 0.243886
0.332756 0.890297 0.239833
0.377032 0.896333 0.235405
0.422428 0.901993 0.230601
0.468943 0.907279 0.225423
0.516579 0.912190 0.219870
0.565334 0.916726 0.213942
0.615209 0.920886 0.207639
0.666204 0.924672 0.200961
0.718318 0.928083 0.193907
0.771553 0.931118 0.186479
0.825907 0.933779 0.178676
0.881381 0.936065 0.170498
0.937975 0.937975 0.161945
0.995689 0.939511 0.153016
0.191530 0.939271 0.238264
0.233699 0.945918 0.233699
0.276988 0.952190 0.228760
0.321397 0.958086 0.223445
0.366926 0.963608 0.217755
0.413574 0.968755 0.211691
0.461343 0.973526 0.205251
0.510231 0.977923 0.198436
0.560239 0.981945 0.191246
0.611367 0.985591 0.183682
0.663614 0.988863 0.175742
0.716982 0.991759 0.167427
0.771469 0.994281 0.158737
0.827076 0.996427 0.149673
0.883803 0.998199 0.140233
0.941650 0.999595 0.130418
1.000000 1.000000 0.119611
0.000000 0.000000 0.123985
0.061245 0.000000 0.122490
0.120995 0.000000 0.120995
0.179250 0.000000 0.119500
0.236011 0.000000 0.118005
0.291276 0.000000 0.116510
0.346223 0.001176 0.116192
0.400115 0.002792 0.116313
0.452887 0.004783 0.116809
0.504539 0.007149 0.117680
0.555071 0.009890 0.118926
0.604484 0.013006 0.120548
0.652777 0.016497 0.122544
0.699949 0.020363 0.124915
0.746002 0.024604 0.127661
0.790936 0.029220 0.130782
0.834749 0.034211 0.134279
0.000000 0.059478 0.118956
0.058731 0.058731 0.117461
0.116310 0.058327 0.116310
0.173428 0.058957 0.116192
0.229427 0.059962 0.116450
0.284305 0.061342 0.117083
0.338064 0.063097 0.118090
0.390703 0.065227 0.119473
0.442222 0.067732 0.121231
0.492622 0.070612 0.123364
0.541901 0.073868 0.125871
0.590061 0.077498 0.128754
0.637101 0.081503 0.132012
0.683021 0.085883 0.135644
0.727821 0.090638 0.139652
0.771501 0.095768 0.144035
0.814062 0.101273 0.148793
0.002316 0.116243 0.116243
0.060421 0.116637 0.116637
0.117406 0.117406 0.117406
0.173272 0.118550 0.118550
0.228017 0.120070 0.120070
0.281643 0.121964 0.121964
0.334149 0.124233 0.124233
0.385536 0.126877 0.126877
0.435802 0.129897 0.129897
0.484948 0.133291 0.133291
0.532975 0.137060 0.137060
0.579882 0.141204 0.141204
0.625669 0.145724 0.145724
0.670336 0.150618 0.150618
0.713884 0.155887 0.155887
0.756311 0.161532 0.161532
0.797619 0.167551 0.167551
0.010162 0.173509 0.119060
0.067014 0.174418 0.120716
0.122747 0.175701 0.122747
0.177359 0.177359 0.125152
0.230852 0.179393 0.127933
0.283225 0.181801 0.131089
0.334478 0.184584 0.134620
0.384612 0.187743 0.138525
0.433625 0.191276 0.142806
0.481519 0.195185 0.147462
0.528293 0.199468 0.152493
0.573947 0.204126 0.157899
0.618481 0.209160 0.163680
0.661896 0.214568 0.169835
0.704190 0.220352 0.176366
0.745365 0.226510 0.183272
0.785420 0.233043 0.190553
0.022252 0.229991 0.126121
0.077851 0.231413 0.129039
0.132331 0.233211 0.132331
0.185691 0.235383 0.135998
0.237931 0.237931 0.140041
0.289051 0.240853 0.144458
0.339051 0.244151 0.149250
0.387932 0.247823 0.154418
0.435693 0.251871 0.159960
0.482334 0.256293 0.165877
0.527855 0.261091 0.172170
0.572256 0.266263 0.178837
0.615537 0.271811 0.185879
0.657699 0.277734 0.193297
0.698740 0.284031 0.201089
0.738662 0.290704 0.209257
0.777464 0.297751 0.217799
0.038586 0.285688 0.137426
0.092932 0.287624 0.141605
0.146159 0.289936 0.146159
0.198266 0.292623 0.151088
0.249253 0.295684 0.156392
0.299121 0.299121 0.162071
0.347868 0.302933 0.168125
0.395496 0.307119 0.174554
0.442004 0.311681 0.181358
0.487392 0.316617 0.188536
0.531660 0.321929 0.196090
0.574809 0.327616 0.204019
0.616837 0.333677 0.212323
0.657746 0.340114 0.221002
0.697535 0.346926 0.230056
0.736204 0.354112 0.239485
0.773753 0.361674 0.249289
0.059163 0.340600 0.152976
0.112257 0.343051 0.158416
0.164231 0.345876 0.164231
0.215086 0.349077 0.170422
0.264820 0.352653 0.176987
0.313435 0.356604 0.183928
0.360929 0.360929 0.191243
0.407304 0.365630 0.198934
0.452559 0.370706 0.206999
0.496695 0.376157 0.215439
0.539710 0.381982 0.224255
0.581606 0.388183 0.233445
0.622381 0.394759 0.243011
0.662037 0.401710 0.252951
0.700573 0.409036 0.263267
0.737989 0.416736 0.273957
0.774286 0.424812 0.285023
0.083985 0.394727 0.172769
0.135826 0.397692 0.179471
0.186548 0.401032 0.186548
0.236149 0.404747 0.194000
0.284631 0.408837 0.201826
0.331992 0.413302 0.210028
0.378234 0.418141 0.218605
0.423356 0.423356 0.227557
0.467359 0.428946 0.236884
0.510241 0.434911 0.246586
0.552004 0.441251 0.256664
0.592646 0.447966 0.267116
0.632169 0.455056 0.277943
0.670572 0.462521 0.289145
0.713087 0.469332 0.295221
0.759785 0.475228 0.297380
0.807603 0.480750 0.299165
0.113051 0.448070 0.196806
0.163639 0.451549 0.204769
0.213108 0.455403 0.213108
0.261456 0.459632 0.221821
0.308685 0.464236 0.230910
0.354794 0.469215 0.240373
0.399783 0.474569 0.250212
0.443652 0.480298 0.260425
0.486402 0.486402 0.271014
0.528031 0.492881 0.281977
0.568541 0.499735 0.293316
0.611899 0.506616 0.296051
0.656491 0.513124 0.298073
0.702202 0.519256 0.299721
0.749033 0.525013 0.300994
0.796983 0.530396 0.301892
0.846054 0.535403 0.302414
0.146361 0.500627 0.225087
0.195696 0.504620 0.234312
0.243912 0.508989 0.243912
0.291007 0.513732 0.253887
0.336983 0.518850 0.264237
0.381839 0.524343 0.274962
0.425576 0.530211 0.286062
0.467664 0.536902 0.294569
0.509029 0.544395 0.296831
0.551514 0.551514 0.298717
0.595118 0.558257 0.300228
0.639842 0.564625 0.301364
0.685686 0.570618 0.302125
0.732650 0.576236 0.302511
0.780734 0.581479 0.302523
0.829937 0.586347 0.302159
0.880261 0.590840 0.301420
0.183914 0.552400 0.257611
0.231997 0.556907 0.268098
0.278960 0.561790 0.278960
0.324803 0.567047 0.290196
0.365218 0.574565 0.295436
0.404476 0.582669 0.297561
0.444854 0.590398 0.299310
0.486352 0.597752 0.300685
0.528969 0.604731 0.301685
0.572707 0.611335 0.302309
0.617564 0.617564 0.302559
0.663541 0.623418 0.302434
0.710638 0.628897 0.301933
0.758855 0.634001 0.301058
0.808191 0.638730 0.299807
0.858648 0.643084 0.298182
0.910224 0.647063 0.296182
0.225058 0.603632 0.293890
0.261090 0.612722 0.296253
0.298241 0.621437 0.298241
0.336512 0.629777 0.299854
0.375903 0.637742 0.301092
0.416414 0.645332 0.301955
0.458045 0.652546 0.302444
0.500795 0.659386 0.302557
0.544666 0.665851 0.302295
0.589656 0.671941 0.301658
0.635766 0.677656 0.300646
0.682996 0.682996 0.299259
0.731346 0.687961 0.297497
0.780815 0.692551 0.295360
0.831405 0.696765 0.292848
0.883114 0.700605 0.289961
0.935943 0.704070 0.286699
0.226488 0.669650 0.300348
0.263772 0.678226 0.301450
0.302177 0.686427 0.302177
0.341701 0.694252 0.302528
0.382344 0.701703 0.302505
0.424108 0.708779 0.302106
0.466992 0.715480 0.301333
0.510995 0.721806 0.300184
0.556118 0.727756 0.298661
0.602361 0.733332 0.296763
0.649724 0.738533 0.294489
0.698207 0.743359 0.291841
0.747809 0.747809 0.288817
0.798532 0.751885 0.285419
0.850374 0.755586 0.281645
0.903336 0.758912 0.277497
0.957418 0.761862 0.272973
0.223674 0.736453 0.302563
0.262211 0.744515 0.302403
0.301868 0.752201 0.301868
0.342645 0.759513 0.300958
0.384542 0.766450 0.299673
0.427558 0.773011 0.298013
0.471695 0.779198 0.295978
0.516951 0.785010 0.293568
0.563327 0.790446 0.290783
0.610823 0.795508 0.287623
0.659438 0.800195 0.284088
0.709174 0.804506 0.280178
0.760029 0.808443 0.275893
0.812004 0.812004 0.271233
0.865099 0.815191 0.266198
0.919314 0.818002 0.260788
0.974649 0.820439 0.255003
0.216616 0.804041 0.300534
0.256406 0.811588 0.299112
0.297316 0.818761 0.297316
0.339346 0.825558 0.295144
0.382495 0.831981 0.292598
0.426764 0.838028 0.289676
0.472154 0.843701 0.286380
0.518663 0.848999 0.282708
0.566291 0.853921 0.278662
0.615040 0.858468 0.274240
0.664909 0.862641 0.269444
0.715897 0.866439 0.264272
0.768005 0.869861 0.258725
0.821233 0.872908 0.252804
0.875581 0.875581 0.246507
0.931049 0.877878 0.239836
0.987636 0.879801 0.232789
0.205314 0.872413 0.294261
0.246357 0.879447 0.291578
0.288520 0.886105 0.288520
0.331802 0.892389 0.285086
0.376204 0.898297 0.281278
0.421727 0.903830 0.277095
0.468369 0.908989 0.272537
0.516130 0.913772 0.267604
0.565012 0.918181 0.262296
0.615014 0.922214 0.256613
0.666135 0.925872 0.250555
0.718376 0.929156 0.244122
0.771737 0.932064 0.237314
0.826218 0.934597 0.230130
0.881819 0.936756 0.222572
0.938539 0.938539 0.214639
0.996379 0.939947 0.206331
0.189768 0.941571 0.283744
0.232064 0.948090 0.279799
0.275479 0.954234 0.275479
0.320015 0.960004 0.270785
0.365670 0.965398 0.265715
0.412445 0.970417 0.260270
0.460340 0.975061 0.254451
0.509354 0.979331 0.248256
0.559489 0.983225 0.241686
0.610743 0.986744 0.234742
0.663117 0.989888 0.227422
0.716611 0.992658 0.219727
0.771225 0.995052 0.211658
0.826959 0.997071 0.203213
0.883812 0.998715 0.194393
0.941785 0.999985 0.185199
1.000000 1.000000 0.174750
0.000000 0.000000 0.185216
0.060991 0.000000 0.182973
0.120487 0.000000 0.180731
0.178489 0.000000 0.178489
0.234995 0.000000 0.176246
0.290322 0.000315 0.174319
