luts/bleach_bypass_17.cube
# Generated by scripts/recipes/generate_demo_luts.py
# Retouch Engine -- demo LUT (safe to redistribute).
# Bleach-bypass / silver-retention look: high contrast + desaturated midtones.
# Luma S-curve (+18%), channels blended 45% toward luma in midtones only.
# Endpoints preserved; not a real film stock profile.
TITLE "Demo Bleach Bypass 17x17x17"
LUT_3D_SIZE 5
DOMAIN_MIN 0.0 0.0 0.0
DOMAIN_MAX 1.0 1.0 1.0
0.000000 0.000000 0.000000
0.238041 0.000000 0.000000
0.455555 0.003390 0.003390
0.656456 0.014085 0.014085
0.839441 0.030780 0.030780
0.019469 0.229239 0.019469
0.236160 0.236160 0.038349
0.434933 0.249081 0.063228
0.615790 0.268002 0.094108
0.778729 0.292924 0.130989
0.106841 0.445921 0.106841
0.303486 0.461068 0.145905
0.482215 0.482215 0.190970
0.650081 0.508745 0.226072
0.838633 0.532043 0.225453
0.226541 0.663611 0.226541
0.381386 0.696683 0.223737
0.554148 0.723755 0.214933
0.744827 0.744827 0.200128
0.953424 0.759899 0.179324
0.193249 0.936929 0.193249
0.368139 0.961775 0.170260
0.560946 0.980621 0.141271
0.771670 0.993466 0.106282
1.000000 1.000000 0.064980
0.000000 0.000000 0.245939
0.233980 0.000000 0.233980
0.450392 0.006349 0.228371
0.649270 0.019082 0.229145
0.830230 0.037815 0.235919
0.025208 0.230916 0.230916
0.239875 0.239875 0.239875
0.436625 0.254834 0.254834
0.615458 0.275793 0.275793
0.776373 0.302752 0.302752
0.119434 0.450392 0.284913
0.314057 0.467577 0.314057
0.490761 0.490761 0.349200
0.662727 0.517330 0.371932
0.853302 0.538590 0.381234
0.226262 0.675516 0.376013
0.383130 0.706550 0.383130
0.557916 0.731584 0.384247
0.750618 0.750618 0.379363
0.961239 0.763653 0.368480
0.186115 0.946040 0.376096
0.363028 0.968848 0.363028
0.557859 0.985656 0.343960
0.770607 0.996464 0.318892
1.000000 1.000000 0.286551
0.000000 0.000000 0.483755
0.231149 0.001230 0.461068
0.445921 0.010001 0.445921
0.642775 0.024771 0.436774
0.821712 0.045542 0.433627
0.031638 0.233286 0.434933
0.244282 0.244282 0.433971
0.439009 0.261279 0.439009
0.615818 0.284275 0.450047
0.774710 0.313272 0.467085
0.132720 0.455555 0.455555
0.325319 0.474777 0.474777
0.500000 0.500000 0.500000
0.674681 0.525223 0.525223
0.867280 0.544445 0.544445
0.225290 0.686728 0.532915
0.384182 0.715725 0.549953
0.560991 0.738721 0.560991
0.755718 0.755718 0.566029
0.968362 0.766714 0.565067
0.178288 0.954458 0.566373
0.357225 0.975229 0.563226
0.554079 0.989999 0.554079
0.768851 0.998770 0.538932
1.000000 1.000000 0.516245
0.000000 0.000000 0.713449
0.229393 0.003536 0.681108
0.442141 0.014344 0.656040
0.636972 0.031152 0.636972
0.813885 0.053960 0.623904
0.038761 0.236347 0.631520
0.249382 0.249382 0.620637
0.442084 0.268416 0.615753
0.616870 0.293450 0.616870
0.773738 0.324484 0.623987
0.146698 0.461410 0.618766
0.337273 0.482670 0.628068
0.509239 0.509239 0.650800
0.685943 0.532423 0.685943
0.880566 0.549608 0.715087
0.223627 0.697248 0.697248
0.384542 0.724207 0.724207
0.563375 0.745166 0.745166
0.760125 0.760125 0.760125
0.974792 0.769084 0.769084
0.169770 0.962185 0.764081
0.350730 0.980918 0.770855
0.549608 0.993651 0.771630
0.766020 1.000000 0.766020
1.000000 1.000000 0.754061
0.000000 0.000000 0.935020
0.228330 0.006533 0.893718
0.439054 0.019379 0.858729
0.631861 0.038225 0.829740
0.806751 0.063071 0.806751
0.046576 0.240101 0.820676
0.255173 0.255173 0.799872
0.445852 0.276245 0.785067
0.618614 0.303317 0.776263
0.773459 0.336389 0.773459
0.161367 0.467957 0.774547
0.349919 0.491255 0.773928
0.517785 0.517785 0.809030
0.696514 0.538932 0.854095
0.893159 0.554079 0.893159
0.221271 0.707076 0.869011
0.384210 0.731998 0.905892
0.565067 0.750919 0.936772
0.763840 0.763840 0.961651
0.980531 0.770761 0.980531
0.160559 0.969220 0.969220
0.343544 0.985915 0.985915
0.544445 0.996610 0.996610
0.761959 1.000000 1.000000
1.000000 1.000000 1.000000
