luts/bleach_bypass_17.cube
# Generated by scripts/recipes/generate_demo_luts.py
# Retouch Engine -- demo LUT (safe to redistribute).
# Bleach-bypass / silver-retention look: high contrast + desaturated midtones.
# Luma S-curve (+18%), channels blended 45% toward luma in midtones only.
# Endpoints preserved; not a real film stock profile.
TITLE "Demo Bleach Bypass 17x17x17"
LUT_3D_SIZE 9
DOMAIN_MIN 0.0 0.0 0.0
DOMAIN_MAX 1.0 1.0 1.0
0.000000 0.000000 0.000000
0.122010 0.000000 0.000000
0.238041 0.000000 0.000000
0.348385 0.000292 0.000292
0.455555 0.003390 0.003390
0.558245 0.007988 0.007988
0.656456 0.014085 0.014085
0.750188 0.021683 0.021683
0.839441 0.030780 0.030780
0.001246 0.116189 0.001246
0.116843 0.116843 0.004890
0.227960 0.118997 0.010034
0.334598 0.122651 0.016678
0.436756 0.127805 0.024821
0.534435 0.134459 0.034465
0.627635 0.142613 0.045609
0.716356 0.152267 0.058253
0.800597 0.163422 0.072397
0.019469 0.229239 0.019469
0.130054 0.231949 0.028159
0.236160 0.236160 0.038349
0.337786 0.241870 0.050038
0.434933 0.249081 0.063228
0.527601 0.257792 0.077918
0.615790 0.268002 0.094108
0.699499 0.279713 0.111798
0.778729 0.292924 0.130989
0.054667 0.339149 0.054667
0.160241 0.343916 0.068403
0.261335 0.350183 0.083639
0.357950 0.357950 0.100375
0.450086 0.367218 0.118611
0.537743 0.377985 0.138347
0.620920 0.390252 0.159584
0.699618 0.404019 0.182320
0.773836 0.419286 0.206556
0.106841 0.445921 0.106841
0.207403 0.452744 0.125623
0.303486 0.461068 0.145905
0.395090 0.470891 0.167688
0.482215 0.482215 0.190970
0.564860 0.495039 0.215752
0.650081 0.508745 0.226072
0.742117 0.521144 0.226512
0.838633 0.532043 0.225453
0.175990 0.549553 0.175990
0.271541 0.558433 0.199819
0.362546 0.568847 0.225012
0.441676 0.585189 0.226406
0.525285 0.600031 0.226300
0.613374 0.613374 0.224694
0.705942 0.625216 0.221588
0.802989 0.635559 0.216982
0.904516 0.644401 0.210876
0.226541 0.663611 0.226541
0.301724 0.680897 0.225889
0.381386 0.696683 0.223737
0.465527 0.710969 0.220085
0.554148 0.723755 0.214933
0.647248 0.735041 0.208281
0.744827 0.744827 0.200128
0.846886 0.753113 0.190476
0.953424 0.759899 0.179324
0.218383 0.798701 0.218383
0.298577 0.813930 0.212685
0.383250 0.827660 0.205486
0.472403 0.839889 0.196788
0.566035 0.850618 0.186590
0.664146 0.859848 0.174891
0.766737 0.867577 0.161693
0.873807 0.873807 0.146994
0.985356 0.878536 0.130796
0.193249 0.936929 0.193249
0.278454 0.950102 0.182504
0.368139 0.961775 0.170260
0.462303 0.971948 0.156515
0.560946 0.980621 0.141271
0.664068 0.987794 0.124526
0.771670 0.993466 0.106282
0.883752 0.997639 0.086537
1.000000 1.000000 0.064980
0.000000 0.000000 0.123985
0.120995 0.000000 0.120995
0.236011 0.000000 0.118005
0.346223 0.001176 0.116192
0.452887 0.004783 0.116809
0.555071 0.009890 0.118926
0.652777 0.016497 0.122544
0.746002 0.024604 0.127661
0.834749 0.034211 0.134279
0.002316 0.116243 0.116243
0.117406 0.117406 0.117406
0.228017 0.120070 0.120070
0.334149 0.124233 0.124233
0.435802 0.129897 0.129897
0.532975 0.137060 0.137060
0.625669 0.145724 0.145724
0.713884 0.155887 0.155887
0.797619 0.167551 0.167551
0.022252 0.229991 0.126121
0.132331 0.233211 0.132331
0.237931 0.237931 0.140041
0.339051 0.244151 0.149250
0.435693 0.251871 0.159960
0.527855 0.261091 0.172170
0.615537 0.271811 0.185879
0.698740 0.284031 0.201089
0.777464 0.297751 0.217799
0.059163 0.340600 0.152976
0.164231 0.345876 0.164231
0.264820 0.352653 0.176987
0.360929 0.360929 0.191243
0.452559 0.370706 0.206999
0.539710 0.381982 0.224255
0.622381 0.394759 0.243011
0.700573 0.409036 0.263267
0.774286 0.424812 0.285023
0.113051 0.448070 0.196806
0.213108 0.455403 0.213108
0.308685 0.464236 0.230910
0.399783 0.474569 0.250212
0.486402 0.486402 0.271014
0.568541 0.499735 0.293316
0.656491 0.513124 0.298073
0.749033 0.525013 0.300994
0.846054 0.535403 0.302414
0.183914 0.552400 0.257611
0.278960 0.561790 0.278960
0.365218 0.574565 0.295436
0.444854 0.590398 0.299310
0.528969 0.604731 0.301685
0.617564 0.617564 0.302559
0.710638 0.628897 0.301933
0.808191 0.638730 0.299807
0.910224 0.647063 0.296182
0.226488 0.669650 0.300348
0.302177 0.686427 0.302177
0.382344 0.701703 0.302505
0.466992 0.715480 0.301333
0.556118 0.727756 0.298661
0.649724 0.738533 0.294489
0.747809 0.747809 0.288817
0.850374 0.755586 0.281645
0.957418 0.761862 0.272973
0.216616 0.804041 0.300534
0.297316 0.818761 0.297316
0.382495 0.831981 0.292598
0.472154 0.843701 0.286380
0.566291 0.853921 0.278662
0.664909 0.862641 0.269444
0.768005 0.869861 0.258725
0.875581 0.875581 0.246507
0.987636 0.879801 0.232789
0.189768 0.941571 0.283744
0.275479 0.954234 0.275479
0.365670 0.965398 0.265715
0.460340 0.975061 0.254451
0.559489 0.983225 0.241686
0.663117 0.989888 0.227422
0.771225 0.995052 0.211658
0.883812 0.998715 0.194393
1.000000 1.000000 0.174750
0.000000 0.000000 0.245939
0.119980 0.000000 0.239959
0.233980 0.000000 0.233980
0.344234 0.002233 0.230234
0.450392 0.006349 0.228371
0.552070 0.011966 0.228008
0.649270 0.019082 0.229145
0.741990 0.027699 0.231782
0.830230 0.037815 0.235919
0.003558 0.116470 0.229382
0.118143 0.118143 0.228065
0.228248 0.121315 0.228248
0.333874 0.125988 0.229931
0.435021 0.132161 0.233114
0.531688 0.139834 0.237798
0.623876 0.149007 0.243981
0.711584 0.159680 0.251664
0.794814 0.171853 0.260847
0.025208 0.230916 0.230916
0.134781 0.234646 0.234646
0.239875 0.239875 0.239875
0.340490 0.246604 0.246604
0.436625 0.254834 0.254834
0.528281 0.264563 0.264563
0.615458 0.275793 0.275793
0.698155 0.288522 0.288522
0.776373 0.302752 0.302752
0.063833 0.342224 0.249427
0.168395 0.348010 0.258202
0.268478 0.355295 0.268478
0.364081 0.364081 0.280253
0.455205 0.374367 0.293529
0.541850 0.386153 0.308305
0.624016 0.399439 0.324580
0.701702 0.414225 0.342356
0.774908 0.430511 0.361632
0.119434 0.450392 0.284913
0.218985 0.458234 0.298735
0.314057 0.467577 0.314057
0.404649 0.478419 0.330878
0.490761 0.490761 0.349200
0.574159 0.504450 0.365031
0.662727 0.517330 0.371932
0.755775 0.528710 0.377333
0.853302 0.538590 0.381234
0.192011 0.555421 0.337375
0.286551 0.565320 0.356243
0.367717 0.580110 0.367717
0.447859 0.595434 0.374072
0.532480 0.609257 0.378927
0.621581 0.621581 0.382281
0.715161 0.632405 0.384136
0.813220 0.641728 0.384490
0.915758 0.649552 0.383345
0.226262 0.675516 0.376013
0.302456 0.691783 0.380322
0.383130 0.706550 0.383130
0.468283 0.719817 0.384438
0.557916 0.731584 0.384247
0.652027 0.741851 0.382555
0.750618 0.750618 0.379363
0.853689 0.757886 0.374672
0.961239 0.763653 0.368480
0.214676 0.809208 0.384542
0.295882 0.823419 0.383805
0.381567 0.836129 0.381567
0.471731 0.847340 0.377829
0.566375 0.857051 0.372591
0.665498 0.865261 0.365853
0.769100 0.871972 0.357615
0.877182 0.877182 0.347878
0.989743 0.880893 0.336640
0.186115 0.946040 0.376096
0.272332 0.958194 0.370312
0.363028 0.968848 0.363028
0.458204 0.978002 0.354244
0.557859 0.985656 0.343960
0.661993 0.991810 0.332176
0.770607 0.996464 0.318892
0.883700 0.999618 0.304108
1.000000 1.000000 0.286551
0.000000 0.000000 0.365862
0.118964 0.000000 0.356893
0.232286 0.000337 0.348261
0.342418 0.003463 0.342418
0.448070 0.008088 0.338074
0.549242 0.014214 0.335231
0.645936 0.021840 0.333888
0.738150 0.030966 0.334045
0.825884 0.041592 0.335702
0.004973 0.116870 0.340663
0.119052 0.119052 0.336866
0.228651 0.122734 0.334568
0.333771 0.127916 0.333771
0.434412 0.134599 0.334474
0.530574 0.142781 0.336677
0.622256 0.152463 0.340380
0.709458 0.163646 0.345583
0.792182 0.176328 0.352286
0.028336 0.232015 0.333854
0.137404 0.236253 0.335103
0.241992 0.241992 0.337852
0.342101 0.249231 0.342101
0.437730 0.257970 0.347850
0.528881 0.268209 0.355099
0.615551 0.279948 0.363849
0.697743 0.293187 0.374098
0.775455 0.307925 0.385847
0.068676 0.344020 0.344020
0.172732 0.350316 0.350316
0.272309 0.358111 0.358111
0.367406 0.367406 0.367406
0.458024 0.378202 0.378202
0.544163 0.390497 0.390497
0.625823 0.404292 0.404292
0.703003 0.419588 0.419588
0.782660 0.434480 0.434480
0.125991 0.452887 0.371163
0.225036 0.461239 0.382504
0.319601 0.471090 0.395346
0.409687 0.482442 0.409687
0.495294 0.495294 0.425529
0.579716 0.508992 0.438268
0.668791 0.521363 0.447649
0.762345 0.532233 0.455530
0.860378 0.541604 0.461910
0.200281 0.558614 0.415281
0.293875 0.569168 0.431522
0.370044 0.585482 0.441857
0.450691 0.600296 0.450691
0.535818 0.613611 0.458026
0.625425 0.625425 0.463861
0.719511 0.635739 0.468196
0.818076 0.644553 0.471031
0.921120 0.651867 0.472365
0.225863 0.681208 0.453535
0.302563 0.696966 0.460324
0.383743 0.711224 0.465613
0.469402 0.723982 0.469402
0.559540 0.735239 0.471690
0.654158 0.744997 0.472479
0.753255 0.753255 0.471767
0.856831 0.760012 0.469556
0.964887 0.765270 0.465844
0.212563 0.814202 0.470408
0.294275 0.827904 0.472151
0.380466 0.840105 0.472393
0.471136 0.850806 0.471136
0.566286 0.860007 0.468378
0.665915 0.867708 0.464121
0.770023 0.873909 0.458363
0.878611 0.878611 0.451106
0.991678 0.881812 0.442348
0.182288 0.950335 0.470306
0.269011 0.961980 0.467002
0.360213 0.972125 0.462198
0.455895 0.980770 0.455895
0.556056 0.987914 0.448091
0.660696 0.993559 0.438787
0.769815 0.997703 0.427983
0.883066 1.000000 0.415331
1.000000 1.000000 0.400383
0.000000 0.000000 0.483755
0.117949 0.000000 0.471796
0.231149 0.001230 0.461068
0.340774 0.004865 0.452744
0.445921 0.010001 0.445921
0.546587 0.016636 0.440597
0.642775 0.024771 0.436774
0.734483 0.034406 0.434450
0.821712 0.045542 0.433627
0.006561 0.117443 0.450086
0.120134 0.120134 0.443809
0.229228 0.124326 0.439031
0.333842 0.130018 0.435754
0.433977 0.137209 0.433977
0.529632 0.145901 0.433699
0.620809 0.156093 0.434922
0.707505 0.167785 0.437645
0.789723 0.180977 0.441868
0.031638 0.233286 0.434933
0.140200 0.238034 0.433702
0.244282 0.244282 0.433971
0.343885 0.252030 0.435740
0.439009 0.261279 0.439009
0.529653 0.272027 0.443778
0.615818 0.284275 0.450047
0.697503 0.298024 0.457816
0.774710 0.313272 0.467085
0.073691 0.345990 0.436756
0.177242 0.352795 0.440571
0.276313 0.361099 0.445886
0.370904 0.370904 0.452701
0.461017 0.382209 0.461017
0.546649 0.395014 0.470832
0.627803 0.409319 0.482147
0.704477 0.425124 0.494962
0.791276 0.438019 0.508671
0.132720 0.455555 0.455555
0.231259 0.464416 0.464416
0.325319 0.474777 0.474777
0.414899 0.486639 0.486639
0.500000 0.500000 0.500000
0.585101 0.513361 0.513361
0.674681 0.525223 0.525223
0.768741 0.535584 0.535584
0.867280 0.544445 0.544445
0.208724 0.561981 0.491329
0.295523 0.574876 0.505038
0.372197 0.590681 0.517853
0.453351 0.604986 0.529168
0.538984 0.617791 0.538984
0.629096 0.629096 0.547299
0.723687 0.638901 0.554114
0.822758 0.647205 0.559429
0.926309 0.654010 0.563244
0.225290 0.686728 0.532915
0.302497 0.701976 0.542184
0.384182 0.715725 0.549953
0.470347 0.727973 0.556222
0.560991 0.738721 0.560991
0.656115 0.747970 0.564260
0.755718 0.755718 0.566029
0.859800 0.761966 0.566298
0.968362 0.766714 0.565067
0.210277 0.819023 0.558132
0.292495 0.832215 0.562355
0.379192 0.843907 0.565078
0.470368 0.854099 0.566301
0.566023 0.862791 0.566023
0.666158 0.869982 0.564246
0.770772 0.875674 0.560969
0.879866 0.879866 0.556191
0.993439 0.882557 0.549914
0.178288 0.954458 0.566373
0.265517 0.965594 0.565550
0.357225 0.975229 0.563226
0.453413 0.983364 0.559403
0.554079 0.989999 0.554079
0.659226 0.995135 0.547256
0.768851 0.998770 0.538932
0.882051 1.000000 0.528204
1.000000 1.000000 0.516245
0.000000 0.000000 0.599617
0.116934 0.000000 0.584669
0.230185 0.002296 0.572017
0.339304 0.006441 0.561213
0.443944 0.012086 0.551909
0.544105 0.019230 0.544105
0.639787 0.027875 0.537802
0.730989 0.038020 0.532998
0.817712 0.049665 0.529694
0.008322 0.118188 0.557652
0.121389 0.121389 0.548894
0.229977 0.126091 0.541637
0.334085 0.132292 0.535879
0.433714 0.139993 0.531622
0.528864 0.149194 0.528864
0.619534 0.159895 0.527606
0.705725 0.172097 0.527849
0.787437 0.185798 0.529592
0.035113 0.234730 0.534155
0.143169 0.239988 0.530444
0.246745 0.246745 0.528233
0.345842 0.255003 0.527521
0.440460 0.264761 0.528310
0.530598 0.276018 0.530598
0.616257 0.288776 0.534387
0.697437 0.303034 0.539676
0.774137 0.318792 0.546465
0.078880 0.348133 0.527635
0.181924 0.355447 0.528969
0.280489 0.364261 0.531804
0.374575 0.374575 0.536139
0.464182 0.386389 0.541974
0.549309 0.399704 0.549309
0.629956 0.414518 0.558143
0.706125 0.430832 0.568478
0.799719 0.441386 0.584719
0.139622 0.458396 0.538090
0.237655 0.467767 0.544470
0.331209 0.478637 0.552351
0.420284 0.491008 0.561732
0.504706 0.504706 0.574471
0.590313 0.517558 0.590313
0.680399 0.528910 0.604654
0.774964 0.538761 0.617496
0.874009 0.547113 0.628837
0.217340 0.565520 0.565520
0.296997 0.580412 0.580412
0.374177 0.595708 0.595708
0.455837 0.609503 0.609503
0.541976 0.621798 0.621798
0.632594 0.632594 0.632594
0.727691 0.641889 0.641889
0.827268 0.649684 0.649684
0.931324 0.655980 0.655980
0.224545 0.692075 0.614153
0.302257 0.706814 0.625902
0.384449 0.720052 0.636151
0.471119 0.731791 0.644901
0.562270 0.742030 0.652150
0.657899 0.750769 0.657899
0.758008 0.758008 0.662148
0.862596 0.763747 0.664897
0.971664 0.767985 0.666146
0.207818 0.823672 0.647714
0.290542 0.836354 0.654417
0.377744 0.847537 0.659620
0.469426 0.857219 0.663323
0.565588 0.865401 0.665526
0.666229 0.872084 0.666229
0.771349 0.877266 0.665431
0.880948 0.880948 0.663134
0.995027 0.883130 0.659337
0.174116 0.958408 0.664298
0.261850 0.969034 0.665955
0.354064 0.978160 0.666112
0.450758 0.985786 0.664769
0.551930 0.991912 0.661926
0.657582 0.996537 0.657582
0.767714 0.999663 0.651739
0.881036 1.000000 0.643107
1.000000 1.000000 0.634138
0.000000 0.000000 0.713449
0.116300 0.000382 0.695892
0.229393 0.003536 0.681108
0.338007 0.008190 0.667824
0.442141 0.014344 0.656040
0.541796 0.021998 0.645756
0.636972 0.031152 0.636972
0.727668 0.041806 0.629688
0.813885 0.053960 0.623904
0.010257 0.119107 0.663360
0.122818 0.122818 0.652122
0.230900 0.128028 0.642385
0.334502 0.134739 0.634147
0.433625 0.142949 0.627409
0.528269 0.152660 0.622171
0.618433 0.163871 0.618433
0.704118 0.176581 0.616195
0.785324 0.190792 0.615458
0.038761 0.236347 0.631520
0.146311 0.242114 0.625328
0.249382 0.249382 0.620637
0.347973 0.258149 0.617445
0.442084 0.268416 0.615753
0.531717 0.280183 0.615562
0.616870 0.293450 0.616870
0.697544 0.308217 0.619678
0.773738 0.324484 0.623987
0.084242 0.350448 0.616655
0.186780 0.358272 0.615510
0.284839 0.367596 0.615864
0.378419 0.378419 0.617719
0.467520 0.390743 0.621073
0.552141 0.404566 0.625928
0.632283 0.419890 0.632283
0.713449 0.434680 0.643757
0.807989 0.444579 0.662625
0.146698 0.461410 0.618766
0.244225 0.471290 0.622667
0.337273 0.482670 0.628068
0.425841 0.495550 0.634969
0.509239 0.509239 0.650800
0.595351 0.521581 0.669122
0.685943 0.532423 0.685943
0.781015 0.541766 0.701265
0.880566 0.549608 0.715087
0.225092 0.569489 0.638368
0.298298 0.585775 0.657644
0.375984 0.600561 0.675419
0.458150 0.613847 0.691695
0.544795 0.625633 0.706471
0.635919 0.635919 0.719747
0.731522 0.644705 0.731522
0.831605 0.651990 0.741798
0.936167 0.657776 0.750573
0.223627 0.697248 0.697248
0.301845 0.711478 0.711478
0.384542 0.724207 0.724207
0.471719 0.735437 0.735437
0.563375 0.745166 0.745166
0.659510 0.753396 0.753396
0.760125 0.760125 0.760125
0.865219 0.765354 0.765354
0.974792 0.769084 0.769084
0.205186 0.828147 0.739152
0.288416 0.840320 0.748336
0.376124 0.850993 0.756019
0.468312 0.860166 0.762202
0.564979 0.867839 0.766886
0.666126 0.874012 0.770069
0.771752 0.878685 0.771752
0.881858 0.881858 0.771935
0.996442 0.883530 0.770618
0.169770 0.962185 0.764081
0.258010 0.972301 0.768218
0.350730 0.980918 0.770855
0.447930 0.988034 0.771992
0.549608 0.993651 0.771630
0.655766 0.997767 0.769766
0.766020 1.000000 0.766020
0.880020 1.000000 0.760041
1.000000 1.000000 0.754061
0.000000 0.000000 0.825250
0.116188 0.001285 0.805607
0.228775 0.004948 0.788342
0.336883 0.010112 0.772578
0.440511 0.016775 0.758314
0.539660 0.024939 0.745549
0.634330 0.034602 0.734285
0.724521 0.045766 0.724521
0.810232 0.058429 0.716256
0.012364 0.120199 0.767211
0.124419 0.124419 0.753493
0.231995 0.130139 0.741275
0.335091 0.137359 0.730557
0.433709 0.146079 0.721338
0.527847 0.156299 0.713620
0.617505 0.168019 0.707402
0.702684 0.181239 0.702684
0.783384 0.195959 0.699466
0.042582 0.238138 0.727027
0.149626 0.244414 0.718355
0.252191 0.252191 0.711183
0.350276 0.261467 0.705511
0.443882 0.272244 0.701339
0.533008 0.284520 0.698667
0.617656 0.298297 0.697495
0.697823 0.313573 0.697823
0.773512 0.330350 0.699652
0.089776 0.352937 0.703818
0.191809 0.361270 0.700193
0.289362 0.371103 0.698067
0.382436 0.382436 0.697441
0.471031 0.395269 0.698315
0.555146 0.409602 0.700690
0.634782 0.425435 0.704564
0.721040 0.438210 0.721040
0.816086 0.447600 0.742389
0.153946 0.464597 0.697586
0.250967 0.474987 0.699006
0.343509 0.486876 0.701927
0.431459 0.500265 0.706684
0.513598 0.513598 0.728986
0.600217 0.525431 0.749788
0.691315 0.535764 0.769090
0.786892 0.544597 0.786892
0.886949 0.551930 0.803194
0.225714 0.575188 0.714977
0.299427 0.590964 0.736733
0.377619 0.605241 0.756989
0.460290 0.618018 0.775745
0.547441 0.629294 0.793001
0.639071 0.639071 0.808757
0.735180 0.647347 0.823013
0.835769 0.654124 0.835769
0.940837 0.659400 0.847024
0.222536 0.702249 0.782201
0.301260 0.715969 0.798911
0.384463 0.728189 0.814121
0.472145 0.738909 0.827830
0.564307 0.748129 0.840040
0.660949 0.755849 0.850750
0.762069 0.762069 0.859959
0.867669 0.766789 0.867669
0.977748 0.770009 0.873879
0.202381 0.832449 0.832449
0.286116 0.844113 0.844113
0.374331 0.854276 0.854276
0.467025 0.862940 0.862940
0.564198 0.870103 0.870103
0.665851 0.875767 0.875767
0.771982 0.879930 0.879930
0.882594 0.882594 0.882594
0.997684 0.883757 0.883757
0.165251 0.965789 0.865721
0.253998 0.975396 0.872339
0.347223 0.983503 0.877456
0.444929 0.990110 0.881074
0.547113 0.995217 0.883191
0.653777 0.998824 0.883808
0.763989 1.000000 0.881995
0.879005 1.000000 0.879005
1.000000 1.000000 0.876015
0.000000 0.000000 0.935020
0.116248 0.002361 0.913463
0.228330 0.006533 0.893718
0.335932 0.012206 0.875474
0.439054 0.019379 0.858729
0.537697 0.028052 0.843485
0.631861 0.038225 0.829740
0.721546 0.049898 0.817496
0.806751 0.063071 0.806751
0.014644 0.121464 0.869204
0.126193 0.126193 0.853006
0.233263 0.132423 0.838307
0.335854 0.140152 0.825109
0.433965 0.149382 0.813410
0.527597 0.160111 0.803212
0.616750 0.172340 0.794514
0.701423 0.186070 0.787315
0.781617 0.201300 0.781617
0.046576 0.240101 0.820676
0.153114 0.246887 0.809524
0.255173 0.255173 0.799872
0.352752 0.264959 0.791719
0.445852 0.276245 0.785067
0.534473 0.289031 0.779915
0.618614 0.303317 0.776263
0.698276 0.319103 0.774111
0.773459 0.336389 0.773459
0.095484 0.355599 0.789124
0.197011 0.364441 0.783018
0.294058 0.374784 0.778412
0.386626 0.386626 0.775306
0.474715 0.399968 0.773700
0.558324 0.414811 0.773594
0.637454 0.431154 0.774988
0.728459 0.441567 0.800181
0.824010 0.450447 0.824010
0.161367 0.467957 0.774547
0.257883 0.478856 0.773488
0.349919 0.491255 0.773928
0.435140 0.504961 0.784248
0.517785 0.517785 0.809030
0.604910 0.529109 0.832312
0.696514 0.538932 0.854095
0.792597 0.547256 0.874377
0.893159 0.554079 0.893159
0.226164 0.580714 0.793444
0.300382 0.595981 0.817680
0.379080 0.609748 0.840416
0.462257 0.622015 0.861652
0.549914 0.632782 0.881389
0.642050 0.642050 0.899625
0.738665 0.649817 0.916361
0.839759 0.656084 0.931597
0.945333 0.660851 0.945333
0.221271 0.707076 0.869011
0.300501 0.720287 0.888202
0.384210 0.731998 0.905892
0.472399 0.742208 0.922082
0.565067 0.750919 0.936772
0.662214 0.758130 0.949962
0.763840 0.763840 0.961651
0.869946 0.768051 0.971841
0.980531 0.770761 0.980531
0.199403 0.836578 0.927603
0.283644 0.847733 0.941747
0.372365 0.857387 0.954391
0.465565 0.865541 0.965535
0.563244 0.872195 0.975179
0.665402 0.877349 0.983323
0.772040 0.881003 0.989966
0.883157 0.883157 0.995110
0.998753 0.883811 0.998753
0.160559 0.969220 0.969220
0.249812 0.978317 0.978317
0.343544 0.985915 0.985915
0.441755 0.992012 0.992012
0.544445 0.996610 0.996610
0.651615 0.999708 0.999708
0.761959 1.000000 1.000000
0.877990 1.000000 1.000000
1.000000 1.000000 1.000000
