luts/cool_shadows_17.cube
# Generated by scripts/recipes/generate_demo_luts.py
# Retouch Engine -- demo LUT (safe to redistribute).
# Cool tint (R - 0.05, B + 0.05) in shadow regions,
# weighted by a luma bump centered at L=0.1.
# Demonstrates a luminance-dependent 'look' (e.g., split-toning).
TITLE "Demo Cool Shadows 17x17x17"
LUT_3D_SIZE 5
DOMAIN_MIN 0.0 0.0 0.0
DOMAIN_MAX 1.0 1.0 1.0
0.000000 0.000000 0.000000
0.228662 0.000000 0.021338
0.450000 0.000000 0.050000
0.700000 0.000000 0.050000
0.970084 0.000000 0.029916
0.000000 0.250000 0.048047
0.229666 0.250000 0.020334
0.495366 0.250000 0.004634
0.749421 0.250000 0.000579
0.999960 0.250000 0.000040
0.000000 0.500000 0.000235
0.249987 0.500000 0.000013
0.500000 0.500000 0.000000
0.750000 0.500000 0.000000
1.000000 0.500000 0.000000
0.000000 0.750000 0.000000
0.250000 0.750000 0.000000
0.500000 0.750000 0.000000
0.750000 0.750000 0.000000
1.000000 0.750000 0.000000
0.000000 1.000000 0.000000
0.250000 1.000000 0.000000
0.500000 1.000000 0.000000
0.750000 1.000000 0.000000
1.000000 1.000000 0.000000
0.000000 0.000000 0.254611
0.217234 0.000000 0.282766
0.450000 0.000000 0.300000
0.701323 0.000000 0.298677
0.979078 0.000000 0.270922
0.000000 0.250000 0.288525
0.236825 0.250000 0.263175
0.497555 0.250000 0.252445
0.749750 0.250000 0.250250
0.999986 0.250000 0.250014
0.000000 0.500000 0.250094
0.249996 0.500000 0.250004
0.500000 0.500000 0.250000
0.750000 0.500000 0.250000
1.000000 0.500000 0.250000
0.000000 0.750000 0.250000
0.250000 0.750000 0.250000
0.500000 0.750000 0.250000
0.750000 0.750000 0.250000
1.000000 0.750000 0.250000
0.000000 1.000000 0.250000
0.250000 1.000000 0.250000
0.500000 1.000000 0.250000
0.750000 1.000000 0.250000
1.000000 1.000000 0.250000
0.000000 0.000000 0.511999
0.205888 0.000000 0.544112
0.450000 0.000000 0.550000
0.710760 0.000000 0.539240
0.986375 0.000000 0.513625
0.000000 0.250000 0.528698
0.242044 0.250000 0.507956
0.498796 0.250000 0.501204
0.749899 0.250000 0.500101
0.999995 0.250000 0.500005
0.000000 0.500000 0.500035
0.249999 0.500000 0.500001
0.500000 0.500000 0.500000
0.750000 0.500000 0.500000
1.000000 0.500000 0.500000
0.000000 0.750000 0.500000
0.250000 0.750000 0.500000
0.500000 0.750000 0.500000
0.750000 0.750000 0.500000
1.000000 0.750000 0.500000
0.000000 1.000000 0.500000
0.250000 1.000000 0.500000
0.500000 1.000000 0.500000
0.750000 1.000000 0.500000
1.000000 1.000000 0.500000
0.000000 0.000000 0.771942
0.200000 0.000000 0.800000
0.450000 0.000000 0.800000
0.720616 0.000000 0.779384
0.991730 0.000000 0.758270
0.000000 0.250000 0.769888
0.245519 0.250000 0.754481
0.499446 0.250000 0.750554
0.749962 0.250000 0.750038
0.999999 0.250000 0.750001
0.000000 0.500000 0.750012
0.250000 0.500000 0.750000
0.500000 0.500000 0.750000
0.750000 0.500000 0.750000
1.000000 0.500000 0.750000
0.000000 0.750000 0.750000
0.250000 0.750000 0.750000
0.500000 0.750000 0.750000
0.750000 0.750000 0.750000
1.000000 0.750000 0.750000
0.000000 1.000000 0.750000
0.250000 1.000000 0.750000
0.500000 1.000000 0.750000
0.750000 1.000000 0.750000
1.000000 1.000000 0.750000
0.000000 0.000000 1.000000
0.200000 0.000000 1.000000
0.451807 0.000000 1.000000
0.729531 0.000000 1.000000
0.995319 0.000000 1.000000
0.000000 0.250000 1.000000
0.247645 0.250000 1.000000
0.499762 0.250000 1.000000
0.749987 0.250000 1.000000
1.000000 0.250000 1.000000
0.000000 0.500000 1.000000
0.250000 0.500000 1.000000
0.500000 0.500000 1.000000
0.750000 0.500000 1.000000
1.000000 0.500000 1.000000
0.000000 0.750000 1.000000
0.250000 0.750000 1.000000
0.500000 0.750000 1.000000
0.750000 0.750000 1.000000
1.000000 0.750000 1.000000
0.000000 1.000000 1.000000
0.250000 1.000000 1.000000
0.500000 1.000000 1.000000
0.750000 1.000000 1.000000
1.000000 1.000000 1.000000
