luts/cool_shadows_17.cube
# Generated by scripts/recipes/generate_demo_luts.py
# Retouch Engine -- demo LUT (safe to redistribute).
# Cool tint (R - 0.05, B + 0.05) in shadow regions,
# weighted by a luma bump centered at L=0.1.
# Demonstrates a luminance-dependent 'look' (e.g., split-toning).
TITLE "Demo Cool Shadows 17x17x17"
LUT_3D_SIZE 9
DOMAIN_MIN 0.0 0.0 0.0
DOMAIN_MAX 1.0 1.0 1.0
0.000000 0.000000 0.000000
0.117250 0.000000 0.007750
0.228662 0.000000 0.021338
0.336743 0.000000 0.038257
0.450000 0.000000 0.050000
0.575000 0.000000 0.050000
0.700000 0.000000 0.050000
0.830624 0.000000 0.044376
0.970084 0.000000 0.029916
0.000000 0.125000 0.044201
0.075000 0.125000 0.050000
0.200000 0.125000 0.050000
0.325000 0.125000 0.050000
0.460843 0.125000 0.039157
0.600080 0.125000 0.024920
0.736427 0.125000 0.013573
0.868654 0.125000 0.006346
0.997448 0.125000 0.002552
0.000000 0.250000 0.048047
0.091172 0.250000 0.033828
0.229666 0.250000 0.020334
0.364527 0.250000 0.010473
0.495366 0.250000 0.004634
0.623235 0.250000 0.001765
0.749421 0.250000 0.000579
0.874836 0.250000 0.000164
0.999960 0.250000 0.000040
0.000000 0.375000 0.007921
0.121682 0.375000 0.003318
0.248803 0.375000 0.001197
0.374628 0.375000 0.000372
0.499900 0.375000 0.000100
0.624977 0.375000 0.000023
0.749995 0.375000 0.000005
0.874999 0.375000 0.000001
1.000000 0.375000 0.000000
0.000000 0.500000 0.000235
0.124940 0.500000 0.000060
0.249987 0.500000 0.000013
0.374997 0.500000 0.000003
0.500000 0.500000 0.000000
0.625000 0.500000 0.000000
0.750000 0.500000 0.000000
0.875000 0.500000 0.000000
1.000000 0.500000 0.000000
0.000000 0.625000 0.000001
0.125000 0.625000 0.000000
0.250000 0.625000 0.000000
0.375000 0.625000 0.000000
0.500000 0.625000 0.000000
0.625000 0.625000 0.000000
0.750000 0.625000 0.000000
0.875000 0.625000 0.000000
1.000000 0.625000 0.000000
0.000000 0.750000 0.000000
0.125000 0.750000 0.000000
0.250000 0.750000 0.000000
0.375000 0.750000 0.000000
0.500000 0.750000 0.000000
0.625000 0.750000 0.000000
0.750000 0.750000 0.000000
0.875000 0.750000 0.000000
1.000000 0.750000 0.000000
0.000000 0.875000 0.000000
0.125000 0.875000 0.000000
0.250000 0.875000 0.000000
0.375000 0.875000 0.000000
0.500000 0.875000 0.000000
0.625000 0.875000 0.000000
0.750000 0.875000 0.000000
0.875000 0.875000 0.000000
1.000000 0.875000 0.000000
0.000000 1.000000 0.000000
0.125000 1.000000 0.000000
0.250000 1.000000 0.000000
0.375000 1.000000 0.000000
0.500000 1.000000 0.000000
0.625000 1.000000 0.000000
0.750000 1.000000 0.000000
0.875000 1.000000 0.000000
1.000000 1.000000 0.000000
0.000000 0.000000 0.126972
0.113243 0.000000 0.136757
0.223057 0.000000 0.151943
0.331183 0.000000 0.168817
0.450000 0.000000 0.175000
0.575000 0.000000 0.175000
0.700000 0.000000 0.175000
0.835486 0.000000 0.164514
0.974756 0.000000 0.150244
0.000000 0.125000 0.174200
0.075000 0.125000 0.175000
0.200000 0.125000 0.175000
0.326637 0.125000 0.173363
0.465815 0.125000 0.159185
0.604373 0.125000 0.145627
0.739336 0.125000 0.135664
0.870264 0.125000 0.129736
0.998190 0.125000 0.126810
0.000000 0.250000 0.168425
0.096039 0.250000 0.153961
0.233487 0.250000 0.141513
0.366924 0.250000 0.133076
0.496605 0.250000 0.128395
0.623771 0.250000 0.126229
0.749616 0.250000 0.125384
0.874897 0.250000 0.125103
0.999976 0.250000 0.125024
0.000000 0.375000 0.130994
0.122614 0.375000 0.127386
0.249181 0.375000 0.125819
0.374758 0.375000 0.125242
0.499938 0.375000 0.125062
0.624986 0.375000 0.125014
0.749997 0.375000 0.125003
0.875000 0.375000 0.125000
1.000000 0.375000 0.125000
0.000000 0.500000 0.125150
0.124964 0.500000 0.125036
0.249992 0.500000 0.125008
0.374999 0.500000 0.125001
0.500000 0.500000 0.125000
0.625000 0.500000 0.125000
0.750000 0.500000 0.125000
0.875000 0.500000 0.125000
1.000000 0.500000 0.125000
0.000000 0.625000 0.125001
0.125000 0.625000 0.125000
0.250000 0.625000 0.125000
0.375000 0.625000 0.125000
0.500000 0.625000 0.125000
0.625000 0.625000 0.125000
0.750000 0.625000 0.125000
0.875000 0.625000 0.125000
1.000000 0.625000 0.125000
0.000000 0.750000 0.125000
0.125000 0.750000 0.125000
0.250000 0.750000 0.125000
0.375000 0.750000 0.125000
0.500000 0.750000 0.125000
0.625000 0.750000 0.125000
0.750000 0.750000 0.125000
0.875000 0.750000 0.125000
1.000000 0.750000 0.125000
0.000000 0.875000 0.125000
0.125000 0.875000 0.125000
0.250000 0.875000 0.125000
0.375000 0.875000 0.125000
0.500000 0.875000 0.125000
0.625000 0.875000 0.125000
0.750000 0.875000 0.125000
0.875000 0.875000 0.125000
1.000000 0.875000 0.125000
0.000000 1.000000 0.125000
0.125000 1.000000 0.125000
0.250000 1.000000 0.125000
0.375000 1.000000 0.125000
0.500000 1.000000 0.125000
0.625000 1.000000 0.125000
0.750000 1.000000 0.125000
0.875000 1.000000 0.125000
1.000000 1.000000 0.125000
0.000000 0.000000 0.254611
0.108580 0.000000 0.266420
0.217234 0.000000 0.282766
0.326137 0.000000 0.298863
0.450000 0.000000 0.300000
0.575000 0.000000 0.300000
0.701323 0.000000 0.298677
0.840458 0.000000 0.284542
0.979078 0.000000 0.270922
0.000000 0.125000 0.300000
0.075000 0.125000 0.300000
0.200000 0.125000 0.300000
0.331230 0.125000 0.293770
0.470695 0.125000 0.279305
0.608228 0.125000 0.266772
0.741767 0.125000 0.258233
0.871526 0.125000 0.253474
0.998737 0.125000 0.251263
0.000000 0.250000 0.288525
0.100649 0.250000 0.274351
0.236825 0.250000 0.263175
0.368881 0.250000 0.256119
0.497555 0.250000 0.252445
0.624158 0.250000 0.250842
0.749750 0.250000 0.250250
0.874936 0.250000 0.250064
0.999986 0.250000 0.250014
0.000000 0.375000 0.254458
0.123313 0.375000 0.251687
0.249450 0.375000 0.250550
0.374845 0.375000 0.250155
0.499962 0.375000 0.250038
0.624992 0.375000 0.250008
0.749999 0.375000 0.250001
0.875000 0.375000 0.250000
1.000000 0.375000 0.250000
0.000000 0.500000 0.250094
0.124978 0.500000 0.250022
0.249996 0.500000 0.250004
0.374999 0.500000 0.250001
0.500000 0.500000 0.250000
0.625000 0.500000 0.250000
0.750000 0.500000 0.250000
0.875000 0.500000 0.250000
1.000000 0.500000 0.250000
0.000000 0.625000 0.250000
0.125000 0.625000 0.250000
0.250000 0.625000 0.250000
0.375000 0.625000 0.250000
0.500000 0.625000 0.250000
0.625000 0.625000 0.250000
0.750000 0.625000 0.250000
0.875000 0.625000 0.250000
1.000000 0.625000 0.250000
0.000000 0.750000 0.250000
0.125000 0.750000 0.250000
0.250000 0.750000 0.250000
0.375000 0.750000 0.250000
0.500000 0.750000 0.250000
0.625000 0.750000 0.250000
0.750000 0.750000 0.250000
0.875000 0.750000 0.250000
1.000000 0.750000 0.250000
0.000000 0.875000 0.250000
0.125000 0.875000 0.250000
0.250000 0.875000 0.250000
0.375000 0.875000 0.250000
0.500000 0.875000 0.250000
0.625000 0.875000 0.250000
0.750000 0.875000 0.250000
0.875000 0.875000 0.250000
1.000000 0.875000 0.250000
0.000000 1.000000 0.250000
0.125000 1.000000 0.250000
0.250000 1.000000 0.250000
0.375000 1.000000 0.250000
0.500000 1.000000 0.250000
0.625000 1.000000 0.250000
0.750000 1.000000 0.250000
0.875000 1.000000 0.250000
1.000000 1.000000 0.250000
0.000000 0.000000 0.382954
0.103361 0.000000 0.396639
0.211426 0.000000 0.413574
0.325000 0.000000 0.425000
0.450000 0.000000 0.425000
0.575000 0.000000 0.425000
0.705887 0.000000 0.419113
0.845350 0.000000 0.404650
0.982966 0.000000 0.392034
0.000000 0.125000 0.425000
0.075000 0.125000 0.425000
0.200000 0.125000 0.425000
0.336118 0.125000 0.413882
0.475329 0.125000 0.399671
0.611601 0.125000 0.388399
0.743753 0.125000 0.381247
0.872495 0.125000 0.377505
0.999134 0.125000 0.375866
0.000000 0.250000 0.408554
0.104890 0.250000 0.395110
0.239672 0.250000 0.385328
0.370443 0.250000 0.379557
0.498269 0.250000 0.376731
0.624433 0.250000 0.375567
0.749840 0.250000 0.375160
0.874961 0.250000 0.375039
0.999992 0.250000 0.375008
0.000000 0.375000 0.378259
0.123827 0.375000 0.376173
0.249636 0.375000 0.375364
0.374903 0.375000 0.375097
0.499977 0.375000 0.375023
0.624995 0.375000 0.375005
0.749999 0.375000 0.375001
0.875000 0.375000 0.375000
1.000000 0.375000 0.375000
0.000000 0.500000 0.375058
0.124987 0.500000 0.375013
0.249998 0.500000 0.375002
0.375000 0.500000 0.375000
0.500000 0.500000 0.375000
0.625000 0.500000 0.375000
0.750000 0.500000 0.375000
0.875000 0.500000 0.375000
1.000000 0.500000 0.375000
0.000000 0.625000 0.375000
0.125000 0.625000 0.375000
0.250000 0.625000 0.375000
0.375000 0.625000 0.375000
0.500000 0.625000 0.375000
0.625000 0.625000 0.375000
0.750000 0.625000 0.375000
0.875000 0.625000 0.375000
1.000000 0.625000 0.375000
0.000000 0.750000 0.375000
0.125000 0.750000 0.375000
0.250000 0.750000 0.375000
0.375000 0.750000 0.375000
0.500000 0.750000 0.375000
0.625000 0.750000 0.375000
0.750000 0.750000 0.375000
0.875000 0.750000 0.375000
1.000000 0.750000 0.375000
0.000000 0.875000 0.375000
0.125000 0.875000 0.375000
0.250000 0.875000 0.375000
0.375000 0.875000 0.375000
0.500000 0.875000 0.375000
0.625000 0.875000 0.375000
0.750000 0.875000 0.375000
0.875000 0.875000 0.375000
1.000000 0.875000 0.375000
0.000000 1.000000 0.375000
0.125000 1.000000 0.375000
0.250000 1.000000 0.375000
0.375000 1.000000 0.375000
0.500000 1.000000 0.375000
0.625000 1.000000 0.375000
0.750000 1.000000 0.375000
0.875000 1.000000 0.375000
1.000000 1.000000 0.375000
0.000000 0.000000 0.511999
0.097738 0.000000 0.527262
0.205888 0.000000 0.544112
0.325000 0.000000 0.550000
0.450000 0.000000 0.550000
0.575000 0.000000 0.550000
0.710760 0.000000 0.539240
0.850006 0.000000 0.524994
0.986375 0.000000 0.513625
0.000000 0.125000 0.550000
0.075000 0.125000 0.550000
0.201880 0.125000 0.548120
0.341089 0.125000 0.533911
0.479599 0.125000 0.520401
0.614483 0.125000 0.510517
0.745342 0.125000 0.504658
0.873225 0.125000 0.501775
0.999417 0.125000 0.500583
0.000000 0.250000 0.528698
0.108685 0.250000 0.516315
0.242044 0.250000 0.507956
0.371664 0.250000 0.503336
0.498796 0.250000 0.501204
0.624625 0.250000 0.500375
0.749899 0.250000 0.500101
0.874977 0.250000 0.500023
0.999995 0.250000 0.500005
0.000000 0.375000 0.502342
0.124199 0.375000 0.500801
0.249764 0.375000 0.500236
0.374940 0.375000 0.500060
0.499987 0.375000 0.500013
0.624997 0.375000 0.500003
0.750000 0.375000 0.500000
0.875000 0.375000 0.500000
1.000000 0.375000 0.500000
0.000000 0.500000 0.500035
0.124993 0.500000 0.500007
0.249999 0.500000 0.500001
0.375000 0.500000 0.500000
0.500000 0.500000 0.500000
0.625000 0.500000 0.500000
0.750000 0.500000 0.500000
0.875000 0.500000 0.500000
1.000000 0.500000 0.500000
0.000000 0.625000 0.500000
0.125000 0.625000 0.500000
0.250000 0.625000 0.500000
0.375000 0.625000 0.500000
0.500000 0.625000 0.500000
0.625000 0.625000 0.500000
0.750000 0.625000 0.500000
0.875000 0.625000 0.500000
1.000000 0.625000 0.500000
0.000000 0.750000 0.500000
0.125000 0.750000 0.500000
0.250000 0.750000 0.500000
0.375000 0.750000 0.500000
0.500000 0.750000 0.500000
0.625000 0.750000 0.500000
0.750000 0.750000 0.500000
0.875000 0.750000 0.500000
1.000000 0.750000 0.500000
0.000000 0.875000 0.500000
0.125000 0.875000 0.500000
0.250000 0.875000 0.500000
0.375000 0.875000 0.500000
0.500000 0.875000 0.500000
0.625000 0.875000 0.500000
0.750000 0.875000 0.500000
0.875000 0.875000 0.500000
1.000000 0.875000 0.500000
0.000000 1.000000 0.500000
0.125000 1.000000 0.500000
0.250000 1.000000 0.500000
0.375000 1.000000 0.500000
0.500000 1.000000 0.500000
0.625000 1.000000 0.500000
0.750000 1.000000 0.500000
0.875000 1.000000 0.500000
1.000000 1.000000 0.500000
0.000000 0.000000 0.641696
0.091909 0.000000 0.658091
0.200877 0.000000 0.674123
0.325000 0.000000 0.675000
0.450000 0.000000 0.675000
0.576564 0.000000 0.673436
0.715733 0.000000 0.659267
0.854305 0.000000 0.645695
0.989292 0.000000 0.635708
0.000000 0.125000 0.675000
0.075000 0.125000 0.675000
0.206495 0.125000 0.668505
0.345960 0.125000 0.654040
0.483427 0.125000 0.641573
0.616888 0.125000 0.633112
0.746587 0.125000 0.628413
0.873763 0.125000 0.626237
0.999613 0.125000 0.625387
0.000000 0.250000 0.649105
0.111996 0.250000 0.638004
0.243977 0.250000 0.631023
0.372600 0.250000 0.627400
0.499176 0.250000 0.625824
0.624756 0.250000 0.625244
0.749938 0.250000 0.625062
0.874986 0.250000 0.625014
0.999997 0.250000 0.625003
0.000000 0.375000 0.626654
0.124462 0.375000 0.625538
0.249849 0.375000 0.625151
0.374963 0.375000 0.625037
0.499992 0.375000 0.625008
0.624999 0.375000 0.625001
0.750000 0.375000 0.625000
0.875000 0.375000 0.625000
1.000000 0.375000 0.625000
0.000000 0.500000 0.625021
0.124996 0.500000 0.625004
0.249999 0.500000 0.625001
0.375000 0.500000 0.625000
0.500000 0.500000 0.625000
0.625000 0.500000 0.625000
0.750000 0.500000 0.625000
0.875000 0.500000 0.625000
1.000000 0.500000 0.625000
0.000000 0.625000 0.625000
0.125000 0.625000 0.625000
0.250000 0.625000 0.625000
0.375000 0.625000 0.625000
0.500000 0.625000 0.625000
0.625000 0.625000 0.625000
0.750000 0.625000 0.625000
0.875000 0.625000 0.625000
1.000000 0.625000 0.625000
0.000000 0.750000 0.625000
0.125000 0.750000 0.625000
0.250000 0.750000 0.625000
0.375000 0.750000 0.625000
0.500000 0.750000 0.625000
0.625000 0.750000 0.625000
0.750000 0.750000 0.625000
0.875000 0.750000 0.625000
1.000000 0.750000 0.625000
0.000000 0.875000 0.625000
0.125000 0.875000 0.625000
0.250000 0.875000 0.625000
0.375000 0.875000 0.625000
0.500000 0.875000 0.625000
0.625000 0.875000 0.625000
0.750000 0.875000 0.625000
0.875000 0.875000 0.625000
1.000000 0.875000 0.625000
0.000000 1.000000 0.625000
0.125000 1.000000 0.625000
0.250000 1.000000 0.625000
0.375000 1.000000 0.625000
0.500000 1.000000 0.625000
0.625000 1.000000 0.625000
0.750000 1.000000 0.625000
0.875000 1.000000 0.625000
1.000000 1.000000 0.625000
0.000000 0.000000 0.771942
0.086110 0.000000 0.788890
0.200000 0.000000 0.800000
0.325000 0.000000 0.800000
0.450000 0.000000 0.800000
0.581151 0.000000 0.793849
0.720616 0.000000 0.779384
0.858167 0.000000 0.766833
0.991730 0.000000 0.758270
0.000000 0.125000 0.800000
0.075000 0.125000 0.800000
0.211393 0.125000 0.788607
0.350576 0.125000 0.774424
0.486774 0.125000 0.763226
0.618851 0.125000 0.756149
0.747541 0.125000 0.752459
0.874153 0.125000 0.750847
0.999748 0.125000 0.750252
0.000000 0.250000 0.769888
0.114815 0.250000 0.760185
0.245519 0.250000 0.754481
0.373303 0.250000 0.751697
0.499446 0.250000 0.750554
0.624844 0.250000 0.750156
0.749962 0.250000 0.750038
0.874992 0.250000 0.750008
0.999999 0.250000 0.750001
0.000000 0.375000 0.751149
0.124645 0.375000 0.750355
0.249905 0.375000 0.750095
0.374978 0.375000 0.750022
0.499996 0.375000 0.750004
0.624999 0.375000 0.750001
0.750000 0.375000 0.750000
0.875000 0.375000 0.750000
1.000000 0.375000 0.750000
0.000000 0.500000 0.750012
0.124998 0.500000 0.750002
0.250000 0.500000 0.750000
0.375000 0.500000 0.750000
0.500000 0.500000 0.750000
0.625000 0.500000 0.750000
0.750000 0.500000 0.750000
0.875000 0.500000 0.750000
1.000000 0.500000 0.750000
0.000000 0.625000 0.750000
0.125000 0.625000 0.750000
0.250000 0.625000 0.750000
0.375000 0.625000 0.750000
0.500000 0.625000 0.750000
0.625000 0.625000 0.750000
0.750000 0.625000 0.750000
0.875000 0.625000 0.750000
1.000000 0.625000 0.750000
0.000000 0.750000 0.750000
0.125000 0.750000 0.750000
0.250000 0.750000 0.750000
0.375000 0.750000 0.750000
0.500000 0.750000 0.750000
0.625000 0.750000 0.750000
0.750000 0.750000 0.750000
0.875000 0.750000 0.750000
1.000000 0.750000 0.750000
0.000000 0.875000 0.750000
0.125000 0.875000 0.750000
0.250000 0.875000 0.750000
0.375000 0.875000 0.750000
0.500000 0.875000 0.750000
0.625000 0.875000 0.750000
0.750000 0.875000 0.750000
0.875000 0.875000 0.750000
1.000000 0.875000 0.750000
0.000000 1.000000 0.750000
0.125000 1.000000 0.750000
0.250000 1.000000 0.750000
0.375000 1.000000 0.750000
0.500000 1.000000 0.750000
0.625000 1.000000 0.750000
0.750000 1.000000 0.750000
0.875000 1.000000 0.750000
1.000000 1.000000 0.750000
0.000000 0.000000 0.902582
0.080594 0.000000 0.919406
0.200000 0.000000 0.925000
0.325000 0.000000 0.925000
0.450000 0.000000 0.925000
0.586035 0.000000 0.913965
0.725254 0.000000 0.899746
0.861549 0.000000 0.888451
0.993724 0.000000 0.881276
0.000000 0.125000 0.925000
0.077124 0.125000 0.922876
0.216363 0.125000 0.908637
0.354823 0.125000 0.895177
0.489628 0.125000 0.885372
0.620420 0.125000 0.879580
0.748259 0.125000 0.876741
0.874430 0.125000 0.875570
0.999839 0.125000 0.875161
0.000000 0.250000 0.891119
0.117162 0.250000 0.882838
0.246723 0.250000 0.878277
0.373820 0.250000 0.876180
0.499634 0.250000 0.875366
0.624902 0.250000 0.875098
0.749977 0.250000 0.875023
0.874995 0.250000 0.875005
0.999999 0.250000 0.875001
0.000000 0.375000 0.875784
0.124769 0.375000 0.875231
0.249941 0.375000 0.875059
0.374987 0.375000 0.875013
0.499998 0.375000 0.875002
0.625000 0.375000 0.875000
0.750000 0.375000 0.875000
0.875000 0.375000 0.875000
1.000000 0.375000 0.875000
0.000000 0.500000 0.875007
0.124999 0.500000 0.875001
0.250000 0.500000 0.875000
0.375000 0.500000 0.875000
0.500000 0.500000 0.875000
0.625000 0.500000 0.875000
0.750000 0.500000 0.875000
0.875000 0.500000 0.875000
1.000000 0.500000 0.875000
0.000000 0.625000 0.875000
0.125000 0.625000 0.875000
0.250000 0.625000 0.875000
0.375000 0.625000 0.875000
0.500000 0.625000 0.875000
0.625000 0.625000 0.875000
0.750000 0.625000 0.875000
0.875000 0.625000 0.875000
1.000000 0.625000 0.875000
0.000000 0.750000 0.875000
0.125000 0.750000 0.875000
0.250000 0.750000 0.875000
0.375000 0.750000 0.875000
0.500000 0.750000 0.875000
0.625000 0.750000 0.875000
0.750000 0.750000 0.875000
0.875000 0.750000 0.875000
1.000000 0.750000 0.875000
0.000000 0.875000 0.875000
0.125000 0.875000 0.875000
0.250000 0.875000 0.875000
0.375000 0.875000 0.875000
0.500000 0.875000 0.875000
0.625000 0.875000 0.875000
0.750000 0.875000 0.875000
0.875000 0.875000 0.875000
1.000000 0.875000 0.875000
0.000000 1.000000 0.875000
0.125000 1.000000 0.875000
0.250000 1.000000 0.875000
0.375000 1.000000 0.875000
0.500000 1.000000 0.875000
0.625000 1.000000 0.875000
0.750000 1.000000 0.875000
0.875000 1.000000 0.875000
1.000000 1.000000 0.875000
0.000000 0.000000 1.000000
0.075620 0.000000 1.000000
0.200000 0.000000 1.000000
0.325000 0.000000 1.000000
0.451807 0.000000 1.000000
0.591007 0.000000 1.000000
0.729531 0.000000 1.000000
0.864439 0.000000 1.000000
0.995319 0.000000 1.000000
0.000000 0.125000 1.000000
0.081761 0.125000 1.000000
0.221223 0.125000 1.000000
0.358626 0.125000 1.000000
0.492008 0.125000 1.000000
0.621647 0.125000 1.000000
0.748788 0.125000 1.000000
0.874622 0.125000 1.000000
0.999898 0.125000 1.000000
0.000000 0.250000 1.000000
0.119072 0.250000 1.000000
0.247645 0.250000 1.000000
0.374194 0.250000 1.000000
0.499762 0.250000 1.000000
0.624939 0.250000 1.000000
0.749987 0.250000 1.000000
0.874997 0.250000 1.000000
1.000000 0.250000 1.000000
0.000000 0.375000 1.000000
0.124853 0.375000 1.000000
0.249964 0.375000 1.000000
0.374993 0.375000 1.000000
0.499999 0.375000 1.000000
0.625000 0.375000 1.000000
0.750000 0.375000 1.000000
0.875000 0.375000 1.000000
1.000000 0.375000 1.000000
0.000000 0.500000 1.000000
0.124999 0.500000 1.000000
0.250000 0.500000 1.000000
0.375000 0.500000 1.000000
0.500000 0.500000 1.000000
0.625000 0.500000 1.000000
0.750000 0.500000 1.000000
0.875000 0.500000 1.000000
1.000000 0.500000 1.000000
0.000000 0.625000 1.000000
0.125000 0.625000 1.000000
0.250000 0.625000 1.000000
0.375000 0.625000 1.000000
0.500000 0.625000 1.000000
0.625000 0.625000 1.000000
0.750000 0.625000 1.000000
0.875000 0.625000 1.000000
1.000000 0.625000 1.000000
0.000000 0.750000 1.000000
0.125000 0.750000 1.000000
0.250000 0.750000 1.000000
0.375000 0.750000 1.000000
0.500000 0.750000 1.000000
0.625000 0.750000 1.000000
0.750000 0.750000 1.000000
0.875000 0.750000 1.000000
1.000000 0.750000 1.000000
0.000000 0.875000 1.000000
0.125000 0.875000 1.000000
0.250000 0.875000 1.000000
0.375000 0.875000 1.000000
0.500000 0.875000 1.000000
0.625000 0.875000 1.000000
0.750000 0.875000 1.000000
0.875000 0.875000 1.000000
1.000000 0.875000 1.000000
0.000000 1.000000 1.000000
0.125000 1.000000 1.000000
0.250000 1.000000 1.000000
0.375000 1.000000 1.000000
0.500000 1.000000 1.000000
0.625000 1.000000 1.000000
0.750000 1.000000 1.000000
0.875000 1.000000 1.000000
1.000000 1.000000 1.000000
