luts/cool_shadows_17.cube
# Generated by scripts/recipes/generate_demo_luts.py
# Retouch Engine -- demo LUT (safe to redistribute).
# Cool tint (R - 0.05, B + 0.05) in shadow regions,
# weighted by a luma bump centered at L=0.1.
# Demonstrates a luminance-dependent 'look' (e.g., split-toning).
TITLE "Demo Cool Shadows 17x17x17"
LUT_3D_SIZE 17
DOMAIN_MIN 0.0 0.0 0.0
DOMAIN_MAX 1.0 1.0 1.0
0.000000 0.000000 0.000000
0.059368 0.000000 0.003132
0.117250 0.000000 0.007750
0.173617 0.000000 0.013883
0.228662 0.000000 0.021338
0.282820 0.000000 0.029680
0.336743 0.000000 0.038257
0.391220 0.000000 0.046280
0.450000 0.000000 0.050000
0.512500 0.000000 0.050000
0.575000 0.000000 0.050000
0.637500 0.000000 0.050000
0.700000 0.000000 0.050000
0.762500 0.000000 0.050000
0.830624 0.000000 0.044376
0.900333 0.000000 0.037167
0.970084 0.000000 0.029916
0.000000 0.062500 0.016461
0.038198 0.062500 0.024302
0.092185 0.062500 0.032815
0.146214 0.062500 0.041286
0.201098 0.062500 0.048902
0.262500 0.062500 0.050000
0.325000 0.062500 0.050000
0.387500 0.062500 0.050000
0.450000 0.062500 0.050000
0.512500 0.062500 0.050000
0.576359 0.062500 0.048641
0.645704 0.062500 0.041796
0.715499 0.062500 0.034501
0.785126 0.062500 0.027374
0.854112 0.062500 0.020888
0.922165 0.062500 0.015335
0.989165 0.062500 0.010835
0.000000 0.125000 0.044201
0.012500 0.125000 0.050000
0.075000 0.125000 0.050000
0.137500 0.125000 0.050000
0.200000 0.125000 0.050000
0.262500 0.125000 0.050000
0.325000 0.125000 0.050000
0.391256 0.125000 0.046244
0.460843 0.125000 0.039157
0.530642 0.125000 0.031858
0.600080 0.125000 0.024920
0.668752 0.125000 0.018748
0.736427 0.125000 0.013573
0.803042 0.125000 0.009458
0.868654 0.125000 0.006346
0.933400 0.125000 0.004100
0.997448 0.125000 0.002552
0.000000 0.187500 0.050000
0.012500 0.187500 0.050000
0.075000 0.187500 0.050000
0.137500 0.187500 0.050000
0.206270 0.187500 0.043730
0.276009 0.187500 0.036491
0.345735 0.187500 0.029265
0.414932 0.187500 0.022568
0.483258 0.187500 0.016742
0.550547 0.187500 0.011953
0.616785 0.187500 0.008215
0.682064 0.187500 0.005436
0.746535 0.187500 0.003465
0.810372 0.187500 0.002128
0.873741 0.187500 0.001259
0.936782 0.187500 0.000718
0.999606 0.187500 0.000394
0.000000 0.250000 0.048047
0.021368 0.250000 0.041132
0.091172 0.250000 0.033828
0.160756 0.250000 0.026744
0.229666 0.250000 0.020334
0.297625 0.250000 0.014875
0.364527 0.250000 0.010473
0.430401 0.250000 0.007099
0.495366 0.250000 0.004634
0.559586 0.250000 0.002914
0.623235 0.250000 0.001765
0.686470 0.250000 0.001030
0.749421 0.250000 0.000579
0.812186 0.250000 0.000314
0.874836 0.250000 0.000164
0.937417 0.250000 0.000083
0.999960 0.250000 0.000040
0.000000 0.312500 0.024314
0.044272 0.312500 0.018228
0.111851 0.312500 0.013149
0.178369 0.312500 0.009131
0.243895 0.312500 0.006105
0.308569 0.312500 0.003931
0.372562 0.312500 0.002438
0.436043 0.312500 0.001457
0.499161 0.312500 0.000839
0.562034 0.312500 0.000466
0.624751 0.312500 0.000249
0.687372 0.312500 0.000128
0.749936 0.312500 0.000064
0.812469 0.312500 0.000031
0.874986 0.312500 0.000014
0.937494 0.312500 0.000006
0.999997 0.312500 0.000003
0.000000 0.375000 0.007921
0.057276 0.375000 0.005224
0.121682 0.375000 0.003318
0.185470 0.375000 0.002030
0.248803 0.375000 0.001197
0.311820 0.375000 0.000680
0.374628 0.375000 0.000372
0.437303 0.375000 0.000197
0.499900 0.375000 0.000100
0.562451 0.375000 0.000049
0.624977 0.375000 0.000023
0.687489 0.375000 0.000011
0.749995 0.375000 0.000005
0.812498 0.375000 0.000002
0.874999 0.375000 0.000001
0.937500 0.375000 0.000000
1.000000 0.375000 0.000000
0.000000 0.437500 0.001682
0.061522 0.437500 0.000978
0.124452 0.437500 0.000548
0.187204 0.437500 0.000296
0.249846 0.437500 0.000154
0.312423 0.437500 0.000077
0.374962 0.437500 0.000038
0.437483 0.437500 0.000018
0.499992 0.437500 0.000008
0.562497 0.437500 0.000003
0.624999 0.437500 0.000001
0.687499 0.437500 0.000001
0.750000 0.437500 0.000000
0.812500 0.437500 0.000000
0.875000 0.437500 0.000000
0.937500 0.437500 0.000000
1.000000 0.437500 0.000000
0.000000 0.500000 0.000235
0.062379 0.500000 0.000121
0.124940 0.500000 0.000060
0.187471 0.500000 0.000029
0.249987 0.500000 0.000013
0.312494 0.500000 0.000006
0.374997 0.500000 0.000003
0.437499 0.500000 0.000001
0.500000 0.500000 0.000000
0.562500 0.500000 0.000000
0.625000 0.500000 0.000000
0.687500 0.500000 0.000000
0.750000 0.500000 0.000000
0.812500 0.500000 0.000000
0.875000 0.500000 0.000000
0.937500 0.500000 0.000000
1.000000 0.500000 0.000000
0.000000 0.562500 0.000022
0.062490 0.562500 0.000010
0.124996 0.562500 0.000004
0.187498 0.562500 0.000002
0.249999 0.562500 0.000001
0.312500 0.562500 0.000000
0.375000 0.562500 0.000000
0.437500 0.562500 0.000000
0.500000 0.562500 0.000000
0.562500 0.562500 0.000000
0.625000 0.562500 0.000000
0.687500 0.562500 0.000000
0.750000 0.562500 0.000000
0.812500 0.562500 0.000000
0.875000 0.562500 0.000000
0.937500 0.562500 0.000000
1.000000 0.562500 0.000000
0.000000 0.625000 0.000001
0.062499 0.625000 0.000001
0.125000 0.625000 0.000000
0.187500 0.625000 0.000000
0.250000 0.625000 0.000000
0.312500 0.625000 0.000000
0.375000 0.625000 0.000000
0.437500 0.625000 0.000000
0.500000 0.625000 0.000000
0.562500 0.625000 0.000000
0.625000 0.625000 0.000000
0.687500 0.625000 0.000000
0.750000 0.625000 0.000000
0.812500 0.625000 0.000000
0.875000 0.625000 0.000000
0.937500 0.625000 0.000000
1.000000 0.625000 0.000000
0.000000 0.687500 0.000000
0.062500 0.687500 0.000000
0.125000 0.687500 0.000000
0.187500 0.687500 0.000000
0.250000 0.687500 0.000000
0.312500 0.687500 0.000000
0.375000 0.687500 0.000000
0.437500 0.687500 0.000000
0.500000 0.687500 0.000000
0.562500 0.687500 0.000000
0.625000 0.687500 0.000000
0.687500 0.687500 0.000000
0.750000 0.687500 0.000000
0.812500 0.687500 0.000000
0.875000 0.687500 0.000000
0.937500 0.687500 0.000000
1.000000 0.687500 0.000000
0.000000 0.750000 0.000000
0.062500 0.750000 0.000000
0.125000 0.750000 0.000000
0.187500 0.750000 0.000000
0.250000 0.750000 0.000000
0.312500 0.750000 0.000000
0.375000 0.750000 0.000000
0.437500 0.750000 0.000000
0.500000 0.750000 0.000000
0.562500 0.750000 0.000000
0.625000 0.750000 0.000000
0.687500 0.750000 0.000000
0.750000 0.750000 0.000000
0.812500 0.750000 0.000000
0.875000 0.750000 0.000000
0.937500 0.750000 0.000000
1.000000 0.750000 0.000000
0.000000 0.812500 0.000000
0.062500 0.812500 0.000000
0.125000 0.812500 0.000000
0.187500 0.812500 0.000000
0.250000 0.812500 0.000000
0.312500 0.812500 0.000000
0.375000 0.812500 0.000000
0.437500 0.812500 0.000000
0.500000 0.812500 0.000000
0.562500 0.812500 0.000000
0.625000 0.812500 0.000000
0.687500 0.812500 0.000000
0.750000 0.812500 0.000000
0.812500 0.812500 0.000000
0.875000 0.812500 0.000000
0.937500 0.812500 0.000000
1.000000 0.812500 0.000000
0.000000 0.875000 0.000000
0.062500 0.875000 0.000000
0.125000 0.875000 0.000000
0.187500 0.875000 0.000000
0.250000 0.875000 0.000000
0.312500 0.875000 0.000000
0.375000 0.875000 0.000000
0.437500 0.875000 0.000000
0.500000 0.875000 0.000000
0.562500 0.875000 0.000000
0.625000 0.875000 0.000000
0.687500 0.875000 0.000000
0.750000 0.875000 0.000000
0.812500 0.875000 0.000000
0.875000 0.875000 0.000000
0.937500 0.875000 0.000000
1.000000 0.875000 0.000000
0.000000 0.937500 0.000000
0.062500 0.937500 0.000000
0.125000 0.937500 0.000000
0.187500 0.937500 0.000000
0.250000 0.937500 0.000000
0.312500 0.937500 0.000000
0.375000 0.937500 0.000000
0.437500 0.937500 0.000000
0.500000 0.937500 0.000000
0.562500 0.937500 0.000000
0.625000 0.937500 0.000000
0.687500 0.937500 0.000000
0.750000 0.937500 0.000000
0.812500 0.937500 0.000000
0.875000 0.937500 0.000000
0.937500 0.937500 0.000000
1.000000 0.937500 0.000000
0.000000 1.000000 0.000000
0.062500 1.000000 0.000000
0.125000 1.000000 0.000000
0.187500 1.000000 0.000000
0.250000 1.000000 0.000000
0.312500 1.000000 0.000000
0.375000 1.000000 0.000000
0.437500 1.000000 0.000000
0.500000 1.000000 0.000000
0.562500 1.000000 0.000000
0.625000 1.000000 0.000000
0.687500 1.000000 0.000000
0.750000 1.000000 0.000000
0.812500 1.000000 0.000000
0.875000 1.000000 0.000000
0.937500 1.000000 0.000000
1.000000 1.000000 0.000000
0.000000 0.000000 0.063407
0.057972 0.000000 0.067028
0.115333 0.000000 0.072167
0.171217 0.000000 0.078783
0.225900 0.000000 0.086600
0.279896 0.000000 0.095104
0.333915 0.000000 0.103585
0.388767 0.000000 0.111233
0.450000 0.000000 0.112500
0.512500 0.000000 0.112500
0.575000 0.000000 0.112500
0.637500 0.000000 0.112500
0.700000 0.000000 0.112500
0.763704 0.000000 0.111296
0.833028 0.000000 0.104472
0.902820 0.000000 0.097180
0.972457 0.000000 0.090043
0.000000 0.062500 0.081512
0.035350 0.062500 0.089650
0.089264 0.062500 0.098236
0.143491 0.062500 0.106509
0.200000 0.062500 0.112500
0.262500 0.062500 0.112500
0.325000 0.062500 0.112500
0.387500 0.062500 0.112500
0.450000 0.062500 0.112500
0.512500 0.062500 0.112500
0.578591 0.062500 0.108910
0.648164 0.062500 0.101836
0.717965 0.062500 0.094535
0.787419 0.062500 0.087581
0.856112 0.062500 0.081388
0.923813 0.062500 0.076187
0.990454 0.062500 0.072046
0.000000 0.125000 0.109283
0.012500 0.125000 0.112500
0.075000 0.125000 0.112500
0.137500 0.125000 0.112500
0.200000 0.125000 0.112500
0.262500 0.125000 0.112500
0.325000 0.125000 0.112500
0.393598 0.125000 0.106402
0.463329 0.125000 0.099171
0.533063 0.125000 0.091937
0.602277 0.125000 0.085223
0.670627 0.125000 0.079373
0.737943 0.125000 0.074557
0.804206 0.125000 0.070794
0.869506 0.125000 0.067994
0.933995 0.125000 0.066005
0.997846 0.125000 0.064654
0.000000 0.187500 0.112500
0.012500 0.187500 0.112500
0.075000 0.187500 0.112500
0.139295 0.187500 0.110705
0.208691 0.187500 0.103809
0.278493 0.187500 0.096507
0.348089 0.187500 0.089411
0.417020 0.187500 0.082980
0.485004 0.187500 0.077496
0.551932 0.187500 0.073068
0.617830 0.187500 0.069670
0.682815 0.187500 0.067185
0.747052 0.187500 0.065448
0.810712 0.187500 0.064288
0.873956 0.187500 0.063544
0.936912 0.187500 0.063088
0.999681 0.187500 0.062819
0.000000 0.250000 0.108285
0.023838 0.250000 0.101162
0.093629 0.250000 0.093871
0.163026 0.250000 0.086974
0.231635 0.250000 0.080865
0.299239 0.250000 0.075761
0.365783 0.250000 0.071717
0.431332 0.250000 0.068668
0.496025 0.250000 0.066475
0.560032 0.250000 0.064968
0.623524 0.250000 0.063976
0.686649 0.250000 0.063351
0.749527 0.250000 0.062973
0.812247 0.250000 0.062753
0.874869 0.250000 0.062631
0.937435 0.250000 0.062565
0.999969 0.250000 0.062531
0.000000 0.312500 0.084643
0.046116 0.312500 0.078884
0.113333 0.312500 0.074167
0.179502 0.312500 0.070498
0.244721 0.312500 0.067779
0.309144 0.312500 0.065856
0.372944 0.312500 0.064556
0.436287 0.312500 0.063713
0.499310 0.312500 0.063190
0.562122 0.312500 0.062878
0.624800 0.312500 0.062700
0.687398 0.312500 0.062602
0.749950 0.312500 0.062550
0.812476 0.312500 0.062524
0.874989 0.312500 0.062511
0.937495 0.312500 0.062505
0.999998 0.312500 0.062502
0.000000 0.375000 0.069405
0.058004 0.375000 0.066996
0.122180 0.375000 0.065320
0.185796 0.375000 0.064204
0.249008 0.375000 0.063492
0.311943 0.375000 0.063057
0.374699 0.375000 0.062801
0.437343 0.375000 0.062657
0.499921 0.375000 0.062579
0.562462 0.375000 0.062538
0.624982 0.375000 0.062518
0.687492 0.375000 0.062508
0.749996 0.375000 0.062503
0.812499 0.375000 0.062501
0.874999 0.375000 0.062501
0.937500 0.375000 0.062500
1.000000 0.375000 0.062500
0.000000 0.437500 0.063905
0.061693 0.437500 0.063307
0.124553 0.437500 0.062947
0.187262 0.437500 0.062738
0.249877 0.437500 0.062623
0.312439 0.437500 0.062561
0.374971 0.437500 0.062529
0.437487 0.437500 0.062513
0.499994 0.437500 0.062506
0.562497 0.437500 0.062503
0.624999 0.437500 0.062501
0.687500 0.437500 0.062500
0.750000 0.437500 0.062500
0.812500 0.437500 0.062500
0.875000 0.437500 0.062500
0.937500 0.437500 0.062500
1.000000 0.437500 0.062500
0.000000 0.500000 0.062688
0.062405 0.500000 0.062595
0.124953 0.500000 0.062547
0.187478 0.500000 0.062522
0.249990 0.500000 0.062510
0.312496 0.500000 0.062504
0.374998 0.500000 0.062502
0.437499 0.500000 0.062501
0.500000 0.500000 0.062500
0.562500 0.500000 0.062500
0.625000 0.500000 0.062500
0.687500 0.500000 0.062500
0.750000 0.500000 0.062500
0.812500 0.500000 0.062500
0.875000 0.500000 0.062500
0.937500 0.500000 0.062500
1.000000 0.500000 0.062500
0.000000 0.562500 0.062517
0.062493 0.562500 0.062507
0.124997 0.562500 0.062503
0.187499 0.562500 0.062501
0.249999 0.562500 0.062501
0.312500 0.562500 0.062500
0.375000 0.562500 0.062500
0.437500 0.562500 0.062500
0.500000 0.562500 0.062500
0.562500 0.562500 0.062500
0.625000 0.562500 0.062500
0.687500 0.562500 0.062500
0.750000 0.562500 0.062500
0.812500 0.562500 0.062500
0.875000 0.562500 0.062500
0.937500 0.562500 0.062500
1.000000 0.562500 0.062500
0.000000 0.625000 0.062501
0.062500 0.625000 0.062500
0.125000 0.625000 0.062500
0.187500 0.625000 0.062500
0.250000 0.625000 0.062500
0.312500 0.625000 0.062500
0.375000 0.625000 0.062500
0.437500 0.625000 0.062500
0.500000 0.625000 0.062500
0.562500 0.625000 0.062500
0.625000 0.625000 0.062500
0.687500 0.625000 0.062500
0.750000 0.625000 0.062500
0.812500 0.625000 0.062500
0.875000 0.625000 0.062500
0.937500 0.625000 0.062500
1.000000 0.625000 0.062500
0.000000 0.687500 0.062500
0.062500 0.687500 0.062500
0.125000 0.687500 0.062500
0.187500 0.687500 0.062500
0.250000 0.687500 0.062500
0.312500 0.687500 0.062500
0.375000 0.687500 0.062500
0.437500 0.687500 0.062500
0.500000 0.687500 0.062500
0.562500 0.687500 0.062500
0.625000 0.687500 0.062500
0.687500 0.687500 0.062500
0.750000 0.687500 0.062500
0.812500 0.687500 0.062500
0.875000 0.687500 0.062500
0.937500 0.687500 0.062500
1.000000 0.687500 0.062500
0.000000 0.750000 0.062500
0.062500 0.750000 0.062500
0.125000 0.750000 0.062500
0.187500 0.750000 0.062500
0.250000 0.750000 0.062500
0.312500 0.750000 0.062500
0.375000 0.750000 0.062500
0.437500 0.750000 0.062500
0.500000 0.750000 0.062500
0.562500 0.750000 0.062500
0.625000 0.750000 0.062500
0.687500 0.750000 0.062500
0.750000 0.750000 0.062500
0.812500 0.750000 0.062500
0.875000 0.750000 0.062500
0.937500 0.750000 0.062500
1.000000 0.750000 0.062500
0.000000 0.812500 0.062500
0.062500 0.812500 0.062500
0.125000 0.812500 0.062500
0.187500 0.812500 0.062500
0.250000 0.812500 0.062500
0.312500 0.812500 0.062500
0.375000 0.812500 0.062500
0.437500 0.812500 0.062500
0.500000 0.812500 0.062500
0.562500 0.812500 0.062500
0.625000 0.812500 0.062500
0.687500 0.812500 0.062500
0.750000 0.812500 0.062500
0.812500 0.812500 0.062500
0.875000 0.812500 0.062500
0.937500 0.812500 0.062500
1.000000 0.812500 0.062500
0.000000 0.875000 0.062500
0.062500 0.875000 0.062500
0.125000 0.875000 0.062500
0.187500 0.875000 0.062500
0.250000 0.875000 0.062500
0.312500 0.875000 0.062500
0.375000 0.875000 0.062500
0.437500 0.875000 0.062500
0.500000 0.875000 0.062500
0.562500 0.875000 0.062500
0.625000 0.875000 0.062500
0.687500 0.875000 0.062500
0.750000 0.875000 0.062500
0.812500 0.875000 0.062500
0.875000 0.875000 0.062500
0.937500 0.875000 0.062500
1.000000 0.875000 0.062500
0.000000 0.937500 0.062500
0.062500 0.937500 0.062500
0.125000 0.937500 0.062500
0.187500 0.937500 0.062500
0.250000 0.937500 0.062500
0.312500 0.937500 0.062500
0.375000 0.937500 0.062500
0.437500 0.937500 0.062500
0.500000 0.937500 0.062500
0.562500 0.937500 0.062500
0.625000 0.937500 0.062500
0.687500 0.937500 0.062500
0.750000 0.937500 0.062500
0.812500 0.937500 0.062500
0.875000 0.937500 0.062500
0.937500 0.937500 0.062500
1.000000 0.937500 0.062500
0.000000 1.000000 0.062500
0.062500 1.000000 0.062500
0.125000 1.000000 0.062500
0.187500 1.000000 0.062500
0.250000 1.000000 0.062500
0.312500 1.000000 0.062500
0.375000 1.000000 0.062500
0.437500 1.000000 0.062500
0.500000 1.000000 0.062500
0.562500 1.000000 0.062500
0.625000 1.000000 0.062500
0.687500 1.000000 0.062500
0.750000 1.000000 0.062500
0.812500 1.000000 0.062500
0.875000 1.000000 0.062500
0.937500 1.000000 0.062500
1.000000 1.000000 0.062500
0.000000 0.000000 0.126972
0.056399 0.000000 0.131101
0.113243 0.000000 0.136757
0.168676 0.000000 0.143824
0.223057 0.000000 0.151943
0.276973 0.000000 0.160527
0.331183 0.000000 0.168817
0.387500 0.000000 0.175000
0.450000 0.000000 0.175000
0.512500 0.000000 0.175000
0.575000 0.000000 0.175000
0.637500 0.000000 0.175000
0.700000 0.000000 0.175000
0.765926 0.000000 0.171574
0.835486 0.000000 0.164514
0.905289 0.000000 0.157211
0.974756 0.000000 0.150244
0.000000 0.062500 0.146684
0.032448 0.062500 0.155052
0.086378 0.062500 0.163622
0.140898 0.062500 0.171602
0.200000 0.062500 0.175000
0.262500 0.062500 0.175000
0.325000 0.062500 0.175000
0.387500 0.062500 0.175000
0.450000 0.062500 0.175000
0.512500 0.062500 0.175000
0.580926 0.062500 0.169074
0.650650 0.062500 0.161850
0.720390 0.062500 0.154610
0.789622 0.062500 0.147878
0.857996 0.062500 0.142004
0.925338 0.062500 0.137162
0.991626 0.062500 0.133374
0.000000 0.125000 0.174200
0.012500 0.125000 0.175000
0.075000 0.125000 0.175000
0.137500 0.125000 0.175000
0.200000 0.125000 0.175000
0.262500 0.125000 0.175000
0.326637 0.125000 0.173363
0.396015 0.125000 0.166485
0.465815 0.125000 0.159185
0.535422 0.125000 0.152078
0.604373 0.125000 0.145627
0.672382 0.125000 0.140118
0.739336 0.125000 0.135664
0.805258 0.125000 0.132242
0.870264 0.125000 0.129736
0.934517 0.125000 0.127983
0.998190 0.125000 0.126810
0.000000 0.187500 0.175000
0.012500 0.187500 0.175000
0.075000 0.187500 0.175000
0.141549 0.187500 0.170951
0.211159 0.187500 0.163841
0.280953 0.187500 0.156547
0.350366 0.187500 0.149634
0.418997 0.187500 0.143503
0.486627 0.187500 0.138373
0.553197 0.187500 0.134303
0.618768 0.187500 0.131232
0.683480 0.187500 0.129020
0.747502 0.187500 0.127498
0.811004 0.187500 0.126496
0.874137 0.187500 0.125863
0.937020 0.187500 0.125480
0.999743 0.187500 0.125257
0.000000 0.250000 0.168425
0.026326 0.250000 0.161174
0.096039 0.250000 0.153961
0.165204 0.250000 0.147296
0.233487 0.250000 0.141513
0.300730 0.250000 0.136770
0.366924 0.250000 0.133076
0.432164 0.250000 0.130336
0.496605 0.250000 0.128395
0.560419 0.250000 0.127081
0.623771 0.250000 0.126229
0.686800 0.250000 0.125700
0.749616 0.250000 0.125384
0.812297 0.250000 0.125203
0.874897 0.250000 0.125103
0.937449 0.250000 0.125051
0.999976 0.250000 0.125024
0.000000 0.312500 0.145077
0.047838 0.312500 0.139662
0.114693 0.312500 0.135307
0.180525 0.312500 0.131975
0.245454 0.312500 0.129546
0.309646 0.312500 0.127854
0.373274 0.312500 0.126726
0.436494 0.312500 0.126006
0.499435 0.312500 0.125565
0.562194 0.312500 0.125306
0.624840 0.312500 0.125159
0.687420 0.312500 0.125080
0.749961 0.312500 0.125039
0.812482 0.312500 0.125018
0.874992 0.312500 0.125008
0.937496 0.312500 0.125004
0.999999 0.312500 0.125001
0.000000 0.375000 0.130994
0.058646 0.375000 0.128854
0.122614 0.375000 0.127386
0.186076 0.375000 0.126424
0.249181 0.375000 0.125819
0.312046 0.375000 0.125454
0.374758 0.375000 0.125242
0.437375 0.375000 0.125125
0.499938 0.375000 0.125062
0.562470 0.375000 0.125030
0.624986 0.375000 0.125014
0.687494 0.375000 0.125006
0.749997 0.375000 0.125003
0.812499 0.375000 0.125001
0.875000 0.375000 0.125000
0.937500 0.375000 0.125000
1.000000 0.375000 0.125000
0.000000 0.437500 0.126169
0.061837 0.437500 0.125663
0.124637 0.437500 0.125363
0.187309 0.437500 0.125191
0.249903 0.437500 0.125097
0.312452 0.437500 0.125048
0.374978 0.437500 0.125022
0.437490 0.437500 0.125010
0.499995 0.437500 0.125004
0.562498 0.437500 0.125002
0.624999 0.437500 0.125001
0.687500 0.437500 0.125000
0.750000 0.437500 0.125000
0.812500 0.437500 0.125000
0.875000 0.437500 0.125000
0.937500 0.437500 0.125000
1.000000 0.437500 0.125000
0.000000 0.500000 0.125150
0.062425 0.500000 0.125075
0.124964 0.500000 0.125036
0.187483 0.500000 0.125017
0.249992 0.500000 0.125008
0.312497 0.500000 0.125003
0.374999 0.500000 0.125001
0.437499 0.500000 0.125001
0.500000 0.500000 0.125000
0.562500 0.500000 0.125000
0.625000 0.500000 0.125000
0.687500 0.500000 0.125000
0.750000 0.500000 0.125000
0.812500 0.500000 0.125000
0.875000 0.500000 0.125000
0.937500 0.500000 0.125000
1.000000 0.500000 0.125000
0.000000 0.562500 0.125013
0.062494 0.562500 0.125006
0.124998 0.562500 0.125002
0.187499 0.562500 0.125001
0.250000 0.562500 0.125000
0.312500 0.562500 0.125000
0.375000 0.562500 0.125000
0.437500 0.562500 0.125000
0.500000 0.562500 0.125000
0.562500 0.562500 0.125000
0.625000 0.562500 0.125000
0.687500 0.562500 0.125000
0.750000 0.562500 0.125000
0.812500 0.562500 0.125000
0.875000 0.562500 0.125000
0.937500 0.562500 0.125000
1.000000 0.562500 0.125000
0.000000 0.625000 0.125001
0.062500 0.625000 0.125000
0.125000 0.625000 0.125000
0.187500 0.625000 0.125000
0.250000 0.625000 0.125000
0.312500 0.625000 0.125000
0.375000 0.625000 0.125000
0.437500 0.625000 0.125000
0.500000 0.625000 0.125000
0.562500 0.625000 0.125000
0.625000 0.625000 0.125000
0.687500 0.625000 0.125000
0.750000 0.625000 0.125000
0.812500 0.625000 0.125000
0.875000 0.625000 0.125000
0.937500 0.625000 0.125000
1.000000 0.625000 0.125000
0.000000 0.687500 0.125000
0.062500 0.687500 0.125000
0.125000 0.687500 0.125000
0.187500 0.687500 0.125000
0.250000 0.687500 0.125000
0.312500 0.687500 0.125000
0.375000 0.687500 0.125000
0.437500 0.687500 0.125000
0.500000 0.687500 0.125000
0.562500 0.687500 0.125000
0.625000 0.687500 0.125000
0.687500 0.687500 0.125000
0.750000 0.687500 0.125000
0.812500 0.687500 0.125000
0.875000 0.687500 0.125000
0.937500 0.687500 0.125000
1.000000 0.687500 0.125000
0.000000 0.750000 0.125000
0.062500 0.750000 0.125000
0.125000 0.750000 0.125000
0.187500 0.750000 0.125000
0.250000 0.750000 0.125000
0.312500 0.750000 0.125000
0.375000 0.750000 0.125000
0.437500 0.750000 0.125000
0.500000 0.750000 0.125000
0.562500 0.750000 0.125000
0.625000 0.750000 0.125000
0.687500 0.750000 0.125000
0.750000 0.750000 0.125000
0.812500 0.750000 0.125000
0.875000 0.750000 0.125000
0.937500 0.750000 0.125000
1.000000 0.750000 0.125000
0.000000 0.812500 0.125000
0.062500 0.812500 0.125000
0.125000 0.812500 0.125000
0.187500 0.812500 0.125000
0.250000 0.812500 0.125000
0.312500 0.812500 0.125000
0.375000 0.812500 0.125000
0.437500 0.812500 0.125000
0.500000 0.812500 0.125000
0.562500 0.812500 0.125000
0.625000 0.812500 0.125000
0.687500 0.812500 0.125000
0.750000 0.812500 0.125000
0.812500 0.812500 0.125000
0.875000 0.812500 0.125000
0.937500 0.812500 0.125000
1.000000 0.812500 0.125000
0.000000 0.875000 0.125000
0.062500 0.875000 0.125000
0.125000 0.875000 0.125000
0.187500 0.875000 0.125000
0.250000 0.875000 0.125000
0.312500 0.875000 0.125000
0.375000 0.875000 0.125000
0.437500 0.875000 0.125000
0.500000 0.875000 0.125000
0.562500 0.875000 0.125000
0.625000 0.875000 0.125000
0.687500 0.875000 0.125000
0.750000 0.875000 0.125000
0.812500 0.875000 0.125000
0.875000 0.875000 0.125000
0.937500 0.875000 0.125000
1.000000 0.875000 0.125000
0.000000 0.937500 0.125000
0.062500 0.937500 0.125000
0.125000 0.937500 0.125000
0.187500 0.937500 0.125000
0.250000 0.937500 0.125000
0.312500 0.937500 0.125000
0.375000 0.937500 0.125000
0.437500 0.937500 0.125000
0.500000 0.937500 0.125000
0.562500 0.937500 0.125000
0.625000 0.937500 0.125000
0.687500 0.937500 0.125000
0.750000 0.937500 0.125000
0.812500 0.937500 0.125000
0.875000 0.937500 0.125000
0.937500 0.937500 0.125000
1.000000 0.937500 0.125000
0.000000 1.000000 0.125000
0.062500 1.000000 0.125000
0.125000 1.000000 0.125000
0.187500 1.000000 0.125000
0.250000 1.000000 0.125000
0.312500 1.000000 0.125000
0.375000 1.000000 0.125000
0.437500 1.000000 0.125000
0.500000 1.000000 0.125000
0.562500 1.000000 0.125000
0.625000 1.000000 0.125000
0.687500 1.000000 0.125000
0.750000 1.000000 0.125000
0.812500 1.000000 0.125000
0.875000 1.000000 0.125000
0.937500 1.000000 0.125000
1.000000 1.000000 0.125000
0.000000 0.000000 0.190705
0.054648 0.000000 0.195352
0.110988 0.000000 0.201512
0.166012 0.000000 0.208988
0.220159 0.000000 0.217341
0.274084 0.000000 0.225916
0.328580 0.000000 0.233920
0.387500 0.000000 0.237500
