luts/cross_process_17.cube
# Generated by scripts/recipes/generate_demo_luts.py
# Retouch Engine -- demo LUT (safe to redistribute).
# Cross-process look (slide film developed as C-41):
#   R: shadow lift +5%, highlight crush -3%, midtone +2%
#   G: midtone lift +6% (the dominant tell), shadow +2%
#   B: shadow lift +8%, highlight crush -5%
# Endpoints preserved by bell weighting.
TITLE "Demo Cross Process 17x17x17"
LUT_3D_SIZE 5
DOMAIN_MIN 0.0 0.0 0.0
DOMAIN_MAX 1.0 1.0 1.0
0.000000 0.000000 0.000000
0.253511 0.006932 0.002217
0.508907 0.014618 0.007448
0.764301 0.022303 0.012677
1.000000 0.028751 0.012956
0.015592 0.274832 0.013503
0.266553 0.280744 0.011640
0.515417 0.285817 0.006421
0.764974 0.291167 0.002310
1.000000 0.297105 0.000547
0.015201 0.543271 0.001434
0.266613 0.549363 0.000292
0.518580 0.555678 0.000039
0.769314 0.557955 0.000000
1.000000 0.551576 0.000000
0.018530 0.805632 0.000000
0.266307 0.799254 0.000000
0.513750 0.792876 0.000000
0.760414 0.786498 0.000000
1.000000 0.780120 0.000000
0.008973 1.000000 0.000000
0.254892 1.000000 0.000000
0.502079 1.000000 0.000000
0.751409 1.000000 0.000000
1.000000 1.000000 0.000000
0.000991 0.002274 0.250431
0.255161 0.009469 0.253701
0.510914 0.017298 0.259504
0.765521 0.024668 0.263474
1.000000 0.030614 0.261746
0.016325 0.277002 0.263522
0.266242 0.282497 0.259987
0.515099 0.287567 0.254757
0.765179 0.293127 0.251484
1.000000 0.299210 0.250306
0.015573 0.545297 0.250875
0.267249 0.551495 0.250155
0.519288 0.557839 0.250016
0.768583 0.555788 0.249978
1.000000 0.549410 0.249823
0.017791 0.803466 0.249949
0.265497 0.797088 0.249668
0.512724 0.790710 0.248590
0.759073 0.784332 0.246048
1.000000 0.777954 0.242777
0.007564 1.000000 0.244824
0.253705 1.000000 0.241935
0.501641 1.000000 0.242038
0.751456 1.000000 0.245273
1.000000 1.000000 0.248570
0.002177 0.004625 0.501173
0.257024 0.012091 0.505526
0.512788 0.019925 0.511346
0.766288 0.026852 0.513545
1.000000 0.032373 0.510115
0.016616 0.278996 0.512832
0.265814 0.284203 0.508147
0.514946 0.289383 0.503357
0.765542 0.295149 0.500909
1.000000 0.301341 0.500163
0.016066 0.547371 0.500509
0.267923 0.553642 0.500078
0.520002 0.560002 0.500003
0.767845 0.553622 0.499951
1.000000 0.547244 0.499682
0.017039 0.801300 0.499898
0.264633 0.794922 0.499432
0.511589 0.788544 0.497902
0.757667 0.782166 0.494908
1.000000 0.775788 0.491980
0.006155 1.000000 0.493678
0.252743 1.000000 0.491535
0.501441 1.000000 0.492909
0.751498 1.000000 0.496546
1.000000 1.000000 0.499267
0.003596 0.007070 0.752289
0.259019 0.014767 0.757563
0.514380 0.022439 0.762739
0.766609 0.028858 0.762903
1.000000 0.034080 0.758281
0.016541 0.280843 0.761557
0.265396 0.285913 0.756324
0.514980 0.291274 0.752257
0.766028 0.297221 0.750531
1.000000 0.303487 0.750082
0.016647 0.549481 0.750283
0.268619 0.555797 0.750037
0.519273 0.557835 0.749992
0.767094 0.551456 0.749903
1.000000 0.545078 0.749453
0.016263 0.799134 0.749809
0.263696 0.792756 0.749073
0.510342 0.786378 0.747027
0.756255 0.780000 0.743758
1.000000 0.773622 0.741549
0.004821 1.000000 0.742659
0.252047 1.000000 0.741579
0.501410 1.000000 0.744060
0.751460 1.000000 0.747687
1.000000 1.000000 0.749731
0.005259 0.009612 1.000000
0.261023 0.017445 1.000000
0.515575 0.024794 1.000000
0.766556 0.030714 1.000000
1.000000 0.035789 1.000000
0.016220 0.282592 1.000000
0.265086 0.287666 1.000000
0.515196 0.293237 1.000000
0.766603 0.299328 1.000000
1.000000 0.305642 1.000000
0.017285 0.551613 1.000000
0.269328 0.557958 1.000000
0.518542 0.555668 0.999977
0.766320 0.549290 0.999817
1.000000 0.542912 0.999103
0.015451 0.796968 0.999658
0.262664 0.790590 0.998556
0.508996 0.784212 0.995987
0.754913 0.777834 0.992725
1.000000 0.771456 0.991560
0.003646 1.000000 0.991903
0.251624 1.000000 0.992077
0.501459 1.000000 0.995345
0.751295 1.000000 0.998615
1.000000 1.000000 1.000000
