luts/cross_process_17.cube
# Generated by scripts/recipes/generate_demo_luts.py
# Retouch Engine -- demo LUT (safe to redistribute).
# Cross-process look (slide film developed as C-41):
#   R: shadow lift +5%, highlight crush -3%, midtone +2%
#   G: midtone lift +6% (the dominant tell), shadow +2%
#   B: shadow lift +8%, highlight crush -5%
# Endpoints preserved by bell weighting.
TITLE "Demo Cross Process 17x17x17"
LUT_3D_SIZE 9
DOMAIN_MIN 0.0 0.0 0.0
DOMAIN_MAX 1.0 1.0 1.0
0.000000 0.000000 0.000000
0.126524 0.003374 0.000738
0.253511 0.006932 0.002217
0.381018 0.010699 0.004526
0.508907 0.014618 0.007448
0.636825 0.018549 0.010416
0.764301 0.022303 0.012677
0.890941 0.025723 0.013599
1.000000 0.028751 0.012956
0.007040 0.137114 0.005542
0.134990 0.141057 0.008561
0.262802 0.144946 0.011360
0.390009 0.148593 0.013191
0.516292 0.151870 0.013542
0.641623 0.154766 0.012372
0.766267 0.157387 0.010100
0.890636 0.159898 0.007390
1.000000 0.162454 0.004856
0.015592 0.274832 0.013503
0.141514 0.277965 0.013279
0.266553 0.280744 0.011640
0.391046 0.283305 0.009128
0.515417 0.285817 0.006421
0.640004 0.288416 0.004059
0.764974 0.291167 0.002310
0.890333 0.294075 0.001184
1.000000 0.297105 0.000547
0.015810 0.409217 0.008132
0.140229 0.411748 0.005501
0.264945 0.414399 0.003346
0.390062 0.417209 0.001833
0.515545 0.420166 0.000905
0.641295 0.423230 0.000403
0.767207 0.426358 0.000162
0.893205 0.429522 0.000058
1.000000 0.432701 0.000017
0.015201 0.543271 0.001434
0.140793 0.546271 0.000682
0.266613 0.549363 0.000292
0.392564 0.552507 0.000113
0.518580 0.555678 0.000039
0.644625 0.558860 0.000009
0.769314 0.557955 0.000000
0.893235 0.554765 0.000000
1.000000 0.551576 0.000000
0.017929 0.678660 0.000078
0.143959 0.681836 0.000025
0.269996 0.684984 0.000003
0.393922 0.681794 0.000000
0.517839 0.678604 0.000000
0.641726 0.675415 0.000000
0.765550 0.672226 0.000000
0.889260 0.669037 0.000000
1.000000 0.665848 0.000000
0.018530 0.805632 0.000000
0.142438 0.802443 0.000000
0.266307 0.799254 0.000000
0.390097 0.796065 0.000000
0.513750 0.792876 0.000000
0.637202 0.789687 0.000000
0.760414 0.786498 0.000000
0.883414 0.783309 0.000000
1.000000 0.780120 0.000000
0.014626 0.919904 0.000000
0.138213 0.916715 0.000000
0.261579 0.913526 0.000000
0.384706 0.910337 0.000000
0.507655 0.907148 0.000000
0.630596 0.903959 0.000000
0.753775 0.900770 0.000000
0.877425 0.897581 0.000000
1.000000 0.894392 0.000000
0.008973 1.000000 0.000000
0.131894 1.000000 0.000000
0.254892 1.000000 0.000000
0.378219 1.000000 0.000000
0.502079 1.000000 0.000000
0.626520 1.000000 0.000000
0.751409 1.000000 0.000000
0.876481 1.000000 0.000000
1.000000 1.000000 0.000000
0.000475 0.001128 0.125182
0.127141 0.004559 0.126148
0.254307 0.008189 0.127911
0.381970 0.012018 0.130472
0.509917 0.015961 0.133487
0.637739 0.019853 0.136300
0.764965 0.023508 0.138162
0.891272 0.026794 0.138553
1.000000 0.029699 0.137416
0.008028 0.138447 0.131546
0.135985 0.142394 0.134575
0.263640 0.146220 0.137124
0.390557 0.149750 0.138489
0.516503 0.152893 0.138303
0.641560 0.155679 0.136693
0.766062 0.158244 0.134195
0.890431 0.160755 0.131485
1.000000 0.163351 0.129110
0.016016 0.275940 0.138605
0.141613 0.278943 0.137860
0.266421 0.281630 0.135851
0.390826 0.284156 0.133199
0.515241 0.286685 0.130561
0.639948 0.289332 0.128391
0.765055 0.292139 0.126862
0.890530 0.295092 0.125922
1.000000 0.298154 0.125411
0.015593 0.410069 0.132207
0.140091 0.412631 0.129702
0.264940 0.415335 0.127760
0.390190 0.418199 0.126459
0.515776 0.421197 0.125695
0.641591 0.424287 0.125299
0.767539 0.427430 0.125116
0.893555 0.430600 0.125040
1.000000 0.433782 0.125010
0.015370 0.544277 0.126127
0.141051 0.547313 0.125517
0.266925 0.550427 0.125214
0.392904 0.553582 0.125080
0.518933 0.556758 0.125026
0.644982 0.559942 0.125003
0.768949 0.556872 0.124986
0.892865 0.553682 0.124952
1.000000 0.550493 0.124871
0.018275 0.679737 0.125054
0.144314 0.682916 0.125016
0.269632 0.683900 0.124998
0.393556 0.680710 0.124977
0.517465 0.677521 0.124930
0.641336 0.674332 0.124819
0.765128 0.671143 0.124578
0.888785 0.667954 0.124112
1.000000 0.664765 0.123313
0.018162 0.804549 0.124965
0.142060 0.801360 0.124900
0.265908 0.798171 0.124751
0.389658 0.794982 0.124440
0.513250 0.791793 0.123864
0.636622 0.788604 0.122924
0.759754 0.785415 0.121582
0.882706 0.782226 0.119940
1.000000 0.779037 0.118276
0.014167 0.918821 0.124267
0.137685 0.915632 0.123568
0.260969 0.912443 0.122480
0.384023 0.909254 0.121008
0.506945 0.906065 0.119317
0.629938 0.902876 0.117743
0.753254 0.899687 0.116709
0.877100 0.896498 0.116556
1.000000 0.893309 0.117375
0.008273 1.000000 0.120404
0.131193 1.000000 0.118709
0.254275 1.000000 0.117283
0.377766 1.000000 0.116540
0.501827 1.000000 0.116747
0.626444 1.000000 0.117880
0.751428 1.000000 0.119624
0.876497 1.000000 0.121512
1.000000 1.000000 0.123129
0.000991 0.002274 0.250431
0.127817 0.005768 0.251651
0.255161 0.009469 0.253701
0.382956 0.013351 0.256472
0.510914 0.017298 0.259504
0.638583 0.021129 0.262073
0.765521 0.024668 0.263474
0.891492 0.027820 0.263326
1.000000 0.030614 0.261746
0.009036 0.139789 0.257580
0.136945 0.143716 0.260534
0.264392 0.147459 0.262748
0.390989 0.150862 0.263604
0.516609 0.153874 0.262895
0.641432 0.156567 0.260910
0.765842 0.159094 0.258266
0.890252 0.161622 0.255621
1.000000 0.164265 0.253437
0.016325 0.277002 0.263522
0.141620 0.279884 0.262292
0.266242 0.282497 0.259987
0.390609 0.285007 0.257273
0.515099 0.287567 0.254757
0.639939 0.290267 0.252799
0.765179 0.293127 0.251484
0.890758 0.296122 0.250709
1.000000 0.299210 0.250306
0.015393 0.410927 0.256309
0.139994 0.413532 0.253970
0.264981 0.416290 0.252249
0.390356 0.419204 0.251148
0.516032 0.422238 0.250528
0.641902 0.425350 0.250219
0.767879 0.428505 0.250082
0.893908 0.431680 0.250027
1.000000 0.434864 0.250004
0.015573 0.545297 0.250875
0.141332 0.548364 0.250388
0.267249 0.551495 0.250155
0.393250 0.554659 0.250056
0.519288 0.557839 0.250016
0.644658 0.558978 0.249998
0.768583 0.555788 0.249978
0.892492 0.552599 0.249932
1.000000 0.549410 0.249823
0.018625 0.680815 0.250037
0.144670 0.683998 0.250008
0.269267 0.682817 0.249992
0.393188 0.679627 0.249966
0.517088 0.676438 0.249903
0.640937 0.673249 0.249756
0.764690 0.670060 0.249451
0.888287 0.666871 0.248882
1.000000 0.663682 0.247952
0.017791 0.803466 0.249949
0.141676 0.800277 0.249862
0.265497 0.797088 0.249668
0.389201 0.793899 0.249280
0.512724 0.790710 0.248590
0.636014 0.787521 0.247511
0.759073 0.784332 0.246048
0.881996 0.781143 0.244359
1.000000 0.777954 0.242777
0.013687 0.917738 0.249069
0.137130 0.914549 0.248245
0.260331 0.911360 0.247019
0.383324 0.908171 0.245445
0.506243 0.904982 0.243749
0.629318 0.901793 0.242311
0.752796 0.898604 0.241547
0.876843 0.895415 0.241730
1.000000 0.892226 0.242843
0.007564 1.000000 0.244824
0.130511 1.000000 0.243173
0.253705 1.000000 0.241935
0.377380 1.000000 0.241498
0.501641 1.000000 0.242038
0.626411 1.000000 0.243426
0.751456 1.000000 0.245273
0.876494 1.000000 0.247108
1.000000 1.000000 0.248570
0.001557 0.003439 0.375758
0.128554 0.007001 0.377253
0.256070 0.010771 0.379577
0.383963 0.014692 0.382505
0.511877 0.018622 0.385467
0.639341 0.022371 0.387708
0.765962 0.025783 0.388602
0.891605 0.028804 0.387930
1.000000 0.031503 0.385969
0.010045 0.141132 0.383618
0.137851 0.145017 0.386406
0.265042 0.148658 0.388212
0.391307 0.151927 0.388534
0.516622 0.154817 0.387337
0.641256 0.157435 0.385051
0.765624 0.159946 0.382339
0.890108 0.162503 0.379813
1.000000 0.165199 0.377839
0.016522 0.278020 0.388260
0.141547 0.280794 0.386598
0.266034 0.283352 0.384077
0.390407 0.285865 0.381372
0.515000 0.288466 0.379020
0.639977 0.291221 0.377283
0.765343 0.294131 0.376168
0.891013 0.297163 0.375539
1.000000 0.300273 0.375224
0.015220 0.411797 0.380455
0.139944 0.414450 0.378312
0.265068 0.417264 0.376810
0.390557 0.420223 0.375892
0.516311 0.423288 0.375396
0.642225 0.426418 0.375159
0.768225 0.429581 0.375057
0.894263 0.432761 0.375017
1.000000 0.434056 0.374998
0.015807 0.546329 0.375672
0.141630 0.549422 0.375288
0.267582 0.552567 0.375111
0.393600 0.555738 0.375038
0.519645 0.558920 0.375009
0.644293 0.557895 0.374992
0.768215 0.554705 0.374967
0.892115 0.551516 0.374905
1.000000 0.548327 0.374761
0.018978 0.681895 0.375024
0.144976 0.684924 0.375003
0.268902 0.681734 0.374985
0.392818 0.678544 0.374950
0.516704 0.675355 0.374865
0.640527 0.672166 0.374675
0.764234 0.668977 0.374293
0.887763 0.665788 0.373611
1.000000 0.662599 0.372543
0.017417 0.802383 0.374927
0.141285 0.799194 0.374812
0.265073 0.796005 0.374563
0.388723 0.792816 0.374085
0.512171 0.789627 0.373269
0.635378 0.786438 0.372053
0.758375 0.783249 0.370486
0.881293 0.780060 0.368789
1.000000 0.776871 0.367340
0.013184 0.916655 0.373832
0.136546 0.913466 0.372874
0.259668 0.910277 0.371516
0.382616 0.907088 0.369866
0.505559 0.903899 0.368210
0.628745 0.900710 0.366957
0.752405 0.897521 0.366497
0.876652 0.894332 0.367014
1.000000 0.891143 0.368385
0.006855 1.000000 0.369244
0.129857 1.000000 0.367684
0.253192 1.000000 0.366682
0.377063 1.000000 0.366572
0.501515 1.000000 0.367430
0.626409 1.000000 0.369026
0.751483 1.000000 0.370919
0.876463 1.000000 0.372658
1.000000 1.000000 0.373949
0.002177 0.004625 0.501173
0.129352 0.008259 0.502953
0.257024 0.012091 0.505526
0.384973 0.016035 0.508544
0.512788 0.019925 0.511346
0.639999 0.023573 0.513184
0.766288 0.026852 0.513545
0.891624 0.029751 0.512382
1.000000 0.032373 0.510115
0.011039 0.142468 0.509630
0.138684 0.146290 0.512162
0.265584 0.149813 0.513500
0.391512 0.152948 0.513284
0.516554 0.155729 0.511652
0.641050 0.158291 0.509144
0.765420 0.160803 0.506436
0.890005 0.163401 0.504071
1.000000 0.166151 0.502318
0.016616 0.278996 0.512832
0.141412 0.281678 0.510804
0.265814 0.284203 0.508147
0.390232 0.286734 0.505515
0.514946 0.289383 0.503357
0.640061 0.292193 0.501840
0.765542 0.295149 0.500909
0.891290 0.298212 0.500405
1.000000 0.301341 0.500163
0.015084 0.412681 0.504660
0.139941 0.415387 0.502729
0.265198 0.418254 0.501440
0.390789 0.421254 0.500685
0.516608 0.424345 0.500294
0.642558 0.427489 0.500114
0.768574 0.430660 0.500039
0.894619 0.433842 0.500009
1.000000 0.432973 0.499993
0.016066 0.547371 0.500509
0.141943 0.550486 0.500211
0.267923 0.553642 0.500078
0.393953 0.556818 0.500025
0.520002 0.560002 0.500003
0.643928 0.556812 0.499986
0.767845 0.553622 0.499951
0.891732 0.550433 0.499868
1.000000 0.547244 0.499682
0.019334 0.682976 0.500015
0.144611 0.683840 0.499997
0.268536 0.680650 0.499976
0.392444 0.677461 0.499929
0.516314 0.674272 0.499816
0.640104 0.671083 0.499572
0.763758 0.667894 0.499100
0.887211 0.664705 0.498294
1.000000 0.661516 0.497088
0.017039 0.801300 0.499898
0.140885 0.798111 0.499747
0.264633 0.794922 0.499432
0.388221 0.791733 0.498850
0.511589 0.788544 0.497902
0.634717 0.785355 0.496553
0.757667 0.782166 0.494908
0.880607 0.778977 0.493247
1.000000 0.775788 0.491980
0.012655 0.915572 0.498551
0.135934 0.912383 0.497456
0.258985 0.909194 0.495978
0.381906 0.906005 0.494285
0.504902 0.902816 0.492718
0.628227 0.899627 0.491697
0.752083 0.896438 0.491562
0.876522 0.893249 0.492399
1.000000 0.890060 0.493981
0.006155 1.000000 0.493678
0.129242 1.000000 0.492261
0.252743 1.000000 0.491535
0.376815 1.000000 0.491760
0.501441 1.000000 0.492909
0.626429 1.000000 0.494660
0.751498 1.000000 0.496546
0.876400 1.000000 0.498155
1.000000 1.000000 0.499267
0.002856 0.005835 0.626682
0.130210 0.009541 0.628747
0.258012 0.013425 0.631529
0.385968 0.017372 0.634559
0.513627 0.021199 0.637112
0.640548 0.024731 0.638485
0.766501 0.027876 0.638308
0.891562 0.030664 0.636705
1.000000 0.033229 0.634210
0.011996 0.143789 0.635585
0.139430 0.147527 0.637778
0.266010 0.150922 0.638605
0.391612 0.153927 0.637868
0.516423 0.156615 0.635864
0.640830 0.159142 0.633214
0.765243 0.161671 0.630575
0.889948 0.164317 0.628402
1.000000 0.167122 0.626869
0.016617 0.279935 0.637257
0.141231 0.282544 0.634938
0.265597 0.285055 0.632222
0.390093 0.287617 0.629715
0.514939 0.290319 0.627769
0.640187 0.293182 0.626465
0.765772 0.296180 0.625698
0.891586 0.299269 0.625300
1.000000 0.302412 0.625117
0.014990 0.413582 0.628932
0.139985 0.416344 0.627222
0.265366 0.419260 0.626132
0.391047 0.422296 0.625520
0.516920 0.425409 0.625215
0.642898 0.428564 0.625080
0.768927 0.431740 0.625026
0.894976 0.434924 0.625003
1.000000 0.431890 0.624986
0.016348 0.548422 0.625382
0.142267 0.551554 0.625152
0.268269 0.554719 0.625054
0.394308 0.557898 0.625016
0.519638 0.558918 0.624998
0.643562 0.555728 0.624977
0.767472 0.552539 0.624931
0.891342 0.549350 0.624820
1.000000 0.546161 0.624580
0.019690 0.684058 0.625008
0.144247 0.682757 0.624991
0.268168 0.679567 0.624965
0.392067 0.676378 0.624901
0.515914 0.673189 0.624752
0.639666 0.670000 0.624443
0.763258 0.666811 0.623869
0.886632 0.663622 0.622930
1.000000 0.660433 0.621590
0.016655 0.800217 0.624860
0.140474 0.797028 0.624663
0.264175 0.793839 0.624270
0.387694 0.790650 0.623573
0.510979 0.787461 0.622487
0.634034 0.784272 0.621017
0.756957 0.781083 0.619327
0.879949 0.777894 0.617751
1.000000 0.774705 0.616713
0.012098 0.914489 0.623225
0.135295 0.911300 0.621992
0.258285 0.908111 0.620413
0.381205 0.904922 0.618718
0.504284 0.901733 0.617289
0.627773 0.898544 0.616541
0.751831 0.895355 0.616743
0.876445 0.892166 0.617871
1.000000 0.888977 0.619614
0.005473 1.000000 0.618144
0.128675 1.000000 0.616919
0.252360 1.000000 0.616499
0.376632 1.000000 0.617057
0.501410 1.000000 0.618458
0.626457 1.000000 0.620309
0.751493 1.000000 0.622139
0.876301 1.000000 0.623592
1.000000 1.000000 0.624526
0.003596 0.007070 0.752289
0.131121 0.010844 0.754628
0.259019 0.014767 0.757563
0.386929 0.018695 0.760518
0.514380 0.022439 0.762739
0.640983 0.025844 0.763603
0.766609 0.028858 0.762903
0.891434 0.031552 0.760924
1.000000 0.034080 0.758281
0.012899 0.145089 0.761451
0.140075 0.148723 0.763233
0.266321 0.151985 0.763524
0.391620 0.154869 0.762303
0.516245 0.157482 0.760002
0.640612 0.159993 0.757288
0.765101 0.162553 0.754770
0.889938 0.165251 0.752809
1.000000 0.168110 0.751489
0.016541 0.280843 0.761557
0.141022 0.283399 0.759026
0.265396 0.285913 0.756324
0.389996 0.288516 0.753982
0.514980 0.291274 0.752257
0.640353 0.294187 0.751152
0.766028 0.297221 0.750531
0.891897 0.300332 0.750220
1.000000 0.303487 0.750082
0.014942 0.414501 0.753278
0.140075 0.417318 0.751788
0.265570 0.420280 0.750879
0.391327 0.423346 0.750390
0.517244 0.426477 0.750156
0.643244 0.429641 0.750056
0.769282 0.432821 0.750016
0.894664 0.433996 0.749998
1.000000 0.430806 0.749978
0.016647 0.549481 0.750283
0.142601 0.552626 0.750109
0.268619 0.555797 0.750037
0.394664 0.558980 0.750009
0.519273 0.557835 0.749992
0.643194 0.554645 0.749966
0.767094 0.551456 0.749903
0.890944 0.548267 0.749758
1.000000 0.545078 0.749453
0.019956 0.684864 0.750002
0.143882 0.681674 0.749985
0.267797 0.678484 0.749949
0.391683 0.675295 0.749863
0.515504 0.672106 0.749670
0.639209 0.668917 0.749283
0.762733 0.665728 0.748595
0.886024 0.662539 0.747519
1.000000 0.659350 0.746057
0.016263 0.799134 0.749809
0.140049 0.795945 0.749557
0.263696 0.792756 0.749073
0.387139 0.789567 0.748250
0.510342 0.786378 0.747027
0.633336 0.783189 0.745454
0.756255 0.780000 0.743758
0.879327 0.776811 0.742317
1.000000 0.773622 0.741549
0.011513 0.913406 0.747852
0.134631 0.910217 0.746487
0.257576 0.907028 0.744834
0.380522 0.903839 0.743181
0.503714 0.900650 0.741940
0.627386 0.897461 0.741498
0.751643 0.894272 0.742032
0.876411 0.891083 0.743416
1.000000 0.887894 0.745262
0.004821 1.000000 0.742659
0.128166 1.000000 0.741671
0.252047 1.000000 0.741579
0.376510 1.000000 0.742454
0.501410 1.000000 0.744060
0.626484 1.000000 0.745955
0.751460 1.000000 0.747687
0.876166 1.000000 0.748968
1.000000 1.000000 0.749731
0.004398 0.008330 0.877994
0.132078 0.012165 0.880580
0.260029 0.016109 0.883601
0.387836 0.019996 0.886392
0.515032 0.023638 0.888206
0.641302 0.026910 0.888536
0.766622 0.029802 0.887348
0.891259 0.032420 0.885066
1.000000 0.034932 0.882354
0.013728 0.146359 0.887200
0.140610 0.149876 0.888511
0.266520 0.153003 0.888265
0.391549 0.155779 0.886611
0.516038 0.158338 0.884092
0.640410 0.160851 0.881387
0.765001 0.163451 0.879032
0.889976 0.166205 0.877291
1.000000 0.169114 0.876173
0.016403 0.281726 0.885758
0.140802 0.284250 0.883096
0.265223 0.286782 0.880469
0.389944 0.289435 0.878322
0.515067 0.292247 0.876817
0.640554 0.295206 0.875896
0.766306 0.298271 0.875398
0.892220 0.301400 0.875160
1.000000 0.304563 0.875057
0.014942 0.415440 0.877699
0.140206 0.418309 0.876421
0.265803 0.421312 0.875675
0.391625 0.424404 0.875289
0.517577 0.427549 0.875112
0.643594 0.430720 0.875038
0.769639 0.433902 0.875009
0.894300 0.432913 0.874992
1.000000 0.429723 0.874967
0.016960 0.550545 0.875207
0.142942 0.553701 0.875077
0.268972 0.556877 0.875024
0.394982 0.559942 0.875003
0.518908 0.556752 0.874985
0.642824 0.553562 0.874950
0.766711 0.550373 0.874866
0.890534 0.547184 0.874677
1.000000 0.543995 0.874295
0.019591 0.683780 0.874997
0.143516 0.680590 0.874976
0.267424 0.677401 0.874928
0.391292 0.674212 0.874813
0.515080 0.671023 0.874565
0.638731 0.667834 0.874088
0.762180 0.664645 0.873275
0.885389 0.661456 0.872061
1.000000 0.658267 0.870496
0.015863 0.798051 0.874743
0.139608 0.794862 0.874424
0.263193 0.791673 0.873836
0.386556 0.788484 0.872880
0.509680 0.785295 0.871524
0.632627 0.782106 0.869876
0.755570 0.778917 0.868218
0.878754 0.775728 0.866963
1.000000 0.772539 0.866497
0.010900 0.912323 0.872431
0.133946 0.909134 0.870947
0.256867 0.905945 0.869253
0.379867 0.902756 0.867692
0.503201 0.899567 0.866686
0.627068 0.896378 0.866569
0.751517 0.893189 0.867423
0.876409 0.890000 0.869015
1.000000 0.886811 0.870909
0.004209 1.000000 0.867240
0.127720 1.000000 0.866530
0.251803 1.000000 0.866774
0.376438 1.000000 0.867937
0.501430 1.000000 0.869696
0.626498 1.000000 0.871580
0.751395 1.000000 0.873180
0.875994 1.000000 0.874283
1.000000 1.000000 0.874887
0.005259 0.009612 1.000000
0.133067 0.013499 1.000000
0.261023 0.017445 1.000000
0.388671 0.021269 1.000000
0.515575 0.024794 1.000000
0.641509 0.027931 1.000000
0.766556 0.030714 1.000000
0.891053 0.033277 1.000000
1.000000 0.035789 1.000000
0.014469 0.147594 1.000000
0.141030 0.150982 1.000000
0.266615 0.153980 1.000000
0.391414 0.156664 1.000000
0.515818 0.159189 1.000000
0.640234 0.161719 1.000000
0.764946 0.164368 1.000000
0.890059 0.167177 1.000000
1.000000 0.170132 1.000000
0.016220 0.282592 1.000000
0.140585 0.285102 1.000000
0.265086 0.287666 1.000000
0.389941 0.290372 1.000000
0.515196 0.293237 1.000000
0.640785 0.296237 1.000000
0.766603 0.299328 1.000000
0.892552 0.302472 1.000000
1.000000 0.305642 1.000000
0.014989 0.416397 1.000000
0.140377 0.419316 1.000000
0.266062 0.422354 1.000000
0.391937 0.425468 1.000000
0.517917 0.428624 1.000000
0.643947 0.431800 1.000000
0.769996 0.434984 1.000000
0.893935 0.431830 0.999986
1.000000 0.428640 0.999952
0.017285 0.551613 1.000000
0.143288 0.554778 1.000000
0.269328 0.557958 1.000000
0.394617 0.558858 0.999997
0.518542 0.555668 0.999977
0.642451 0.552479 0.999930
0.766320 0.549290 0.999817
0.890111 0.546101 0.999574
1.000000 0.542912 0.999103
0.019227 0.682697 0.999991
0.143147 0.679507 0.999964
0.267045 0.676318 0.999899
0.390892 0.673129 0.999748
0.514641 0.669940 0.999435
0.638230 0.666751 0.998855
0.761599 0.663562 0.997909
0.884728 0.660373 0.996562
1.000000 0.657184 0.994918
0.015451 0.796968 0.999658
0.139149 0.793779 0.999260
0.262664 0.790590 0.998556
0.385945 0.787401 0.997463
0.508996 0.784212 0.995987
0.631918 0.781023 0.994295
0.754913 0.777834 0.992725
0.878235 0.774645 0.991701
1.000000 0.771456 0.991560
0.010259 0.911240 0.996965
0.133246 0.908051 0.995381
0.256166 0.904862 0.993687
0.379252 0.901673 0.992268
0.502750 0.898484 0.991536
0.626819 0.895295 0.991756
0.751442 0.892106 0.992900
0.876428 0.888917 0.994649
1.000000 0.885728 0.996536
0.003646 1.000000 0.991903
0.127341 1.000000 0.991500
0.251624 1.000000 0.992077
0.376409 1.000000 0.993490
0.501459 1.000000 0.995345
0.626492 1.000000 0.997171
0.751295 1.000000 0.998615
0.875786 1.000000 0.999539
1.000000 1.000000 1.000000
