luts/cross_process_17.cube
# Generated by scripts/recipes/generate_demo_luts.py
# Retouch Engine -- demo LUT (safe to redistribute).
# Cross-process look (slide film developed as C-41):
#   R: shadow lift +5%, highlight crush -3%, midtone +2%
#   G: midtone lift +6% (the dominant tell), shadow +2%
#   B: shadow lift +8%, highlight crush -5%
# Endpoints preserved by bell weighting.
TITLE "Demo Cross Process 17x17x17"
LUT_3D_SIZE 17
DOMAIN_MIN 0.0 0.0 0.0
DOMAIN_MAX 1.0 1.0 1.0
0.000000 0.000000 0.000000
0.063213 0.001667 0.000290
0.126524 0.003374 0.000738
0.189953 0.005127 0.001373
0.253511 0.006932 0.002217
0.317203 0.008791 0.003273
0.381018 0.010699 0.004526
0.444932 0.012646 0.005939
0.508907 0.014618 0.007448
0.572891 0.016593 0.008972
0.636825 0.018549 0.010416
0.700647 0.020460 0.011681
0.764301 0.022303 0.012677
0.827742 0.024061 0.013332
0.890941 0.025723 0.013599
0.953890 0.027284 0.013467
1.000000 0.028751 0.012956
0.002823 0.068278 0.001656
0.066430 0.070103 0.002577
0.130168 0.071980 0.003708
0.194023 0.073904 0.005025
0.257964 0.075862 0.006481
0.321949 0.077838 0.008006
0.385922 0.079809 0.009512
0.449822 0.081751 0.010902
0.513589 0.083640 0.012079
0.577170 0.085454 0.012958
0.640525 0.087178 0.013475
0.703633 0.088803 0.013597
0.766493 0.090329 0.013323
0.829125 0.091764 0.012684
0.891566 0.093122 0.011740
0.953865 0.094423 0.010567
1.000000 0.095689 0.009253
0.007040 0.137114 0.005542
0.071003 0.139081 0.007032
0.134990 0.141057 0.008561
0.198943 0.143021 0.010037
0.262802 0.144946 0.011360
0.326507 0.146810 0.012438
0.390009 0.148593 0.013191
0.453275 0.150281 0.013566
0.516292 0.151870 0.013542
0.579066 0.153361 0.013130
0.641623 0.154766 0.012372
0.704007 0.156101 0.011334
0.766267 0.157387 0.010100
0.828459 0.158646 0.008757
0.890636 0.159898 0.007390
0.952843 0.161163 0.006071
1.000000 0.162454 0.004856
0.011952 0.206227 0.010541
0.075761 0.208133 0.011785
0.139397 0.209969 0.012753
0.202817 0.211719 0.013373
0.265992 0.213371 0.013604
0.328919 0.214923 0.013436
0.391610 0.216382 0.012891
0.454099 0.217759 0.012022
0.516431 0.219074 0.010903
0.578660 0.220347 0.009619
0.640840 0.221602 0.008258
0.703023 0.222857 0.006901
0.765251 0.224130 0.005614
0.827553 0.225432 0.004448
0.889950 0.226773 0.003432
0.952449 0.228154 0.002579
1.000000 0.229576 0.001889
0.015592 0.274832 0.013503
0.078676 0.276448 0.013588
0.141514 0.277965 0.013279
0.204127 0.279392 0.012609
0.266553 0.280744 0.011640
0.328841 0.282041 0.010450
0.391046 0.283305 0.009128
0.453222 0.284557 0.007760
0.515417 0.285817 0.006421
0.577669 0.287100 0.005174
0.640004 0.288416 0.004059
0.702437 0.289771 0.003102
0.764974 0.291167 0.002310
0.827609 0.292603 0.001675
0.890333 0.294075 0.001184
0.953134 0.295577 0.000815
1.000000 0.297105 0.000547
0.016619 0.342392 0.012287
0.078989 0.343721 0.011228
0.141240 0.345004 0.009980
0.203429 0.346261 0.008631
0.265607 0.347514 0.007265
0.327819 0.348781 0.005954
0.390098 0.350075 0.004751
0.452468 0.351405 0.003692
0.514939 0.352775 0.002795
0.577512 0.354186 0.002061
0.640180 0.355635 0.001481
0.702934 0.357119 0.001037
0.765760 0.358631 0.000707
0.828643 0.360166 0.000470
0.891572 0.361719 0.000305
0.954533 0.363286 0.000192
1.000000 0.364862 0.000118
0.015810 0.409217 0.008132
0.077996 0.410473 0.006778
0.140229 0.411748 0.005501
0.202540 0.413054 0.004347
0.264945 0.414399 0.003346
0.327454 0.415784 0.002509
0.390062 0.417209 0.001833
0.452764 0.418672 0.001304
0.515545 0.420166 0.000905
0.578394 0.421687 0.000611
0.641295 0.423230 0.000403
0.704236 0.424788 0.000259
0.767207 0.426358 0.000162
0.830199 0.427937 0.000099
0.893205 0.429522 0.000058
0.956221 0.431110 0.000033
1.000000 0.432701 0.000017
0.014994 0.476039 0.003964
0.077436 0.477398 0.003022
0.139982 0.478798 0.002245
0.202626 0.480238 0.001624
0.265358 0.481712 0.001145
0.328165 0.483217 0.000787
0.391034 0.484747 0.000527
0.453951 0.486295 0.000344
0.516905 0.487859 0.000219
0.579884 0.489432 0.000135
0.642882 0.491013 0.000082
0.705892 0.492600 0.000048
0.768911 0.494189 0.000026
0.831934 0.495780 0.000013
0.894959 0.497373 0.000004
0.957009 0.496036 0.000000
1.000000 0.494441 0.000000
0.015201 0.543271 0.001434
0.077962 0.544757 0.001002
0.140793 0.546271 0.000682
0.203681 0.547809 0.000452
0.266613 0.549363 0.000292
0.329577 0.550931 0.000184
0.392564 0.552507 0.000113
0.455567 0.554090 0.000067
0.518580 0.555678 0.000039
0.581601 0.557268 0.000021
0.644625 0.558860 0.000009
0.707350 0.559550 0.000001
0.769314 0.557955 0.000000
0.831276 0.556360 0.000000
0.893235 0.554765 0.000000
0.955190 0.553171 0.000000
1.000000 0.551576 0.000000
0.016334 0.610873 0.000387
0.079278 0.612432 0.000248
0.142252 0.614004 0.000155
0.205245 0.615583 0.000094
0.268253 0.617168 0.000055
0.331269 0.618757 0.000031
0.394291 0.620348 0.000016
0.457316 0.621940 0.000006
0.519655 0.621469 0.000000
0.581618 0.619874 0.000000
0.643580 0.618279 0.000000
0.705537 0.616685 0.000000
0.767489 0.615090 0.000000
0.829432 0.613496 0.000000
0.891361 0.611901 0.000000
0.953271 0.610307 0.000000
1.000000 0.608712 0.000000
0.017929 0.678660 0.000078
0.080940 0.680246 0.000045
0.143959 0.681836 0.000025
0.206982 0.683427 0.000012
0.269996 0.684984 0.000003
0.331960 0.683389 0.000000
0.393922 0.681794 0.000000
0.455883 0.680199 0.000000
0.517839 0.678604 0.000000
0.579787 0.677010 0.000000
0.641726 0.675415 0.000000
0.703649 0.673820 0.000000
0.765550 0.672226 0.000000
0.827423 0.670632 0.000000
0.889260 0.669037 0.000000
0.951053 0.667443 0.000000
1.000000 0.665848 0.000000
0.019673 0.746507 0.000008
0.082301 0.746903 0.000000
0.144264 0.745308 0.000000
0.206226 0.743713 0.000000
0.268185 0.742118 0.000000
0.330139 0.740524 0.000000
0.392084 0.738929 0.000000
0.454018 0.737334 0.000000
0.515933 0.735740 0.000000
0.577826 0.734146 0.000000
0.639687 0.732551 0.000000
0.701508 0.730956 0.000000
0.763282 0.729362 0.000000
0.825001 0.727768 0.000000
0.886660 0.726173 0.000000
0.948257 0.724578 0.000000
1.000000 0.722984 0.000000
0.018530 0.805632 0.000000
0.080487 0.804038 0.000000
0.142438 0.802443 0.000000
0.204380 0.800849 0.000000
0.266307 0.799254 0.000000
0.328215 0.797660 0.000000
0.390097 0.796065 0.000000
0.451945 0.794470 0.000000
0.513750 0.792876 0.000000
0.575505 0.791282 0.000000
0.637202 0.789687 0.000000
0.698838 0.788092 0.000000
0.760414 0.786498 0.000000
0.821935 0.784904 0.000000
0.883414 0.783309 0.000000
0.944871 0.781714 0.000000
1.000000 0.780120 0.000000
0.016673 0.862768 0.000000
0.078594 0.861174 0.000000
0.140494 0.859579 0.000000
0.202364 0.857984 0.000000
0.264197 0.856390 0.000000
0.325985 0.854796 0.000000
0.387719 0.853201 0.000000
0.449395 0.851606 0.000000
0.511009 0.850012 0.000000
0.572563 0.848418 0.000000
0.634067 0.846823 0.000000
0.695535 0.845228 0.000000
0.756990 0.843634 0.000000
0.818461 0.842040 0.000000
0.879979 0.840445 0.000000
0.941577 0.838850 0.000000
1.000000 0.837256 0.000000
0.014626 0.919904 0.000000
0.076443 0.918310 0.000000
0.138213 0.916715 0.000000
0.199926 0.915120 0.000000
0.261579 0.913526 0.000000
0.323171 0.911932 0.000000
0.384706 0.910337 0.000000
0.446194 0.908742 0.000000
0.507655 0.907148 0.000000
0.569112 0.905554 0.000000
0.630596 0.903959 0.000000
0.692140 0.902364 0.000000
0.753775 0.900770 0.000000
0.815530 0.899176 0.000000
0.877425 0.897581 0.000000
0.939470 0.895986 0.000000
1.000000 0.894392 0.000000
0.012125 0.977040 0.000000
0.073756 0.975446 0.000000
0.135326 0.973851 0.000000
0.196842 0.972256 0.000000
0.258318 0.970662 0.000000
0.319774 0.969068 0.000000
0.381238 0.967473 0.000000
0.442739 0.965878 0.000000
0.504313 0.964284 0.000000
0.565989 0.962690 0.000000
0.627793 0.961095 0.000000
0.689742 0.959500 0.000000
0.751841 0.957906 0.000000
0.814083 0.956312 0.000000
0.876447 0.954717 0.000000
0.938907 0.953122 0.000000
1.000000 0.951528 0.000000
0.008973 1.000000 0.000000
0.070439 1.000000 0.000000
0.131894 1.000000 0.000000
0.193368 1.000000 0.000000
0.254892 1.000000 0.000000
0.316499 1.000000 0.000000
0.378219 1.000000 0.000000
0.440075 1.000000 0.000000
0.502079 1.000000 0.000000
0.564231 1.000000 0.000000
0.626520 1.000000 0.000000
0.688923 1.000000 0.000000
0.751409 1.000000 0.000000
0.813940 1.000000 0.000000
0.876481 1.000000 0.000000
0.938999 1.000000 0.000000
1.000000 1.000000 0.000000
0.000232 0.000562 0.062583
0.063476 0.002242 0.062923
0.126826 0.003963 0.063432
0.190297 0.005734 0.064136
0.253901 0.007557 0.065052
0.317637 0.009433 0.066178
0.381489 0.011356 0.067491
0.445429 0.013314 0.068944
0.509413 0.015290 0.070468
0.573387 0.017261 0.071976
0.637289 0.019204 0.073370
0.701060 0.021094 0.074554
0.764646 0.022911 0.075441
0.828007 0.024637 0.075967
0.891121 0.026264 0.076099
0.953987 0.027793 0.075834
1.000000 0.029229 0.075204
0.003184 0.068892 0.064444
0.066836 0.070735 0.065438
0.130617 0.072629 0.066636
0.194505 0.074566 0.068007
0.258466 0.076532 0.069495
0.322454 0.078509 0.071024
0.386409 0.080473 0.072502
0.450270 0.082400 0.073830
0.513980 0.084265 0.074915
0.577487 0.086050 0.075677
0.640760 0.087741 0.076062
0.703782 0.089332 0.076048
0.766562 0.090826 0.075645
0.829124 0.092233 0.074894
0.891511 0.093569 0.073863
0.953773 0.094856 0.072632
1.000000 0.096115 0.071291
0.007531 0.137779 0.068539
0.071508 0.139752 0.070052
0.135490 0.141727 0.071573
0.199419 0.143680 0.073008
0.263231 0.145587 0.074258
0.326872 0.147425 0.075233
0.390297 0.149177 0.075862
0.453479 0.150832 0.076103
0.516411 0.152387 0.075944
0.579108 0.153847 0.075409
0.641601 0.155226 0.074547
0.703936 0.156542 0.073433
0.766167 0.157816 0.072152
0.828348 0.159071 0.070792
0.890531 0.160326 0.069433
0.952757 0.161598 0.068144
1.000000 0.162900 0.066975
0.012413 0.206881 0.073490
0.076169 0.208765 0.074649
0.139736 0.210574 0.075505
0.203074 0.212291 0.075996
0.266165 0.213909 0.076091
0.329009 0.215429 0.075791
0.391627 0.216858 0.075129
0.454056 0.218212 0.074166
0.516347 0.219510 0.072981
0.578554 0.220774 0.071661
0.640730 0.222027 0.070293
0.702924 0.223286 0.068953
0.765174 0.224568 0.067703
0.827507 0.225883 0.066585
0.889938 0.227237 0.065624
0.952471 0.228633 0.064827
1.000000 0.230068 0.064189
0.015818 0.275392 0.076077
0.078818 0.276974 0.076026
0.141576 0.278459 0.075589
0.204121 0.279858 0.074810
0.266494 0.281190 0.073756
0.328747 0.282473 0.072512
0.390937 0.283731 0.071165
0.453114 0.284984 0.069798
0.515325 0.286250 0.068485
0.577603 0.287543 0.067279
0.639970 0.288872 0.066216
0.702438 0.290241 0.065315
0.765009 0.291651 0.064577
0.827675 0.293099 0.063993
0.890427 0.294582 0.063546
0.953251 0.296094 0.063214
1.000000 0.297628 0.062975
0.016592 0.342850 0.074454
0.078915 0.344161 0.073321
0.141139 0.345433 0.072029
0.203318 0.346686 0.070665
0.265503 0.347942 0.069311
0.327735 0.349217 0.068031
0.390043 0.350522 0.066874
0.452447 0.351865 0.065869
0.514952 0.353249 0.065028
0.577559 0.354674 0.064347
0.640258 0.356135 0.063816
0.703038 0.357629 0.063413
0.765885 0.359150 0.063118
0.828784 0.360692 0.062907
0.891725 0.362250 0.062761
0.954695 0.363820 0.062664
1.000000 0.365398 0.062600
0.015701 0.409642 0.070167
0.077898 0.410903 0.068833
0.140155 0.412188 0.067594
0.202496 0.413506 0.066489
0.264937 0.414864 0.065543
0.327480 0.416263 0.064762
0.390121 0.417702 0.064138
0.452851 0.419176 0.063655
0.515657 0.420680 0.063294
0.578525 0.422209 0.063032
0.641441 0.423757 0.062848
0.704393 0.425320 0.062721
0.767372 0.426894 0.062637
0.830370 0.428475 0.062583
0.893380 0.430061 0.062548
0.956398 0.431650 0.062527
1.000000 0.433241 0.062513
0.014963 0.476496 0.066126
0.077440 0.477869 0.065240
0.140020 0.479283 0.064517
0.202695 0.480735 0.063947
0.265454 0.482220 0.063511
0.328284 0.483734 0.063189
0.391171 0.485271 0.062957
0.454102 0.486825 0.062796
0.517065 0.488392 0.062686
0.580052 0.489969 0.062614
0.643054 0.491552 0.062568
0.706068 0.493139 0.062539
0.769088 0.494729 0.062521
0.832112 0.496321 0.062510
0.894863 0.497089 0.062501
0.956827 0.495494 0.062493
1.000000 0.493899 0.062483
0.015280 0.543772 0.063774
0.078067 0.545268 0.063382
0.140919 0.546791 0.063095
0.203823 0.548335 0.062891
0.266767 0.549894 0.062751
0.329740 0.551465 0.062657
0.392733 0.553044 0.062595
0.455740 0.554629 0.062556
0.518756 0.556218 0.062532
0.581778 0.557809 0.062516
0.644803 0.559401 0.062506
0.707168 0.559008 0.062498
0.769131 0.557413 0.062490
0.831093 0.555818 0.062478
0.893051 0.554224 0.062460
0.955003 0.552629 0.062433
1.000000 0.551035 0.062390
0.016481 0.611401 0.062834
0.079436 0.612965 0.062712
0.142417 0.614539 0.062631
0.205416 0.616121 0.062579
0.268427 0.617707 0.062546
0.331446 0.619297 0.062525
0.394469 0.620888 0.062512
0.457495 0.622481 0.062503
0.519473 0.620928 0.062495
0.581436 0.619333 0.062486
0.643396 0.617738 0.062472
0.705352 0.616143 0.062452
0.767301 0.614549 0.062419
0.829240 0.612954 0.062369
0.891163 0.611359 0.062294
0.953065 0.609765 0.062183
1.000000 0.608171 0.062026
0.018101 0.679198 0.062565
0.081115 0.680786 0.062537
0.144136 0.682376 0.062520
0.207161 0.683968 0.062509
0.269814 0.684442 0.062500
0.331777 0.682847 0.062492
0.393739 0.681252 0.062482
0.455699 0.679657 0.062466
0.517653 0.678063 0.062442
0.579598 0.676468 0.062404
0.641532 0.674873 0.062345
0.703448 0.673279 0.062258
0.765341 0.671685 0.062132
0.827203 0.670090 0.061954
0.889025 0.668495 0.061711
0.950801 0.666901 0.061389
1.000000 0.665307 0.060976
0.019852 0.747048 0.062505
0.082119 0.746361 0.062497
0.144082 0.744766 0.062489
0.206043 0.743171 0.062477
0.268001 0.741577 0.062458
0.329952 0.739982 0.062430
0.391894 0.738388 0.062385
0.453821 0.736793 0.062317
0.515730 0.735198 0.062218
0.577612 0.733604 0.062074
0.639461 0.732009 0.061874
0.701267 0.730415 0.061604
0.763023 0.728821 0.061250
0.824722 0.727226 0.060801
0.886360 0.725631 0.060250
0.947937 0.724037 0.059597
1.000000 0.722443 0.058853
0.018346 0.805091 0.062471
0.080302 0.803496 0.062449
0.142250 0.801902 0.062416
0.204187 0.800307 0.062364
0.266109 0.798712 0.062285
0.328009 0.797118 0.062171
0.389880 0.795524 0.062009
0.451714 0.793929 0.061785
0.513503 0.792334 0.061486
0.575239 0.790740 0.061098
0.636916 0.789145 0.060612
0.698531 0.787551 0.060023
0.760087 0.785957 0.059336
0.821592 0.784362 0.058563
0.883061 0.782767 0.057730
0.944516 0.781173 0.056875
1.000000 0.779579 0.056044
0.016479 0.862226 0.062339
0.078393 0.860632 0.062248
0.140283 0.859038 0.062118
0.202142 0.857443 0.061935
0.263961 0.855848 0.061685
0.325731 0.854254 0.061355
0.387446 0.852660 0.060933
0.449101 0.851065 0.060410
0.510694 0.849470 0.059784
0.572230 0.847876 0.059063
0.633720 0.846282 0.058265
0.695181 0.844687 0.057419
0.756638 0.843093 0.056567
0.818120 0.841498 0.055757
0.879662 0.839903 0.055046
0.941295 0.838309 0.054486
1.000000 0.836715 0.054125
0.014399 0.919362 0.061853
0.076201 0.917768 0.061575
0.137952 0.916174 0.061213
0.199646 0.914579 0.060754
0.261278 0.912984 0.060194
0.322849 0.911390 0.059532
0.384367 0.909796 0.058780
0.445843 0.908201 0.057961
0.507300 0.906606 0.057107
0.568763 0.905012 0.056264
0.630263 0.903418 0.055484
0.691834 0.901823 0.054822
0.753507 0.900229 0.054330
0.815308 0.898634 0.054050
0.877254 0.897039 0.054012
0.939349 0.895445 0.054223
1.000000 0.893851 0.054673
0.011837 0.976498 0.060562
0.073446 0.974904 0.059964
0.134997 0.973310 0.059268
0.196498 0.971715 0.058488
0.257965 0.970120 0.057652
0.319420 0.968526 0.056796
0.380893 0.966932 0.055970
0.442415 0.965337 0.055227
0.504020 0.963742 0.054620
0.565737 0.962148 0.054201
0.627589 0.960554 0.054007
0.689589 0.958959 0.054060
0.751738 0.957364 0.054361
0.814024 0.955770 0.054890
0.876425 0.954176 0.055610
0.938909 0.952581 0.056469
1.000000 0.950987 0.057406
0.008625 1.000000 0.058189
0.070084 1.000000 0.057340
0.131542 1.000000 0.056490
0.193029 1.000000 0.055687
0.254578 1.000000 0.054987
0.316220 1.000000 0.054444
0.377984 1.000000 0.054103
0.439889 1.000000 0.053998
0.501944 1.000000 0.054141
0.564145 1.000000 0.054529
0.626476 1.000000 0.055133
0.688911 1.000000 0.055910
0.751416 1.000000 0.056805
0.813955 1.000000 0.057755
0.876491 1.000000 0.058701
0.938994 1.000000 0.059592
1.000000 1.000000 0.060386
0.000475 0.001128 0.125182
0.063752 0.002821 0.125575
0.127141 0.004559 0.126148
0.190657 0.006347 0.126923
0.254307 0.008189 0.127911
0.318084 0.010082 0.129105
0.381970 0.012018 0.130472
0.445930 0.013984 0.131958
0.509917 0.015961 0.133487
0.573874 0.017925 0.134967
0.637739 0.019853 0.136300
0.701452 0.021720 0.137392
0.764965 0.023508 0.138162
0.828244 0.025201 0.138557
0.891272 0.026794 0.138553
0.954058 0.028290 0.138159
1.000000 0.029699 0.137416
0.003560 0.069512 0.127258
0.067257 0.071372 0.128323
0.131077 0.073282 0.129584
0.194995 0.075231 0.131002
0.258971 0.077204 0.132514
0.322954 0.079179 0.134037
0.386885 0.081133 0.135475
0.450701 0.083041 0.136730
0.514347 0.084881 0.137713
0.577777 0.086635 0.138351
0.640965 0.088292 0.138602
0.703904 0.089850 0.138453
0.766606 0.091312 0.137926
0.829103 0.092693 0.137071
0.891442 0.094011 0.135963
0.953674 0.095286 0.134685
1.000000 0.096540 0.133325
0.008028 0.138447 0.131546
0.072013 0.140423 0.133072
0.135985 0.142394 0.134575
0.199880 0.144334 0.135958
0.263640 0.146220 0.137124
0.327212 0.148031 0.137988
0.390557 0.149750 0.138489
0.453653 0.151371 0.138594
0.516503 0.152893 0.138303
0.579126 0.154324 0.137649
0.641560 0.155679 0.136693
0.703854 0.156979 0.135512
0.766062 0.158244 0.134195
0.828238 0.159496 0.132827
0.890431 0.160755 0.131485
0.952679 0.162036 0.130232
1.000000 0.163351 0.129110
0.012858 0.207528 0.136412
0.076555 0.209389 0.137477
0.140047 0.211168 0.138215
0.203303 0.212852 0.138574
0.266309 0.214436 0.138532
0.329073 0.215924 0.138104
0.391622 0.217325 0.137332
0.453998 0.218658 0.136285
0.516254 0.219942 0.135044
0.578445 0.221200 0.133698
0.640622 0.222453 0.132331
0.702831 0.223718 0.131016
0.765107 0.225011 0.129807
0.827472 0.226339 0.128740
0.889938 0.227707 0.127835
0.952506 0.229116 0.127093
1.000000 0.230563 0.126506
0.016016 0.275940 0.138605
0.078932 0.277488 0.138420
0.141613 0.278943 0.137860
0.204094 0.280317 0.136979
0.266421 0.281630 0.135851
0.328646 0.282902 0.134561
0.390826 0.284156 0.133199
0.453011 0.285411 0.131843
0.515241 0.286685 0.130561
0.577547 0.287990 0.129401
0.639948 0.289332 0.128391
0.702451 0.290715 0.127546
0.765055 0.292139 0.126862
0.827752 0.293599 0.126327
0.890530 0.295092 0.125922
0.953375 0.296612 0.125624
1.000000 0.298154 0.125411
0.016546 0.343301 0.136592
0.078829 0.344596 0.135395
0.141032 0.345859 0.134069
0.203208 0.347112 0.132701
0.265405 0.348372 0.131365
0.327660 0.349656 0.130122
0.389999 0.350974 0.129015
0.452437 0.352331 0.128065
0.514977 0.353729 0.127279
0.577616 0.355166 0.126651
0.640345 0.356639 0.126166
0.703149 0.358143 0.125802
0.766015 0.359671 0.125538
0.828930 0.361219 0.125351
0.891882 0.362782 0.125224
0.954860 0.364355 0.125139
1.000000 0.365936 0.125084
0.015593 0.410069 0.132207
0.077808 0.411336 0.130899
0.140091 0.412631 0.129702
0.202465 0.413963 0.128650
0.264940 0.415335 0.127760
0.327517 0.416748 0.127033
0.390190 0.418199 0.126459
0.452947 0.419684 0.126020
0.515776 0.421197 0.125695
0.578661 0.422733 0.125462
0.641591 0.424287 0.125299
0.704553 0.425854 0.125189
0.767539 0.427430 0.125116
0.830542 0.429013 0.125069
0.893555 0.430600 0.125040
0.956575 0.432190 0.125022
1.000000 0.433782 0.125010
0.014944 0.476958 0.128307
0.077456 0.478345 0.127476
0.140069 0.479772 0.126807
0.202774 0.481236 0.126285
0.265559 0.482732 0.125890
0.328410 0.484254 0.125601
0.391313 0.485797 0.125395
0.454256 0.487356 0.125254
0.517228 0.488927 0.125158
0.580221 0.490506 0.125096
0.643228 0.492090 0.125057
0.706244 0.493679 0.125032
0.769265 0.495270 0.125017
0.832291 0.496862 0.125006
0.894681 0.496547 0.124998
0.956644 0.494952 0.124990
1.000000 0.493357 0.124978
0.015370 0.544277 0.126127
0.078180 0.545783 0.125774
0.141051 0.547313 0.125517
0.203970 0.548863 0.125337
0.266925 0.550427 0.125214
0.329905 0.552001 0.125133
0.392904 0.553582 0.125080
0.455915 0.555168 0.125047
0.518933 0.556758 0.125026
0.581956 0.558349 0.125013
0.644982 0.559942 0.125003
0.706986 0.558467 0.124995
0.768949 0.556872 0.124986
0.830909 0.555277 0.124973
0.892865 0.553682 0.124952
0.954815 0.552088 0.124920
1.000000 0.550493 0.124871
0.016632 0.611931 0.125287
0.079597 0.613499 0.125180
0.142585 0.615076 0.125111
0.205589 0.616659 0.125066
0.268603 0.618247 0.125038
0.331623 0.619837 0.125020
0.394648 0.621429 0.125009
0.457327 0.621981 0.125000
0.519290 0.620386 0.124992
0.581253 0.618791 0.124982
0.643212 0.617196 0.124966
0.705166 0.615602 0.124942
0.767112 0.614007 0.124905
0.829046 0.612413 0.124847
0.890962 0.610818 0.124761
0.952856 0.609223 0.124636
1.000000 0.607629 0.124460
0.018275 0.679737 0.125054
0.081292 0.681325 0.125030
0.144314 0.682916 0.125016
0.207339 0.684509 0.125006
0.269632 0.683900 0.124998
0.331595 0.682305 0.124989
0.393556 0.680710 0.124977
0.455514 0.679116 0.124959
0.517465 0.677521 0.124930
0.579407 0.675927 0.124886
0.641336 0.674332 0.124819
0.703245 0.672737 0.124720
0.765128 0.671143 0.124578
0.826977 0.669549 0.124380
0.888785 0.667954 0.124112
0.950542 0.666359 0.123760
1.000000 0.664765 0.123313
0.019973 0.747415 0.125003
0.081936 0.745820 0.124995
0.143899 0.744225 0.124985
0.205859 0.742630 0.124971
0.267815 0.741035 0.124950
0.329763 0.739441 0.124917
0.391701 0.737846 0.124865
0.453623 0.736251 0.124788
0.515524 0.734657 0.124674
0.577395 0.733063 0.124513
0.639231 0.731468 0.124291
0.701021 0.729873 0.123994
0.762758 0.728279 0.123609
0.824437 0.726685 0.123125
0.886054 0.725090 0.122539
0.947611 0.723495 0.121854
1.000000 0.721901 0.121083
0.018162 0.804549 0.124965
0.080115 0.802955 0.124939
0.142060 0.801360 0.124900
0.203993 0.799765 0.124840
0.265908 0.798171 0.124751
0.327799 0.796576 0.124622
0.389658 0.794982 0.124440
0.451478 0.793387 0.124192
0.513250 0.791793 0.123864
0.574966 0.790199 0.123444
0.636622 0.788604 0.122924
0.698217 0.787009 0.122301
0.759754 0.785415 0.121582
0.821245 0.783821 0.120785
0.882706 0.782226 0.119940
0.944163 0.780631 0.119087
1.000000 0.779037 0.118276
0.016282 0.861685 0.124812
0.078189 0.860090 0.124709
0.140070 0.858496 0.124563
0.201916 0.856902 0.124358
0.263719 0.855307 0.124083
0.325471 0.853712 0.123723
0.387166 0.852118 0.123267
0.448800 0.850523 0.122709
0.510373 0.848929 0.122049
0.571891 0.847335 0.121300
0.633369 0.845740 0.120481
0.694825 0.844145 0.119628
0.756288 0.842551 0.118784
0.817787 0.840957 0.118002
0.879356 0.839362 0.117336
0.941026 0.837767 0.116839
1.000000 0.836173 0.116554
0.014167 0.918821 0.124267
0.075953 0.917226 0.123962
0.137685 0.915632 0.123568
0.199358 0.914038 0.123075
0.260969 0.912443 0.122480
0.322521 0.910848 0.121786
0.384023 0.909254 0.121008
0.445490 0.907659 0.120173
0.506945 0.906065 0.119317
0.568417 0.904471 0.118490
0.629938 0.902876 0.117743
0.691540 0.901281 0.117133
0.753254 0.899687 0.116709
0.815103 0.898093 0.116509
0.877100 0.896498 0.116556
0.939245 0.894903 0.116851
1.000000 0.893309 0.117375
0.011541 0.975957 0.122870
0.073130 0.974362 0.122238
0.134663 0.972768 0.121511
0.196150 0.971174 0.120709
0.257610 0.969579 0.119861
0.319067 0.967984 0.119010
0.380553 0.966390 0.118206
0.442100 0.964796 0.117503
0.503740 0.963201 0.116955
0.565501 0.961607 0.116609
0.627402 0.960012 0.116497
0.689453 0.958417 0.116635
0.751651 0.956823 0.117016
0.813979 0.955229 0.117616
0.876412 0.953634 0.118389
0.938916 0.952039 0.119282
1.000000 0.950445 0.120232
0.008273 1.000000 0.120404
0.069729 1.000000 0.119549
0.131193 1.000000 0.118709
0.192697 1.000000 0.117935
0.254275 1.000000 0.117283
0.315956 1.000000 0.116804
0.377766 1.000000 0.116540
0.439721 1.000000 0.116518
0.501827 1.000000 0.116747
0.564074 1.000000 0.117211
0.626444 1.000000 0.117880
0.688907 1.000000 0.118704
0.751428 1.000000 0.119624
0.813969 1.000000 0.120580
0.876497 1.000000 0.121512
0.938983 1.000000 0.122374
1.000000 1.000000 0.123129
0.000727 0.001699 0.187797
0.064041 0.003406 0.188248
0.127472 0.005160 0.188887
0.191033 0.006967 0.189735
0.254727 0.008826 0.190795
