luts/fuji.cube
# Generated by scripts/recipes/generate_demo_luts.py
# Retouch Engine -- demo LUT (safe to redistribute).
# Referenced by the 'film' preset (alt name). NOT an authoritative Fuji profile.
# Classic Chrome-inspired curves: R highlight crush (-5%), G cool midtones (-0.04), B linear.
# For real Fuji film stock emulation, install commercial LUTs.
TITLE "Demo Fuji Chrome 17x17x17"
LUT_3D_SIZE 9
DOMAIN_MIN 0.0 0.0 0.0
DOMAIN_MAX 1.0 1.0 1.0
0.000000 0.000000 0.000000
0.124668 0.000000 0.000000
0.248671 0.000000 0.000000
0.372010 0.000000 0.000000
0.494685 0.000000 0.000000
0.616695 0.000000 0.000000
0.738041 0.000000 0.000000
0.858723 0.000000 0.000000
0.978740 0.000000 0.000000
0.000000 0.117848 0.000000
0.123550 0.115722 0.000000
0.246436 0.113596 0.000000
0.368658 0.111470 0.000000
0.490215 0.109344 0.000000
0.611108 0.107218 0.000000
0.731336 0.105092 0.000000
0.850900 0.102966 0.000000
0.969800 0.100840 0.000000
0.000000 0.235696 0.000000
0.122433 0.233570 0.000000
0.244201 0.231444 0.000000
0.365305 0.229318 0.000000
0.485745 0.227192 0.000000
0.605520 0.225066 0.000000
0.724631 0.222940 0.000000
0.843078 0.220814 0.000000
0.960860 0.218688 0.000000
0.000000 0.353544 0.000000
0.121315 0.351418 0.000000
0.241966 0.349292 0.000000
0.361953 0.347166 0.000000
0.481275 0.345040 0.000000
0.599933 0.342914 0.000000
0.717926 0.340788 0.000000
0.835255 0.338662 0.000000
0.951920 0.336536 0.000000
0.000000 0.471392 0.000000
0.120198 0.469266 0.000000
0.239731 0.467140 0.000000
0.358600 0.465014 0.000000
0.476805 0.462888 0.000000
0.594345 0.460762 0.000000
0.713779 0.461364 0.000000
0.835067 0.463490 0.000000
0.957020 0.465616 0.000000
0.000000 0.589240 0.000000
0.119080 0.587114 0.000000
0.237504 0.585012 0.000000
0.357252 0.587138 0.000000
0.477665 0.589264 0.000000
0.598742 0.591390 0.000000
0.720484 0.593516 0.000000
0.842890 0.595642 0.000000
0.965960 0.597768 0.000000
0.000000 0.712912 0.000000
0.119537 0.715038 0.000000
0.239739 0.717164 0.000000
0.360605 0.719290 0.000000
0.482135 0.721416 0.000000
0.604330 0.723542 0.000000
0.727189 0.725668 0.000000
0.850712 0.727794 0.000000
0.974900 0.729920 0.000000
0.000000 0.845064 0.000000
0.120655 0.847190 0.000000
0.241974 0.849316 0.000000
0.363957 0.851442 0.000000
0.486605 0.853568 0.000000
0.609917 0.855694 0.000000
0.733894 0.857820 0.000000
0.858535 0.859946 0.000000
0.983840 0.862072 0.000000
0.000000 0.977216 0.000000
0.121772 0.979342 0.000000
0.244209 0.981468 0.000000
0.367310 0.983594 0.000000
0.491075 0.985720 0.000000
0.615505 0.987846 0.000000
0.740599 0.989972 0.000000
0.866357 0.992098 0.000000
0.992780 0.994224 0.000000
0.000000 0.000000 0.125000
0.124555 0.000000 0.125000
0.248446 0.000000 0.125000
0.371672 0.000000 0.125000
0.494234 0.000000 0.125000
0.616131 0.000000 0.125000
0.737364 0.000000 0.125000
0.857933 0.000000 0.125000
0.977838 0.000000 0.125000
0.000000 0.117126 0.125000
0.123438 0.115000 0.125000
0.246211 0.112874 0.125000
0.368319 0.110748 0.125000
0.489764 0.108622 0.125000
0.610544 0.106496 0.125000
0.730659 0.104370 0.125000
0.850111 0.102244 0.125000
0.968898 0.100118 0.125000
0.000000 0.234974 0.125000
0.122320 0.232848 0.125000
0.243976 0.230722 0.125000
0.364967 0.228596 0.125000
0.485294 0.226470 0.125000
0.604956 0.224344 0.125000
0.723954 0.222218 0.125000
0.842288 0.220092 0.125000
0.959957 0.217966 0.125000
0.000000 0.352822 0.125000
0.121202 0.350696 0.125000
0.241741 0.348570 0.125000
0.361614 0.346444 0.125000
0.480824 0.344318 0.125000
0.599369 0.342192 0.125000
0.717249 0.340066 0.125000
0.834466 0.337940 0.125000
0.951017 0.335814 0.125000
0.000000 0.470670 0.125000
0.120085 0.468544 0.125000
0.239506 0.466418 0.125000
0.358262 0.464292 0.125000
0.476354 0.462166 0.125000
0.593781 0.460040 0.125000
0.714456 0.462086 0.125000
0.835857 0.464212 0.125000
0.957923 0.466338 0.125000
0.000000 0.588518 0.125000
0.118968 0.586392 0.125000
0.237729 0.585734 0.125000
0.357591 0.587860 0.125000
0.478116 0.589986 0.125000
0.599306 0.592112 0.125000
0.721161 0.594238 0.125000
0.843679 0.596364 0.125000
0.966862 0.598490 0.125000
0.000000 0.713634 0.125000
0.119650 0.715760 0.125000
0.239964 0.717886 0.125000
0.360943 0.720012 0.125000
0.482586 0.722138 0.125000
0.604894 0.724264 0.125000
0.727866 0.726390 0.125000
0.851502 0.728516 0.125000
0.975802 0.730642 0.125000
0.000000 0.845786 0.125000
0.120767 0.847912 0.125000
0.242199 0.850038 0.125000
0.364296 0.852164 0.125000
0.487056 0.854290 0.125000
0.610481 0.856416 0.125000
0.734571 0.858542 0.125000
0.859324 0.860668 0.125000
0.984743 0.862794 0.125000
0.000000 0.977938 0.125000
0.121885 0.980064 0.125000
0.244434 0.982190 0.125000
0.367648 0.984316 0.125000
0.491526 0.986442 0.125000
0.616069 0.988568 0.125000
0.741276 0.990694 0.125000
0.867147 0.992820 0.125000
0.993683 0.994946 0.125000
0.000000 0.000000 0.250000
0.124442 0.000000 0.250000
0.248220 0.000000 0.250000
0.371333 0.000000 0.250000
0.493782 0.000000 0.250000
0.615567 0.000000 0.250000
0.736687 0.000000 0.250000
0.857143 0.000000 0.250000
0.976935 0.000000 0.250000
0.000000 0.116404 0.250000
0.123325 0.114278 0.250000
0.245985 0.112152 0.250000
0.367981 0.110026 0.250000
0.489312 0.107900 0.250000
0.609980 0.105774 0.250000
0.729982 0.103648 0.250000
0.849321 0.101522 0.250000
0.967995 0.099396 0.250000
0.000000 0.234252 0.250000
0.122207 0.232126 0.250000
0.243750 0.230000 0.250000
0.364628 0.227874 0.250000
0.484843 0.225748 0.250000
0.604392 0.223622 0.250000
0.723278 0.221496 0.250000
0.841498 0.219370 0.250000
0.959055 0.217244 0.250000
0.000000 0.352100 0.250000
0.121090 0.349974 0.250000
0.241515 0.347848 0.250000
0.361276 0.345722 0.250000
0.480372 0.343596 0.250000
0.598805 0.341470 0.250000
0.716573 0.339344 0.250000
0.833676 0.337218 0.250000
0.950115 0.335092 0.250000
0.000000 0.469948 0.250000
0.119972 0.467822 0.250000
0.239280 0.465696 0.250000
0.357923 0.463570 0.250000
0.475902 0.461444 0.250000
0.594283 0.460682 0.250000
0.715132 0.462808 0.250000
0.836647 0.464934 0.250000
0.958825 0.467060 0.250000
0.000000 0.587796 0.250000
0.118855 0.585670 0.250000
0.237955 0.586456 0.250000
0.357929 0.588582 0.250000
0.478568 0.590708 0.250000
0.599870 0.592834 0.250000
0.721838 0.594960 0.250000
0.844469 0.597086 0.250000
0.967765 0.599212 0.250000
0.000000 0.714356 0.250000
0.119763 0.716482 0.250000
0.240190 0.718608 0.250000
0.361282 0.720734 0.250000
0.483038 0.722860 0.250000
0.605458 0.724986 0.250000
0.728543 0.727112 0.250000
0.852292 0.729238 0.250000
0.976705 0.731364 0.250000
0.000000 0.846508 0.250000
0.120880 0.848634 0.250000
0.242425 0.850760 0.250000
0.364634 0.852886 0.250000
0.487507 0.855012 0.250000
0.611045 0.857138 0.250000
0.735247 0.859264 0.250000
0.860114 0.861390 0.250000
0.985645 0.863516 0.250000
0.000000 0.978660 0.250000
0.121998 0.980786 0.250000
0.244660 0.982912 0.250000
0.367987 0.985038 0.250000
0.491978 0.987164 0.250000
0.616633 0.989290 0.250000
0.741952 0.991416 0.250000
0.867937 0.993542 0.250000
0.994585 0.995668 0.250000
0.000000 0.000000 0.375000
0.124329 0.000000 0.375000
0.247994 0.000000 0.375000
0.370995 0.000000 0.375000
0.493331 0.000000 0.375000
0.615003 0.000000 0.375000
0.736011 0.000000 0.375000
0.856354 0.000000 0.375000
0.976032 0.000000 0.375000
0.000000 0.115682 0.375000
0.123212 0.113556 0.375000
0.245759 0.111430 0.375000
0.367642 0.109304 0.375000
0.488861 0.107178 0.375000
0.609416 0.105052 0.375000
0.729306 0.102926 0.375000
0.848531 0.100800 0.375000
0.967093 0.098674 0.375000
0.000000 0.233530 0.375000
0.122094 0.231404 0.375000
0.243524 0.229278 0.375000
0.364290 0.227152 0.375000
0.484391 0.225026 0.375000
0.603828 0.222900 0.375000
0.722601 0.220774 0.375000
0.840709 0.218648 0.375000
0.958153 0.216522 0.375000
0.000000 0.351378 0.375000
0.120977 0.349252 0.375000
0.241289 0.347126 0.375000
0.360937 0.345000 0.375000
0.479921 0.342874 0.375000
0.598241 0.340748 0.375000
0.715896 0.338622 0.375000
0.832886 0.336496 0.375000
0.950787 0.335630 0.375000
0.000000 0.469226 0.375000
0.119859 0.467100 0.375000
0.239054 0.464974 0.375000
0.357585 0.462848 0.375000
0.475451 0.460722 0.375000
0.594847 0.461404 0.375000
0.715809 0.463530 0.375000
0.837436 0.465656 0.375000
0.959728 0.467782 0.375000
0.000000 0.587074 0.375000
0.118758 0.585052 0.375000
0.238181 0.587178 0.375000
0.358268 0.589304 0.375000
0.479019 0.591430 0.375000
0.600434 0.593556 0.375000
0.722514 0.595682 0.375000
0.845259 0.597808 0.375000
0.968668 0.599934 0.375000
0.000000 0.715078 0.375000
0.119876 0.717204 0.375000
0.240416 0.719330 0.375000
0.361620 0.721456 0.375000
0.483489 0.723582 0.375000
0.606022 0.725708 0.375000
0.729219 0.727834 0.375000
0.853081 0.729960 0.375000
0.977607 0.732086 0.375000
0.000000 0.847230 0.375000
0.120993 0.849356 0.375000
0.242651 0.851482 0.375000
0.364973 0.853608 0.375000
0.487959 0.855734 0.375000
0.611609 0.857860 0.375000
0.735924 0.859986 0.375000
0.860904 0.862112 0.375000
0.986547 0.864238 0.375000
0.000000 0.979382 0.375000
0.122111 0.981508 0.375000
0.244886 0.983634 0.375000
0.368325 0.985760 0.375000
0.492429 0.987886 0.375000
0.617197 0.990012 0.375000
0.742629 0.992138 0.375000
0.868726 0.994264 0.375000
0.995488 0.996390 0.375000
0.000000 0.000000 0.500000
0.124217 0.000000 0.500000
0.247769 0.000000 0.500000
0.370657 0.000000 0.500000
0.492880 0.000000 0.500000
0.614439 0.000000 0.500000
0.735334 0.000000 0.500000
0.855564 0.000000 0.500000
0.975130 0.000000 0.500000
0.000000 0.114960 0.500000
0.123099 0.112834 0.500000
0.245534 0.110708 0.500000
0.367304 0.108582 0.500000
0.488410 0.106456 0.500000
0.608852 0.104330 0.500000
0.728629 0.102204 0.500000
0.847742 0.100078 0.500000
0.966190 0.097952 0.500000
0.000000 0.232808 0.500000
0.121982 0.230682 0.500000
0.243299 0.228556 0.500000
0.363952 0.226430 0.500000
0.483940 0.224304 0.500000
0.603264 0.222178 0.500000
0.721924 0.220052 0.500000
0.839919 0.217926 0.500000
0.957250 0.215800 0.500000
0.000000 0.350656 0.500000
0.120864 0.348530 0.500000
0.241064 0.346404 0.500000
0.360599 0.344278 0.500000
0.479470 0.342152 0.500000
0.597677 0.340026 0.500000
0.715219 0.337900 0.500000
0.832097 0.335774 0.500000
0.951690 0.336352 0.500000
0.000000 0.468504 0.500000
0.119747 0.466378 0.500000
0.238829 0.464252 0.500000
0.357247 0.462126 0.500000
0.475000 0.460000 0.500000
0.595411 0.462126 0.500000
0.716486 0.464252 0.500000
0.838226 0.466378 0.500000
0.960630 0.468504 0.500000
0.000000 0.586352 0.500000
0.118871 0.585774 0.500000
0.238406 0.587900 0.500000
0.358606 0.590026 0.500000
0.479470 0.592152 0.500000
0.600998 0.594278 0.500000
0.723191 0.596404 0.500000
0.846048 0.598530 0.500000
0.969570 0.600656 0.500000
0.000000 0.715800 0.500000
0.119988 0.717926 0.500000
0.240641 0.720052 0.500000
0.361958 0.722178 0.500000
0.483940 0.724304 0.500000
0.606586 0.726430 0.500000
0.729896 0.728556 0.500000
0.853871 0.730682 0.500000
0.978510 0.732808 0.500000
0.000000 0.847952 0.500000
0.121106 0.850078 0.500000
0.242876 0.852204 0.500000
0.365311 0.854330 0.500000
0.488410 0.856456 0.500000
0.612173 0.858582 0.500000
0.736601 0.860708 0.500000
0.861693 0.862834 0.500000
0.987450 0.864960 0.500000
0.000000 0.980104 0.500000
0.122223 0.982230 0.500000
0.245111 0.984356 0.500000
0.368663 0.986482 0.500000
0.492880 0.988608 0.500000
0.617761 0.990734 0.500000
0.743306 0.992860 0.500000
0.869516 0.994986 0.500000
0.996390 0.997112 0.500000
0.000000 0.000000 0.625000
0.124104 0.000000 0.625000
0.247543 0.000000 0.625000
0.370318 0.000000 0.625000
0.492429 0.000000 0.625000
0.613875 0.000000 0.625000
0.734657 0.000000 0.625000
0.854774 0.000000 0.625000
0.974227 0.000000 0.625000
0.000000 0.114238 0.625000
0.122986 0.112112 0.625000
0.245308 0.109986 0.625000
0.366966 0.107860 0.625000
0.487959 0.105734 0.625000
0.608288 0.103608 0.625000
0.727952 0.101482 0.625000
0.846952 0.099356 0.625000
0.965288 0.097230 0.625000
0.000000 0.232086 0.625000
0.121869 0.229960 0.625000
0.243073 0.227834 0.625000
0.363613 0.225708 0.625000
0.483489 0.223582 0.625000
0.602700 0.221456 0.625000
0.721247 0.219330 0.625000
0.839129 0.217204 0.625000
0.956348 0.215078 0.625000
0.000000 0.349934 0.625000
0.120751 0.347808 0.625000
0.240838 0.345682 0.625000
0.360261 0.343556 0.625000
0.479019 0.341430 0.625000
0.597113 0.339304 0.625000
0.714542 0.337178 0.625000
0.831307 0.335052 0.625000
0.952592 0.337074 0.625000
0.000000 0.467782 0.625000
0.119634 0.465656 0.625000
0.238603 0.463530 0.625000
0.356908 0.461404 0.625000
0.475451 0.460722 0.625000
0.595975 0.462848 0.625000
0.717163 0.464974 0.625000
0.839016 0.467100 0.625000
0.961532 0.469226 0.625000
0.000000 0.585630 0.625000
0.118984 0.586496 0.625000
0.238632 0.588622 0.625000
0.358944 0.590748 0.625000
0.479921 0.592874 0.625000
0.601562 0.595000 0.625000
0.723868 0.597126 0.625000
0.846838 0.599252 0.625000
0.970473 0.601378 0.625000
0.000000 0.716522 0.625000
0.120101 0.718648 0.625000
0.240867 0.720774 0.625000
0.362297 0.722900 0.625000
0.484391 0.725026 0.625000
0.607150 0.727152 0.625000
0.730573 0.729278 0.625000
0.854661 0.731404 0.625000
0.979412 0.733530 0.625000
0.000000 0.848674 0.625000
0.121219 0.850800 0.625000
0.243102 0.852926 0.625000
0.365649 0.855052 0.625000
0.488861 0.857178 0.625000
0.612737 0.859304 0.625000
0.737278 0.861430 0.625000
0.862483 0.863556 0.625000
0.988352 0.865682 0.625000
0.000000 0.980826 0.625000
0.122336 0.982952 0.625000
0.245337 0.985078 0.625000
0.369002 0.987204 0.625000
0.493331 0.989330 0.625000
0.618325 0.991456 0.625000
0.743983 0.993582 0.625000
0.870306 0.995708 0.625000
0.997293 0.997834 0.625000
0.000000 0.000000 0.750000
0.123991 0.000000 0.750000
0.247317 0.000000 0.750000
0.369980 0.000000 0.750000
0.491978 0.000000 0.750000
0.613311 0.000000 0.750000
0.733980 0.000000 0.750000
0.853985 0.000000 0.750000
0.973325 0.000000 0.750000
0.000000 0.113516 0.750000
0.122873 0.111390 0.750000
0.245082 0.109264 0.750000
0.366627 0.107138 0.750000
0.487507 0.105012 0.750000
0.607723 0.102886 0.750000
0.727275 0.100760 0.750000
0.846162 0.098634 0.750000
0.964385 0.096508 0.750000
0.000000 0.231364 0.750000
0.121756 0.229238 0.750000
0.242848 0.227112 0.750000
0.363275 0.224986 0.750000
0.483038 0.222860 0.750000
0.602136 0.220734 0.750000
0.720570 0.218608 0.750000
0.838340 0.216482 0.750000
0.955445 0.214356 0.750000
0.000000 0.349212 0.750000
0.120638 0.347086 0.750000
0.240613 0.344960 0.750000
0.359922 0.342834 0.750000
0.478568 0.340708 0.750000
0.596548 0.338582 0.750000
0.713865 0.336456 0.750000
0.831983 0.335670 0.750000
0.953495 0.337796 0.750000
0.000000 0.467060 0.750000
0.119521 0.464934 0.750000
0.238377 0.462808 0.750000
0.356570 0.460682 0.750000
0.475902 0.461444 0.750000
0.596539 0.463570 0.750000
0.717840 0.465696 0.750000
0.839805 0.467822 0.750000
0.962435 0.469948 0.750000
0.000000 0.585092 0.750000
0.119097 0.587218 0.750000
0.238857 0.589344 0.750000
0.359283 0.591470 0.750000
0.480372 0.593596 0.750000
0.602127 0.595722 0.750000
0.724545 0.597848 0.750000
0.847628 0.599974 0.750000
0.971375 0.602100 0.750000
0.000000 0.717244 0.750000
0.120214 0.719370 0.750000
0.241093 0.721496 0.750000
0.362635 0.723622 0.750000
0.484843 0.725748 0.750000
0.607714 0.727874 0.750000
0.731250 0.730000 0.750000
0.855450 0.732126 0.750000
0.980315 0.734252 0.750000
0.000000 0.849396 0.750000
0.121332 0.851522 0.750000
0.243327 0.853648 0.750000
0.365988 0.855774 0.750000
0.489312 0.857900 0.750000
0.613302 0.860026 0.750000
0.737955 0.862152 0.750000
0.863273 0.864278 0.750000
0.989255 0.866404 0.750000
0.000000 0.981548 0.750000
0.122449 0.983674 0.750000
0.245562 0.985800 0.750000
0.369340 0.987926 0.750000
0.493782 0.990052 0.750000
0.618889 0.992178 0.750000
0.744660 0.994304 0.750000
0.871095 0.996430 0.750000
0.998195 0.998556 0.750000
0.000000 0.000000 0.875000
0.123878 0.000000 0.875000
0.247092 0.000000 0.875000
0.369641 0.000000 0.875000
0.491526 0.000000 0.875000
0.612747 0.000000 0.875000
0.733303 0.000000 0.875000
0.853195 0.000000 0.875000
0.972422 0.000000 0.875000
0.000000 0.112794 0.875000
0.122761 0.110668 0.875000
0.244857 0.108542 0.875000
0.366289 0.106416 0.875000
0.487056 0.104290 0.875000
0.607159 0.102164 0.875000
0.726598 0.100038 0.875000
0.845373 0.097912 0.875000
0.963482 0.095786 0.875000
0.000000 0.230642 0.875000
0.121643 0.228516 0.875000
0.242622 0.226390 0.875000
0.362936 0.224264 0.875000
0.482586 0.222138 0.875000
0.601572 0.220012 0.875000
0.719893 0.217886 0.875000
0.837550 0.215760 0.875000
0.954543 0.213634 0.875000
0.000000 0.348490 0.875000
0.120526 0.346364 0.875000
0.240387 0.344238 0.875000
0.359584 0.342112 0.875000
0.478116 0.339986 0.875000
0.595984 0.337860 0.875000
0.713188 0.335734 0.875000
0.832772 0.336392 0.875000
0.954397 0.338518 0.875000
0.000000 0.466338 0.875000
0.119408 0.464212 0.875000
0.238152 0.462086 0.875000
0.356269 0.460040 0.875000
0.476354 0.462166 0.875000
0.597103 0.464292 0.875000
0.718517 0.466418 0.875000
0.840595 0.468544 0.875000
0.963337 0.470670 0.875000
0.000000 0.585814 0.875000
0.119209 0.587940 0.875000
0.239083 0.590066 0.875000
0.359621 0.592192 0.875000
0.480824 0.594318 0.875000
0.602691 0.596444 0.875000
0.725222 0.598570 0.875000
0.848418 0.600696 0.875000
0.972278 0.602822 0.875000
0.000000 0.717966 0.875000
0.120327 0.720092 0.875000
0.241318 0.722218 0.875000
0.362974 0.724344 0.875000
0.485294 0.726470 0.875000
0.608278 0.728596 0.875000
0.731927 0.730722 0.875000
0.856240 0.732848 0.875000
0.981218 0.734974 0.875000
0.000000 0.850118 0.875000
0.121444 0.852244 0.875000
0.243553 0.854370 0.875000
0.366326 0.856496 0.875000
0.489764 0.858622 0.875000
0.613866 0.860748 0.875000
0.738632 0.862874 0.875000
0.864062 0.865000 0.875000
0.990157 0.867126 0.875000
0.000000 0.982270 0.875000
0.122562 0.984396 0.875000
0.245788 0.986522 0.875000
0.369679 0.988648 0.875000
0.494234 0.990774 0.875000
0.619453 0.992900 0.875000
0.745337 0.995026 0.875000
0.871885 0.997152 0.875000
0.999098 0.999278 0.875000
0.000000 0.000000 1.000000
0.123765 0.000000 1.000000
0.246866 0.000000 1.000000
0.369303 0.000000 1.000000
0.491075 0.000000 1.000000
0.612183 0.000000 1.000000
0.732626 0.000000 1.000000
0.852405 0.000000 1.000000
0.971520 0.000000 1.000000
0.000000 0.112072 1.000000
0.122648 0.109946 1.000000
0.244631 0.107820 1.000000
0.365950 0.105694 1.000000
0.486605 0.103568 1.000000
0.606595 0.101442 1.000000
0.725921 0.099316 1.000000
0.844583 0.097190 1.000000
0.962580 0.095064 1.000000
0.000000 0.229920 1.000000
0.121530 0.227794 1.000000
0.242396 0.225668 1.000000
0.362598 0.223542 1.000000
0.482135 0.221416 1.000000
0.601008 0.219290 1.000000
0.719216 0.217164 1.000000
0.836760 0.215038 1.000000
0.953640 0.212912 1.000000
0.000000 0.347768 1.000000
0.120413 0.345642 1.000000
0.240161 0.343516 1.000000
0.359245 0.341390 1.000000
0.477665 0.339264 1.000000
0.595420 0.337138 1.000000
0.712511 0.335012 1.000000
0.833562 0.337114 1.000000
0.955300 0.339240 1.000000
0.000000 0.465616 1.000000
0.119295 0.463490 1.000000
0.237926 0.461364 1.000000
0.356607 0.460762 1.000000
0.476805 0.462888 1.000000
0.597667 0.465014 1.000000
0.719194 0.467140 1.000000
0.841385 0.469266 1.000000
0.964240 0.471392 1.000000
0.000000 0.586536 1.000000
0.119322 0.588662 1.000000
0.239309 0.590788 1.000000
0.359960 0.592914 1.000000
0.481275 0.595040 1.000000
0.603255 0.597166 1.000000
0.725899 0.599292 1.000000
0.849207 0.601418 1.000000
0.973180 0.603544 1.000000
0.000000 0.718688 1.000000
0.120440 0.720814 1.000000
0.241544 0.722940 1.000000
0.363312 0.725066 1.000000
0.485745 0.727192 1.000000
0.608842 0.729318 1.000000
0.732604 0.731444 1.000000
0.857030 0.733570 1.000000
0.982120 0.735696 1.000000
0.000000 0.850840 1.000000
0.121557 0.852966 1.000000
0.243779 0.855092 1.000000
0.366665 0.857218 1.000000
0.490215 0.859344 1.000000
0.614430 0.861470 1.000000
0.739309 0.863596 1.000000
0.864852 0.865722 1.000000
0.991060 0.867848 1.000000
0.000000 0.982992 1.000000
0.122675 0.985118 1.000000
0.246014 0.987244 1.000000
0.370017 0.989370 1.000000
0.494685 0.991496 1.000000
0.620017 0.993622 1.000000
0.746014 0.995748 1.000000
0.872675 0.997874 1.000000
1.000000 1.000000 1.000000
