luts/fuji.cube
# Generated by scripts/recipes/generate_demo_luts.py
# Retouch Engine -- demo LUT (safe to redistribute).
# Referenced by the 'film' preset (alt name). NOT an authoritative Fuji profile.
# Classic Chrome-inspired curves: R highlight crush (-5%), G cool midtones (-0.04), B linear.
# For real Fuji film stock emulation, install commercial LUTs.
TITLE "Demo Fuji Chrome 17x17x17"
LUT_3D_SIZE 17
DOMAIN_MIN 0.0 0.0 0.0
DOMAIN_MAX 1.0 1.0 1.0
0.000000 0.000000 0.000000
0.062417 0.000000 0.000000
0.124668 0.000000 0.000000
0.186753 0.000000 0.000000
0.248671 0.000000 0.000000
0.310424 0.000000 0.000000
0.372010 0.000000 0.000000
0.433431 0.000000 0.000000
0.494685 0.000000 0.000000
0.555773 0.000000 0.000000
0.616695 0.000000 0.000000
0.677451 0.000000 0.000000
0.738041 0.000000 0.000000
0.798465 0.000000 0.000000
0.858723 0.000000 0.000000
0.918814 0.000000 0.000000
0.978740 0.000000 0.000000
0.000000 0.058924 0.000000
0.062138 0.057861 0.000000
0.124109 0.056798 0.000000
0.185914 0.055735 0.000000
0.247554 0.054672 0.000000
0.309027 0.053609 0.000000
0.370334 0.052546 0.000000
0.431475 0.051483 0.000000
0.492450 0.050420 0.000000
0.553259 0.049357 0.000000
0.613902 0.048294 0.000000
0.674378 0.047231 0.000000
0.734689 0.046168 0.000000
0.794833 0.045105 0.000000
0.854812 0.044042 0.000000
0.914624 0.042979 0.000000
0.974270 0.041916 0.000000
0.000000 0.117848 0.000000
0.061858 0.116785 0.000000
0.123550 0.115722 0.000000
0.185076 0.114659 0.000000
0.246436 0.113596 0.000000
0.307630 0.112533 0.000000
0.368658 0.111470 0.000000
0.429519 0.110407 0.000000
0.490215 0.109344 0.000000
0.550744 0.108281 0.000000
0.611108 0.107218 0.000000
0.671305 0.106155 0.000000
0.731336 0.105092 0.000000
0.791201 0.104029 0.000000
0.850900 0.102966 0.000000
0.910433 0.101903 0.000000
0.969800 0.100840 0.000000
0.000000 0.176772 0.000000
0.061579 0.175709 0.000000
0.122992 0.174646 0.000000
0.184238 0.173583 0.000000
0.245319 0.172520 0.000000
0.306233 0.171457 0.000000
0.366982 0.170394 0.000000
0.427564 0.169331 0.000000
0.487980 0.168268 0.000000
0.548230 0.167205 0.000000
0.608314 0.166142 0.000000
0.668232 0.165079 0.000000
0.727984 0.164016 0.000000
0.787569 0.162953 0.000000
0.846989 0.161890 0.000000
0.906243 0.160827 0.000000
0.965330 0.159764 0.000000
0.000000 0.235696 0.000000
0.061299 0.234633 0.000000
0.122433 0.233570 0.000000
0.183400 0.232507 0.000000
0.244201 0.231444 0.000000
0.304836 0.230381 0.000000
0.365305 0.229318 0.000000
0.425608 0.228255 0.000000
0.485745 0.227192 0.000000
0.545716 0.226129 0.000000
0.605520 0.225066 0.000000
0.665159 0.224003 0.000000
0.724631 0.222940 0.000000
0.783938 0.221877 0.000000
0.843078 0.220814 0.000000
0.902052 0.219751 0.000000
0.960860 0.218688 0.000000
0.000000 0.294620 0.000000
0.061020 0.293557 0.000000
0.121874 0.292494 0.000000
0.182562 0.291431 0.000000
0.243084 0.290368 0.000000
0.303439 0.289305 0.000000
0.363629 0.288242 0.000000
0.423653 0.287179 0.000000
0.483510 0.286116 0.000000
0.543201 0.285053 0.000000
0.602727 0.283990 0.000000
0.662086 0.282927 0.000000
0.721279 0.281864 0.000000
0.780306 0.280801 0.000000
0.839167 0.279738 0.000000
0.897861 0.278675 0.000000
0.956390 0.277612 0.000000
0.000000 0.353544 0.000000
0.060741 0.352481 0.000000
0.121315 0.351418 0.000000
0.181724 0.350355 0.000000
0.241966 0.349292 0.000000
0.302043 0.348229 0.000000
0.361953 0.347166 0.000000
0.421697 0.346103 0.000000
0.481275 0.345040 0.000000
0.540687 0.343977 0.000000
0.599933 0.342914 0.000000
0.659013 0.341851 0.000000
0.717926 0.340788 0.000000
0.776674 0.339725 0.000000
0.835255 0.338662 0.000000
0.893671 0.337599 0.000000
0.951920 0.336536 0.000000
0.000000 0.412468 0.000000
0.060461 0.411405 0.000000
0.120757 0.410342 0.000000
0.180886 0.409279 0.000000
0.240849 0.408216 0.000000
0.300646 0.407153 0.000000
0.360277 0.406090 0.000000
0.419741 0.405027 0.000000
0.479040 0.403964 0.000000
0.538173 0.402901 0.000000
0.597139 0.401838 0.000000
0.655939 0.400775 0.000000
0.714574 0.399712 0.000000
0.773042 0.398649 0.000000
0.831344 0.397586 0.000000
0.891770 0.398477 0.000000
0.952550 0.399540 0.000000
0.000000 0.471392 0.000000
0.060182 0.470329 0.000000
0.120198 0.469266 0.000000
0.180048 0.468203 0.000000
0.239731 0.467140 0.000000
0.299249 0.466077 0.000000
0.358600 0.465014 0.000000
0.417786 0.463951 0.000000
0.476805 0.462888 0.000000
0.535658 0.461825 0.000000
0.594345 0.460762 0.000000
0.653384 0.460301 0.000000
0.713779 0.461364 0.000000
0.774340 0.462427 0.000000
0.835067 0.463490 0.000000
0.895961 0.464553 0.000000
0.957020 0.465616 0.000000
0.000000 0.530316 0.000000
0.059903 0.529253 0.000000
0.119639 0.528190 0.000000
0.179209 0.527127 0.000000
0.238614 0.526064 0.000000
0.297852 0.525001 0.000000
0.356924 0.523938 0.000000
0.415830 0.522875 0.000000
0.475430 0.523188 0.000000
0.535606 0.524251 0.000000
0.595948 0.525314 0.000000
0.656457 0.526377 0.000000
0.717131 0.527440 0.000000
0.777972 0.528503 0.000000
0.838978 0.529566 0.000000
0.900151 0.530629 0.000000
0.961490 0.531692 0.000000
0.000000 0.589240 0.000000
0.059623 0.588177 0.000000
0.119080 0.587114 0.000000
0.178371 0.586051 0.000000
0.237504 0.585012 0.000000
0.297295 0.586075 0.000000
0.357252 0.587138 0.000000
0.417376 0.588201 0.000000
0.477665 0.589264 0.000000
0.538121 0.590327 0.000000
0.598742 0.591390 0.000000
0.659530 0.592453 0.000000
0.720484 0.593516 0.000000
0.781604 0.594579 0.000000
0.842890 0.595642 0.000000
0.904342 0.596705 0.000000
0.965960 0.597768 0.000000
0.000000 0.648164 0.000000
0.059406 0.647899 0.000000
0.118978 0.648962 0.000000
0.178717 0.650025 0.000000
0.238621 0.651088 0.000000
0.298692 0.652151 0.000000
0.358928 0.653214 0.000000
0.419331 0.654277 0.000000
0.479900 0.655340 0.000000
0.540635 0.656403 0.000000
0.601536 0.657466 0.000000
0.662603 0.658529 0.000000
0.723836 0.659592 0.000000
0.785236 0.660655 0.000000
0.846801 0.661718 0.000000
0.908532 0.662781 0.000000
0.970430 0.663844 0.000000
0.000000 0.712912 0.000000
0.059686 0.713975 0.000000
0.119537 0.715038 0.000000
0.179555 0.716101 0.000000
0.239739 0.717164 0.000000
0.300089 0.718227 0.000000
0.360605 0.719290 0.000000
0.421287 0.720353 0.000000
0.482135 0.721416 0.000000
0.543149 0.722479 0.000000
0.604330 0.723542 0.000000
0.665676 0.724605 0.000000
0.727189 0.725668 0.000000
0.788867 0.726731 0.000000
0.850712 0.727794 0.000000
0.912723 0.728857 0.000000
0.974900 0.729920 0.000000
0.000000 0.778988 0.000000
0.059965 0.780051 0.000000
0.120096 0.781114 0.000000
0.180393 0.782177 0.000000
0.240856 0.783240 0.000000
0.301486 0.784303 0.000000
0.362281 0.785366 0.000000
0.423242 0.786429 0.000000
0.484370 0.787492 0.000000
0.545664 0.788555 0.000000
0.607123 0.789618 0.000000
0.668749 0.790681 0.000000
0.730541 0.791744 0.000000
0.792499 0.792807 0.000000
0.854623 0.793870 0.000000
0.916914 0.794933 0.000000
0.979370 0.795996 0.000000
0.000000 0.845064 0.000000
0.060244 0.846127 0.000000
0.120655 0.847190 0.000000
0.181231 0.848253 0.000000
0.241974 0.849316 0.000000
0.302882 0.850379 0.000000
0.363957 0.851442 0.000000
0.425198 0.852505 0.000000
0.486605 0.853568 0.000000
0.548178 0.854631 0.000000
0.609917 0.855694 0.000000
0.671822 0.856757 0.000000
0.733894 0.857820 0.000000
0.796131 0.858883 0.000000
0.858535 0.859946 0.000000
0.921104 0.861009 0.000000
0.983840 0.862072 0.000000
0.000000 0.911140 0.000000
0.060524 0.912203 0.000000
0.121213 0.913266 0.000000
0.182069 0.914329 0.000000
0.243091 0.915392 0.000000
0.304279 0.916455 0.000000
0.365633 0.917518 0.000000
0.427154 0.918581 0.000000
0.488840 0.919644 0.000000
0.550692 0.920707 0.000000
0.612711 0.921770 0.000000
0.674896 0.922833 0.000000
0.737246 0.923896 0.000000
0.799763 0.924959 0.000000
0.862446 0.926022 0.000000
0.925295 0.927085 0.000000
0.988310 0.928148 0.000000
0.000000 0.977216 0.000000
0.060803 0.978279 0.000000
0.121772 0.979342 0.000000
0.182907 0.980405 0.000000
0.244209 0.981468 0.000000
0.305676 0.982531 0.000000
0.367310 0.983594 0.000000
0.429109 0.984657 0.000000
0.491075 0.985720 0.000000
0.553207 0.986783 0.000000
0.615505 0.987846 0.000000
0.677969 0.988909 0.000000
0.740599 0.989972 0.000000
0.803395 0.991035 0.000000
0.866357 0.992098 0.000000
0.929486 0.993161 0.000000
0.992780 0.994224 0.000000
0.000000 0.000000 0.062500
0.062389 0.000000 0.062500
0.124611 0.000000 0.062500
0.186668 0.000000 0.062500
0.248558 0.000000 0.062500
0.310283 0.000000 0.062500
0.371841 0.000000 0.062500
0.433233 0.000000 0.062500
0.494459 0.000000 0.062500
0.555519 0.000000 0.062500
0.616413 0.000000 0.062500
0.677141 0.000000 0.062500
0.737703 0.000000 0.062500
0.798098 0.000000 0.062500
0.858328 0.000000 0.062500
0.918391 0.000000 0.062500
0.978289 0.000000 0.062500
0.000000 0.058563 0.062500
0.062109 0.057500 0.062500
0.124053 0.056437 0.062500
0.185830 0.055374 0.062500
0.247441 0.054311 0.062500
0.308886 0.053248 0.062500
0.370165 0.052185 0.062500
0.431278 0.051122 0.062500
0.492224 0.050059 0.062500
0.553005 0.048996 0.062500
0.613620 0.047933 0.062500
0.674068 0.046870 0.062500
0.734350 0.045807 0.062500
0.794467 0.044744 0.062500
0.854417 0.043681 0.062500
0.914201 0.042618 0.062500
0.973819 0.041555 0.062500
0.000000 0.117487 0.062500
0.061830 0.116424 0.062500
0.123494 0.115361 0.062500
0.184992 0.114298 0.062500
0.246323 0.113235 0.062500
0.307489 0.112172 0.062500
0.368489 0.111109 0.062500
0.429322 0.110046 0.062500
0.489989 0.108983 0.062500
0.550491 0.107920 0.062500
0.610826 0.106857 0.062500
0.670995 0.105794 0.062500
0.730998 0.104731 0.062500
0.790835 0.103668 0.062500
0.850505 0.102605 0.062500
0.910010 0.101542 0.062500
0.969349 0.100479 0.062500
0.000000 0.176411 0.062500
0.061551 0.175348 0.062500
0.122935 0.174285 0.062500
0.184154 0.173222 0.062500
0.245206 0.172159 0.062500
0.306092 0.171096 0.062500
0.366812 0.170033 0.062500
0.427366 0.168970 0.062500
0.487754 0.167907 0.062500
0.547976 0.166844 0.062500
0.608032 0.165781 0.062500
0.667922 0.164718 0.062500
0.727645 0.163655 0.062500
0.787203 0.162592 0.062500
0.846594 0.161529 0.062500
0.905820 0.160466 0.062500
0.964879 0.159403 0.062500
0.000000 0.235335 0.062500
0.061271 0.234272 0.062500
0.122376 0.233209 0.062500
0.183315 0.232146 0.062500
0.244088 0.231083 0.062500
0.304695 0.230020 0.062500
0.365136 0.228957 0.062500
0.425411 0.227894 0.062500
0.485519 0.226831 0.062500
0.545462 0.225768 0.062500
0.605238 0.224705 0.062500
0.664849 0.223642 0.062500
0.724293 0.222579 0.062500
0.783571 0.221516 0.062500
0.842683 0.220453 0.062500
0.901629 0.219390 0.062500
0.960409 0.218327 0.062500
0.000000 0.294259 0.062500
0.060992 0.293196 0.062500
0.121818 0.292133 0.062500
0.182477 0.291070 0.062500
0.242971 0.290007 0.062500
0.303298 0.288944 0.062500
0.363460 0.287881 0.062500
0.423455 0.286818 0.062500
0.483284 0.285755 0.062500
0.542948 0.284692 0.062500
0.602445 0.283629 0.062500
0.661775 0.282566 0.062500
0.720940 0.281503 0.062500
0.779939 0.280440 0.062500
0.838772 0.279377 0.062500
0.897438 0.278314 0.062500
0.955939 0.277251 0.062500
0.000000 0.353183 0.062500
0.060713 0.352120 0.062500
0.121259 0.351057 0.062500
0.181639 0.349994 0.062500
0.241853 0.348931 0.062500
0.301902 0.347868 0.062500
0.361784 0.346805 0.062500
0.421500 0.345742 0.062500
0.481049 0.344679 0.062500
0.540433 0.343616 0.062500
0.599651 0.342553 0.062500
0.658702 0.341490 0.062500
0.717588 0.340427 0.062500
0.776307 0.339364 0.062500
0.834860 0.338301 0.062500
0.893248 0.337238 0.062500
0.951469 0.336175 0.062500
0.000000 0.412107 0.062500
0.060433 0.411044 0.062500
0.120700 0.409981 0.062500
0.180801 0.408918 0.062500
0.240736 0.407855 0.062500
0.300505 0.406792 0.062500
0.360107 0.405729 0.062500
0.419544 0.404666 0.062500
0.478814 0.403603 0.062500
0.537919 0.402540 0.062500
0.596857 0.401477 0.062500
0.655629 0.400414 0.062500
0.714235 0.399351 0.062500
0.772675 0.398288 0.062500
0.831551 0.397775 0.062500
0.892193 0.398838 0.062500
0.953001 0.399901 0.062500
0.000000 0.471031 0.062500
0.060154 0.469968 0.062500
0.120141 0.468905 0.062500
0.179963 0.467842 0.062500
0.239618 0.466779 0.062500
0.299108 0.465716 0.062500
0.358431 0.464653 0.062500
0.417588 0.463590 0.062500
0.476579 0.462527 0.062500
0.535404 0.461464 0.062500
0.594063 0.460401 0.062500
0.653694 0.460662 0.062500
0.714117 0.461725 0.062500
0.774707 0.462788 0.062500
0.835462 0.463851 0.062500
0.896384 0.464914 0.062500
0.957471 0.465977 0.062500
0.000000 0.529955 0.062500
0.059874 0.528892 0.062500
0.119583 0.527829 0.062500
0.179125 0.526766 0.062500
0.238501 0.525703 0.062500
0.297711 0.524640 0.062500
0.356755 0.523577 0.062500
0.415633 0.522514 0.062500
0.475656 0.523549 0.062500
0.535860 0.524612 0.062500
0.596231 0.525675 0.062500
0.656767 0.526738 0.062500
0.717470 0.527801 0.062500
0.778338 0.528864 0.062500
0.839373 0.529927 0.062500
0.900574 0.530990 0.062500
0.961941 0.532053 0.062500
0.000000 0.588879 0.062500
0.059595 0.587816 0.062500
0.119024 0.586753 0.062500
0.178287 0.585690 0.062500
0.237617 0.585373 0.062500
0.297436 0.586436 0.062500
0.357421 0.587499 0.062500
0.417573 0.588562 0.062500
0.477891 0.589625 0.062500
0.538374 0.590688 0.062500
0.599024 0.591751 0.062500
0.659840 0.592814 0.062500
0.720822 0.593877 0.062500
0.781970 0.594940 0.062500
0.843285 0.596003 0.062500
0.904765 0.597066 0.062500
0.966411 0.598129 0.062500
0.000000 0.647803 0.062500
0.059434 0.648260 0.062500
0.119035 0.649323 0.062500
0.178801 0.650386 0.062500
0.238734 0.651449 0.062500
0.298833 0.652512 0.062500
0.359098 0.653575 0.062500
0.419529 0.654638 0.062500
0.480126 0.655701 0.062500
0.540889 0.656764 0.062500
0.601818 0.657827 0.062500
0.662913 0.658890 0.062500
0.724175 0.659953 0.062500
0.785602 0.661016 0.062500
0.847196 0.662079 0.062500
0.908955 0.663142 0.062500
0.970881 0.664205 0.062500
0.000000 0.713273 0.062500
0.059714 0.714336 0.062500
0.119594 0.715399 0.062500
0.179640 0.716462 0.062500
0.239852 0.717525 0.062500
0.300230 0.718588 0.062500
0.360774 0.719651 0.062500
0.421484 0.720714 0.062500
0.482361 0.721777 0.062500
0.543403 0.722840 0.062500
0.604612 0.723903 0.062500
0.665986 0.724966 0.062500
0.727527 0.726029 0.062500
0.789234 0.727092 0.062500
0.851107 0.728155 0.062500
0.913146 0.729218 0.062500
0.975351 0.730281 0.062500
0.000000 0.779349 0.062500
0.059993 0.780412 0.062500
0.120152 0.781475 0.062500
0.180478 0.782538 0.062500
0.240969 0.783601 0.062500
0.301627 0.784664 0.062500
0.362450 0.785727 0.062500
0.423440 0.786790 0.062500
0.484596 0.787853 0.062500
0.545918 0.788916 0.062500
0.607405 0.789979 0.062500
0.669060 0.791042 0.062500
0.730880 0.792105 0.062500
0.792866 0.793168 0.062500
0.855018 0.794231 0.062500
0.917337 0.795294 0.062500
0.979821 0.796357 0.062500
0.000000 0.845425 0.062500
0.060272 0.846488 0.062500
0.120711 0.847551 0.062500
0.181316 0.848614 0.062500
0.242087 0.849677 0.062500
0.303023 0.850740 0.062500
0.364126 0.851803 0.062500
0.425395 0.852866 0.062500
0.486831 0.853929 0.062500
0.548432 0.854992 0.062500
0.610199 0.856055 0.062500
0.672133 0.857118 0.062500
0.734232 0.858181 0.062500
0.796498 0.859244 0.062500
0.858930 0.860307 0.062500
0.921527 0.861370 0.062500
0.984291 0.862433 0.062500
0.000000 0.911501 0.062500
0.060552 0.912564 0.062500
0.121270 0.913627 0.062500
0.182154 0.914690 0.062500
0.243204 0.915753 0.062500
0.304420 0.916816 0.062500
0.365803 0.917879 0.062500
0.427351 0.918942 0.062500
0.489066 0.920005 0.062500
0.550946 0.921068 0.062500
0.612993 0.922131 0.062500
0.675206 0.923194 0.062500
0.737585 0.924257 0.062500
0.800130 0.925320 0.062500
0.862841 0.926383 0.062500
0.925718 0.927446 0.062500
0.988761 0.928509 0.062500
0.000000 0.977577 0.062500
0.060831 0.978640 0.062500
0.121829 0.979703 0.062500
0.182992 0.980766 0.062500
0.244322 0.981829 0.062500
0.305817 0.982892 0.062500
0.367479 0.983955 0.062500
0.429307 0.985018 0.062500
0.491301 0.986081 0.062500
0.553461 0.987144 0.062500
0.615787 0.988207 0.062500
0.678279 0.989270 0.062500
0.740937 0.990333 0.062500
0.803762 0.991396 0.062500
0.866752 0.992459 0.062500
0.929909 0.993522 0.062500
0.993231 0.994585 0.062500
0.000000 0.000000 0.125000
0.062361 0.000000 0.125000
0.124555 0.000000 0.125000
0.186583 0.000000 0.125000
0.248446 0.000000 0.125000
0.310142 0.000000 0.125000
0.371672 0.000000 0.125000
0.433036 0.000000 0.125000
0.494234 0.000000 0.125000
0.555266 0.000000 0.125000
0.616131 0.000000 0.125000
0.676831 0.000000 0.125000
0.737364 0.000000 0.125000
0.797732 0.000000 0.125000
0.857933 0.000000 0.125000
0.917968 0.000000 0.125000
0.977838 0.000000 0.125000
0.000000 0.058202 0.125000
0.062081 0.057139 0.125000
0.123996 0.056076 0.125000
0.185745 0.055013 0.125000
0.247328 0.053950 0.125000
0.308745 0.052887 0.125000
0.369996 0.051824 0.125000
0.431080 0.050761 0.125000
0.491999 0.049698 0.125000
0.552751 0.048635 0.125000
0.613338 0.047572 0.125000
0.673758 0.046509 0.125000
0.734012 0.045446 0.125000
0.794100 0.044383 0.125000
0.854022 0.043320 0.125000
0.913778 0.042257 0.125000
0.973368 0.041194 0.125000
0.000000 0.117126 0.125000
0.061802 0.116063 0.125000
0.123438 0.115000 0.125000
0.184907 0.113937 0.125000
0.246211 0.112874 0.125000
0.307348 0.111811 0.125000
0.368319 0.110748 0.125000
0.429125 0.109685 0.125000
0.489764 0.108622 0.125000
0.550237 0.107559 0.125000
0.610544 0.106496 0.125000
0.670685 0.105433 0.125000
0.730659 0.104370 0.125000
0.790468 0.103307 0.125000
0.850111 0.102244 0.125000
0.909587 0.101181 0.125000
0.968898 0.100118 0.125000
0.000000 0.176050 0.125000
0.061522 0.174987 0.125000
0.122879 0.173924 0.125000
0.184069 0.172861 0.125000
0.245093 0.171798 0.125000
0.305951 0.170735 0.125000
0.366643 0.169672 0.125000
0.427169 0.168609 0.125000
0.487529 0.167546 0.125000
0.547722 0.166483 0.125000
0.607750 0.165420 0.125000
0.667611 0.164357 0.125000
0.727307 0.163294 0.125000
0.786836 0.162231 0.125000
0.846199 0.161168 0.125000
0.905396 0.160105 0.125000
0.964427 0.159042 0.125000
0.000000 0.234974 0.125000
0.061243 0.233911 0.125000
0.122320 0.232848 0.125000
0.183231 0.231785 0.125000
0.243976 0.230722 0.125000
0.304554 0.229659 0.125000
0.364967 0.228596 0.125000
0.425213 0.227533 0.125000
0.485294 0.226470 0.125000
0.545208 0.225407 0.125000
0.604956 0.224344 0.125000
0.664538 0.223281 0.125000
0.723954 0.222218 0.125000
0.783204 0.221155 0.125000
0.842288 0.220092 0.125000
0.901206 0.219029 0.125000
0.959957 0.217966 0.125000
0.000000 0.293898 0.125000
0.060964 0.292835 0.125000
0.121761 0.291772 0.125000
0.182393 0.290709 0.125000
0.242858 0.289646 0.125000
0.303157 0.288583 0.125000
0.363291 0.287520 0.125000
0.423258 0.286457 0.125000
0.483059 0.285394 0.125000
0.542694 0.284331 0.125000
0.602163 0.283268 0.125000
0.661465 0.282205 0.125000
0.720602 0.281142 0.125000
0.779572 0.280079 0.125000
0.838377 0.279016 0.125000
0.897015 0.277953 0.125000
0.955487 0.276890 0.125000
0.000000 0.352822 0.125000
0.060684 0.351759 0.125000
0.121202 0.350696 0.125000
0.181555 0.349633 0.125000
0.241741 0.348570 0.125000
0.301761 0.347507 0.125000
0.361614 0.346444 0.125000
0.421302 0.345381 0.125000
0.480824 0.344318 0.125000
0.540179 0.343255 0.125000
0.599369 0.342192 0.125000
0.658392 0.341129 0.125000
0.717249 0.340066 0.125000
0.775941 0.339003 0.125000
0.834466 0.337940 0.125000
0.892825 0.336877 0.125000
0.951017 0.335814 0.125000
0.000000 0.411746 0.125000
0.060405 0.410683 0.125000
0.120644 0.409620 0.125000
0.180716 0.408557 0.125000
0.240623 0.407494 0.125000
0.300364 0.406431 0.125000
0.359938 0.405368 0.125000
0.419346 0.404305 0.125000
0.478589 0.403242 0.125000
0.537665 0.402179 0.125000
0.596575 0.401116 0.125000
0.655319 0.400053 0.125000
0.713897 0.398990 0.125000
0.772309 0.397927 0.125000
0.831946 0.398136 0.125000
0.892616 0.399199 0.125000
0.953452 0.400262 0.125000
0.000000 0.470670 0.125000
0.060126 0.469607 0.125000
0.120085 0.468544 0.125000
0.179878 0.467481 0.125000
0.239506 0.466418 0.125000
0.298967 0.465355 0.125000
0.358262 0.464292 0.125000
0.417391 0.463229 0.125000
0.476354 0.462166 0.125000
0.535151 0.461103 0.125000
0.593781 0.460040 0.125000
0.654004 0.461023 0.125000
0.714456 0.462086 0.125000
0.775073 0.463149 0.125000
0.835857 0.464212 0.125000
0.896807 0.465275 0.125000
0.957923 0.466338 0.125000
0.000000 0.529594 0.125000
0.059846 0.528531 0.125000
0.119526 0.527468 0.125000
0.179040 0.526405 0.125000
0.238388 0.525342 0.125000
0.297570 0.524279 0.125000
0.356586 0.523216 0.125000
0.415815 0.522847 0.125000
0.475881 0.523910 0.125000
0.536114 0.524973 0.125000
0.596512 0.526036 0.125000
0.657077 0.527099 0.125000
0.717808 0.528162 0.125000
0.778705 0.529225 0.125000
0.839768 0.530288 0.125000
0.900997 0.531351 0.125000
0.962393 0.532414 0.125000
0.000000 0.588518 0.125000
0.059567 0.587455 0.125000
0.118968 0.586392 0.125000
0.178202 0.585329 0.125000
0.237729 0.585734 0.125000
0.297577 0.586797 0.125000
0.357591 0.587860 0.125000
0.417770 0.588923 0.125000
0.478116 0.589986 0.125000
0.538628 0.591049 0.125000
0.599306 0.592112 0.125000
0.660150 0.593175 0.125000
0.721161 0.594238 0.125000
0.782337 0.595301 0.125000
0.843679 0.596364 0.125000
0.905188 0.597427 0.125000
0.966862 0.598490 0.125000
0.000000 0.647558 0.125000
0.059463 0.648621 0.125000
0.119091 0.649684 0.125000
0.178886 0.650747 0.125000
0.238847 0.651810 0.125000
0.298974 0.652873 0.125000
0.359267 0.653936 0.125000
0.419726 0.654999 0.125000
0.480351 0.656062 0.125000
0.541143 0.657125 0.125000
0.602100 0.658188 0.125000
0.663224 0.659251 0.125000
0.724513 0.660314 0.125000
0.785969 0.661377 0.125000
0.847591 0.662440 0.125000
0.909378 0.663503 0.125000
0.971332 0.664566 0.125000
0.000000 0.713634 0.125000
0.059742 0.714697 0.125000
0.119650 0.715760 0.125000
0.179724 0.716823 0.125000
0.239964 0.717886 0.125000
0.300371 0.718949 0.125000
0.360943 0.720012 0.125000
0.421682 0.721075 0.125000
0.482586 0.722138 0.125000
0.543657 0.723201 0.125000
0.604894 0.724264 0.125000
0.666297 0.725327 0.125000
0.727866 0.726390 0.125000
0.789601 0.727453 0.125000
0.851502 0.728516 0.125000
0.913569 0.729579 0.125000
0.975802 0.730642 0.125000
0.000000 0.779710 0.125000
0.060021 0.780773 0.125000
0.120209 0.781836 0.125000
0.180562 0.782899 0.125000
0.241082 0.783962 0.125000
0.301768 0.785025 0.125000
0.362619 0.786088 0.125000
0.423637 0.787151 0.125000
0.484821 0.788214 0.125000
0.546171 0.789277 0.125000
0.607687 0.790340 0.125000
0.669370 0.791403 0.125000
0.731218 0.792466 0.125000
0.793233 0.793529 0.125000
0.855413 0.794592 0.125000
0.917760 0.795655 0.125000
0.980272 0.796718 0.125000
0.000000 0.845786 0.125000
0.060301 0.846849 0.125000
0.120767 0.847912 0.125000
0.181400 0.848975 0.125000
0.242199 0.850038 0.125000
0.303164 0.851101 0.125000
0.364296 0.852164 0.125000
0.425593 0.853227 0.125000
0.487056 0.854290 0.125000
0.548686 0.855353 0.125000
0.610481 0.856416 0.125000
0.672443 0.857479 0.125000
0.734571 0.858542 0.125000
0.796864 0.859605 0.125000
0.859324 0.860668 0.125000
0.921950 0.861731 0.125000
0.984743 0.862794 0.125000
0.000000 0.911862 0.125000
0.060580 0.912925 0.125000
0.121326 0.913988 0.125000
0.182239 0.915051 0.125000
0.243317 0.916114 0.125000
0.304561 0.917177 0.125000
0.365972 0.918240 0.125000
0.427548 0.919303 0.125000
0.489291 0.920366 0.125000
0.551200 0.921429 0.125000
0.613275 0.922492 0.125000
0.675516 0.923555 0.125000
0.737923 0.924618 0.125000
0.800496 0.925681 0.125000
0.863236 0.926744 0.125000
0.926141 0.927807 0.125000
0.989213 0.928870 0.125000
0.000000 0.977938 0.125000
0.060859 0.979001 0.125000
0.121885 0.980064 0.125000
0.183077 0.981127 0.125000
0.244434 0.982190 0.125000
0.305958 0.983253 0.125000
0.367648 0.984316 0.125000
0.429504 0.985379 0.125000
0.491526 0.986442 0.125000
0.553714 0.987505 0.125000
0.616069 0.988568 0.125000
0.678589 0.989631 0.125000
0.741276 0.990694 0.125000
0.804128 0.991757 0.125000
0.867147 0.992820 0.125000
0.930332 0.993883 0.125000
0.993683 0.994946 0.125000
0.000000 0.000000 0.187500
0.062332 0.000000 0.187500
0.124499 0.000000 0.187500
0.186499 0.000000 0.187500
0.248333 0.000000 0.187500
