luts/fuji.cube
# Generated by scripts/recipes/generate_demo_luts.py
# Retouch Engine -- demo LUT (safe to redistribute).
# Referenced by the 'film' preset (alt name). NOT an authoritative Fuji profile.
# Classic Chrome-inspired curves: R highlight crush (-5%), G cool midtones (-0.04), B linear.
# For real Fuji film stock emulation, install commercial LUTs.
TITLE "Demo Fuji Chrome 17x17x17"
LUT_3D_SIZE 5
DOMAIN_MIN 0.0 0.0 0.0
DOMAIN_MAX 1.0 1.0 1.0
0.000000 0.000000 0.000000
0.248671 0.000000 0.000000
0.494685 0.000000 0.000000
0.738041 0.000000 0.000000
0.978740 0.000000 0.000000
0.000000 0.235696 0.000000
0.244201 0.231444 0.000000
0.485745 0.227192 0.000000
0.724631 0.222940 0.000000
0.960860 0.218688 0.000000
0.000000 0.471392 0.000000
0.239731 0.467140 0.000000
0.476805 0.462888 0.000000
0.713779 0.461364 0.000000
0.957020 0.465616 0.000000
0.000000 0.712912 0.000000
0.239739 0.717164 0.000000
0.482135 0.721416 0.000000
0.727189 0.725668 0.000000
0.974900 0.729920 0.000000
0.000000 0.977216 0.000000
0.244209 0.981468 0.000000
0.491075 0.985720 0.000000
0.740599 0.989972 0.000000
0.992780 0.994224 0.000000
0.000000 0.000000 0.250000
0.248220 0.000000 0.250000
0.493782 0.000000 0.250000
0.736687 0.000000 0.250000
0.976935 0.000000 0.250000
0.000000 0.234252 0.250000
0.243750 0.230000 0.250000
0.484843 0.225748 0.250000
0.723278 0.221496 0.250000
0.959055 0.217244 0.250000
0.000000 0.469948 0.250000
0.239280 0.465696 0.250000
0.475902 0.461444 0.250000
0.715132 0.462808 0.250000
0.958825 0.467060 0.250000
0.000000 0.714356 0.250000
0.240190 0.718608 0.250000
0.483038 0.722860 0.250000
0.728543 0.727112 0.250000
0.976705 0.731364 0.250000
0.000000 0.978660 0.250000
0.244660 0.982912 0.250000
0.491978 0.987164 0.250000
0.741952 0.991416 0.250000
0.994585 0.995668 0.250000
0.000000 0.000000 0.500000
0.247769 0.000000 0.500000
0.492880 0.000000 0.500000
0.735334 0.000000 0.500000
0.975130 0.000000 0.500000
0.000000 0.232808 0.500000
0.243299 0.228556 0.500000
0.483940 0.224304 0.500000
0.721924 0.220052 0.500000
0.957250 0.215800 0.500000
0.000000 0.468504 0.500000
0.238829 0.464252 0.500000
0.475000 0.460000 0.500000
0.716486 0.464252 0.500000
0.960630 0.468504 0.500000
0.000000 0.715800 0.500000
0.240641 0.720052 0.500000
0.483940 0.724304 0.500000
0.729896 0.728556 0.500000
0.978510 0.732808 0.500000
0.000000 0.980104 0.500000
0.245111 0.984356 0.500000
0.492880 0.988608 0.500000
0.743306 0.992860 0.500000
0.996390 0.997112 0.500000
0.000000 0.000000 0.750000
0.247317 0.000000 0.750000
0.491978 0.000000 0.750000
0.733980 0.000000 0.750000
0.973325 0.000000 0.750000
0.000000 0.231364 0.750000
0.242848 0.227112 0.750000
0.483038 0.222860 0.750000
0.720570 0.218608 0.750000
0.955445 0.214356 0.750000
0.000000 0.467060 0.750000
0.238377 0.462808 0.750000
0.475902 0.461444 0.750000
0.717840 0.465696 0.750000
0.962435 0.469948 0.750000
0.000000 0.717244 0.750000
0.241093 0.721496 0.750000
0.484843 0.725748 0.750000
0.731250 0.730000 0.750000
0.980315 0.734252 0.750000
0.000000 0.981548 0.750000
0.245562 0.985800 0.750000
0.493782 0.990052 0.750000
0.744660 0.994304 0.750000
0.998195 0.998556 0.750000
0.000000 0.000000 1.000000
0.246866 0.000000 1.000000
0.491075 0.000000 1.000000
0.732626 0.000000 1.000000
0.971520 0.000000 1.000000
0.000000 0.229920 1.000000
0.242396 0.225668 1.000000
0.482135 0.221416 1.000000
0.719216 0.217164 1.000000
0.953640 0.212912 1.000000
0.000000 0.465616 1.000000
0.237926 0.461364 1.000000
0.476805 0.462888 1.000000
0.719194 0.467140 1.000000
0.964240 0.471392 1.000000
0.000000 0.718688 1.000000
0.241544 0.722940 1.000000
0.485745 0.727192 1.000000
0.732604 0.731444 1.000000
0.982120 0.735696 1.000000
0.000000 0.982992 1.000000
0.246014 0.987244 1.000000
0.494685 0.991496 1.000000
0.746014 0.995748 1.000000
1.000000 1.000000 1.000000
