luts/kodak.cube
# Generated by scripts/recipes/generate_demo_luts.py
# Retouch Engine -- demo LUT (safe to redistribute).
# Referenced by the 'film' preset. NOT an authoritative Kodak profile.
# Per-channel curves: R S-curve (+12%), G midtone lift (+0.05), B shadow crush (+0.05).
# For real Kodak/Fuji film stock emulation, install commercial LUTs.
TITLE "Demo Kodak Warm 17x17x17"
LUT_3D_SIZE 17
DOMAIN_MIN 0.0 0.0 0.0
DOMAIN_MAX 1.0 1.0 1.0
0.000000 0.000000 0.000000
0.010000 0.000000 0.000000
0.080000 0.000000 0.000000
0.150000 0.000000 0.000000
0.220000 0.000000 0.000000
0.290000 0.000000 0.000000
0.360000 0.000000 0.000000
0.430000 0.000000 0.000000
0.500000 0.000000 0.000000
0.570000 0.000000 0.000000
0.640000 0.000000 0.000000
0.710000 0.000000 0.000000
0.780000 0.000000 0.000000
0.850000 0.000000 0.000000
0.920000 0.000000 0.000000
0.990000 0.000000 0.000000
1.000000 0.000000 0.000000
0.000000 0.074219 0.000000
0.010000 0.074219 0.000000
0.080000 0.074219 0.000000
0.150000 0.074219 0.000000
0.220000 0.074219 0.000000
0.290000 0.074219 0.000000
0.360000 0.074219 0.000000
0.430000 0.074219 0.000000
0.500000 0.074219 0.000000
0.570000 0.074219 0.000000
0.640000 0.074219 0.000000
0.710000 0.074219 0.000000
0.780000 0.074219 0.000000
0.850000 0.074219 0.000000
0.920000 0.074219 0.000000
0.990000 0.074219 0.000000
1.000000 0.074219 0.000000
0.000000 0.146875 0.000000
0.010000 0.146875 0.000000
0.080000 0.146875 0.000000
0.150000 0.146875 0.000000
0.220000 0.146875 0.000000
0.290000 0.146875 0.000000
0.360000 0.146875 0.000000
0.430000 0.146875 0.000000
0.500000 0.146875 0.000000
0.570000 0.146875 0.000000
0.640000 0.146875 0.000000
0.710000 0.146875 0.000000
0.780000 0.146875 0.000000
0.850000 0.146875 0.000000
0.920000 0.146875 0.000000
0.990000 0.146875 0.000000
1.000000 0.146875 0.000000
0.000000 0.217969 0.000000
0.010000 0.217969 0.000000
0.080000 0.217969 0.000000
0.150000 0.217969 0.000000
0.220000 0.217969 0.000000
0.290000 0.217969 0.000000
0.360000 0.217969 0.000000
0.430000 0.217969 0.000000
0.500000 0.217969 0.000000
0.570000 0.217969 0.000000
0.640000 0.217969 0.000000
0.710000 0.217969 0.000000
0.780000 0.217969 0.000000
0.850000 0.217969 0.000000
0.920000 0.217969 0.000000
0.990000 0.217969 0.000000
1.000000 0.217969 0.000000
0.000000 0.287500 0.000000
0.010000 0.287500 0.000000
0.080000 0.287500 0.000000
0.150000 0.287500 0.000000
0.220000 0.287500 0.000000
0.290000 0.287500 0.000000
0.360000 0.287500 0.000000
0.430000 0.287500 0.000000
0.500000 0.287500 0.000000
0.570000 0.287500 0.000000
0.640000 0.287500 0.000000
0.710000 0.287500 0.000000
0.780000 0.287500 0.000000
0.850000 0.287500 0.000000
0.920000 0.287500 0.000000
0.990000 0.287500 0.000000
1.000000 0.287500 0.000000
0.000000 0.355469 0.000000
0.010000 0.355469 0.000000
0.080000 0.355469 0.000000
0.150000 0.355469 0.000000
0.220000 0.355469 0.000000
0.290000 0.355469 0.000000
0.360000 0.355469 0.000000
0.430000 0.355469 0.000000
0.500000 0.355469 0.000000
0.570000 0.355469 0.000000
0.640000 0.355469 0.000000
0.710000 0.355469 0.000000
0.780000 0.355469 0.000000
0.850000 0.355469 0.000000
0.920000 0.355469 0.000000
0.990000 0.355469 0.000000
1.000000 0.355469 0.000000
0.000000 0.421875 0.000000
0.010000 0.421875 0.000000
0.080000 0.421875 0.000000
0.150000 0.421875 0.000000
0.220000 0.421875 0.000000
0.290000 0.421875 0.000000
0.360000 0.421875 0.000000
0.430000 0.421875 0.000000
0.500000 0.421875 0.000000
0.570000 0.421875 0.000000
0.640000 0.421875 0.000000
0.710000 0.421875 0.000000
0.780000 0.421875 0.000000
0.850000 0.421875 0.000000
0.920000 0.421875 0.000000
0.990000 0.421875 0.000000
1.000000 0.421875 0.000000
0.000000 0.486719 0.000000
0.010000 0.486719 0.000000
0.080000 0.486719 0.000000
0.150000 0.486719 0.000000
0.220000 0.486719 0.000000
0.290000 0.486719 0.000000
0.360000 0.486719 0.000000
0.430000 0.486719 0.000000
0.500000 0.486719 0.000000
0.570000 0.486719 0.000000
0.640000 0.486719 0.000000
0.710000 0.486719 0.000000
0.780000 0.486719 0.000000
0.850000 0.486719 0.000000
0.920000 0.486719 0.000000
0.990000 0.486719 0.000000
1.000000 0.486719 0.000000
0.000000 0.550000 0.000000
0.010000 0.550000 0.000000
0.080000 0.550000 0.000000
0.150000 0.550000 0.000000
0.220000 0.550000 0.000000
0.290000 0.550000 0.000000
0.360000 0.550000 0.000000
0.430000 0.550000 0.000000
0.500000 0.550000 0.000000
0.570000 0.550000 0.000000
0.640000 0.550000 0.000000
0.710000 0.550000 0.000000
0.780000 0.550000 0.000000
0.850000 0.550000 0.000000
0.920000 0.550000 0.000000
0.990000 0.550000 0.000000
1.000000 0.550000 0.000000
0.000000 0.611719 0.000000
0.010000 0.611719 0.000000
0.080000 0.611719 0.000000
0.150000 0.611719 0.000000
0.220000 0.611719 0.000000
0.290000 0.611719 0.000000
0.360000 0.611719 0.000000
0.430000 0.611719 0.000000
0.500000 0.611719 0.000000
0.570000 0.611719 0.000000
0.640000 0.611719 0.000000
0.710000 0.611719 0.000000
0.780000 0.611719 0.000000
0.850000 0.611719 0.000000
0.920000 0.611719 0.000000
0.990000 0.611719 0.000000
1.000000 0.611719 0.000000
0.000000 0.671875 0.000000
0.010000 0.671875 0.000000
0.080000 0.671875 0.000000
0.150000 0.671875 0.000000
0.220000 0.671875 0.000000
0.290000 0.671875 0.000000
0.360000 0.671875 0.000000
0.430000 0.671875 0.000000
0.500000 0.671875 0.000000
0.570000 0.671875 0.000000
0.640000 0.671875 0.000000
0.710000 0.671875 0.000000
0.780000 0.671875 0.000000
0.850000 0.671875 0.000000
0.920000 0.671875 0.000000
0.990000 0.671875 0.000000
1.000000 0.671875 0.000000
0.000000 0.730469 0.000000
0.010000 0.730469 0.000000
0.080000 0.730469 0.000000
0.150000 0.730469 0.000000
0.220000 0.730469 0.000000
0.290000 0.730469 0.000000
0.360000 0.730469 0.000000
0.430000 0.730469 0.000000
0.500000 0.730469 0.000000
0.570000 0.730469 0.000000
0.640000 0.730469 0.000000
0.710000 0.730469 0.000000
0.780000 0.730469 0.000000
0.850000 0.730469 0.000000
0.920000 0.730469 0.000000
0.990000 0.730469 0.000000
1.000000 0.730469 0.000000
0.000000 0.787500 0.000000
0.010000 0.787500 0.000000
0.080000 0.787500 0.000000
0.150000 0.787500 0.000000
0.220000 0.787500 0.000000
0.290000 0.787500 0.000000
0.360000 0.787500 0.000000
0.430000 0.787500 0.000000
0.500000 0.787500 0.000000
0.570000 0.787500 0.000000
0.640000 0.787500 0.000000
0.710000 0.787500 0.000000
0.780000 0.787500 0.000000
0.850000 0.787500 0.000000
0.920000 0.787500 0.000000
0.990000 0.787500 0.000000
1.000000 0.787500 0.000000
0.000000 0.842969 0.000000
0.010000 0.842969 0.000000
0.080000 0.842969 0.000000
0.150000 0.842969 0.000000
0.220000 0.842969 0.000000
0.290000 0.842969 0.000000
0.360000 0.842969 0.000000
0.430000 0.842969 0.000000
0.500000 0.842969 0.000000
0.570000 0.842969 0.000000
0.640000 0.842969 0.000000
0.710000 0.842969 0.000000
0.780000 0.842969 0.000000
0.850000 0.842969 0.000000
0.920000 0.842969 0.000000
0.990000 0.842969 0.000000
1.000000 0.842969 0.000000
0.000000 0.896875 0.000000
0.010000 0.896875 0.000000
0.080000 0.896875 0.000000
0.150000 0.896875 0.000000
0.220000 0.896875 0.000000
0.290000 0.896875 0.000000
0.360000 0.896875 0.000000
0.430000 0.896875 0.000000
0.500000 0.896875 0.000000
0.570000 0.896875 0.000000
0.640000 0.896875 0.000000
0.710000 0.896875 0.000000
0.780000 0.896875 0.000000
0.850000 0.896875 0.000000
0.920000 0.896875 0.000000
0.990000 0.896875 0.000000
1.000000 0.896875 0.000000
0.000000 0.949219 0.000000
0.010000 0.949219 0.000000
0.080000 0.949219 0.000000
0.150000 0.949219 0.000000
0.220000 0.949219 0.000000
0.290000 0.949219 0.000000
0.360000 0.949219 0.000000
0.430000 0.949219 0.000000
0.500000 0.949219 0.000000
0.570000 0.949219 0.000000
0.640000 0.949219 0.000000
0.710000 0.949219 0.000000
0.780000 0.949219 0.000000
0.850000 0.949219 0.000000
0.920000 0.949219 0.000000
0.990000 0.949219 0.000000
1.000000 0.949219 0.000000
0.000000 1.000000 0.000000
0.010000 1.000000 0.000000
0.080000 1.000000 0.000000
0.150000 1.000000 0.000000
0.220000 1.000000 0.000000
0.290000 1.000000 0.000000
0.360000 1.000000 0.000000
0.430000 1.000000 0.000000
0.500000 1.000000 0.000000
0.570000 1.000000 0.000000
0.640000 1.000000 0.000000
0.710000 1.000000 0.000000
0.780000 1.000000 0.000000
0.850000 1.000000 0.000000
0.920000 1.000000 0.000000
0.990000 1.000000 0.000000
1.000000 1.000000 0.000000
0.000000 0.000000 0.073486
0.010000 0.000000 0.073486
0.080000 0.000000 0.073486
0.150000 0.000000 0.073486
0.220000 0.000000 0.073486
0.290000 0.000000 0.073486
0.360000 0.000000 0.073486
0.430000 0.000000 0.073486
0.500000 0.000000 0.073486
0.570000 0.000000 0.073486
0.640000 0.000000 0.073486
0.710000 0.000000 0.073486
0.780000 0.000000 0.073486
0.850000 0.000000 0.073486
0.920000 0.000000 0.073486
0.990000 0.000000 0.073486
1.000000 0.000000 0.073486
0.000000 0.074219 0.073486
0.010000 0.074219 0.073486
0.080000 0.074219 0.073486
0.150000 0.074219 0.073486
0.220000 0.074219 0.073486
0.290000 0.074219 0.073486
0.360000 0.074219 0.073486
0.430000 0.074219 0.073486
0.500000 0.074219 0.073486
0.570000 0.074219 0.073486
0.640000 0.074219 0.073486
0.710000 0.074219 0.073486
0.780000 0.074219 0.073486
0.850000 0.074219 0.073486
0.920000 0.074219 0.073486
0.990000 0.074219 0.073486
1.000000 0.074219 0.073486
0.000000 0.146875 0.073486
0.010000 0.146875 0.073486
0.080000 0.146875 0.073486
0.150000 0.146875 0.073486
0.220000 0.146875 0.073486
0.290000 0.146875 0.073486
0.360000 0.146875 0.073486
0.430000 0.146875 0.073486
0.500000 0.146875 0.073486
0.570000 0.146875 0.073486
0.640000 0.146875 0.073486
0.710000 0.146875 0.073486
0.780000 0.146875 0.073486
0.850000 0.146875 0.073486
0.920000 0.146875 0.073486
0.990000 0.146875 0.073486
1.000000 0.146875 0.073486
0.000000 0.217969 0.073486
0.010000 0.217969 0.073486
0.080000 0.217969 0.073486
0.150000 0.217969 0.073486
0.220000 0.217969 0.073486
0.290000 0.217969 0.073486
0.360000 0.217969 0.073486
0.430000 0.217969 0.073486
0.500000 0.217969 0.073486
0.570000 0.217969 0.073486
0.640000 0.217969 0.073486
0.710000 0.217969 0.073486
0.780000 0.217969 0.073486
0.850000 0.217969 0.073486
0.920000 0.217969 0.073486
0.990000 0.217969 0.073486
1.000000 0.217969 0.073486
0.000000 0.287500 0.073486
0.010000 0.287500 0.073486
0.080000 0.287500 0.073486
0.150000 0.287500 0.073486
0.220000 0.287500 0.073486
0.290000 0.287500 0.073486
0.360000 0.287500 0.073486
0.430000 0.287500 0.073486
0.500000 0.287500 0.073486
0.570000 0.287500 0.073486
0.640000 0.287500 0.073486
0.710000 0.287500 0.073486
0.780000 0.287500 0.073486
0.850000 0.287500 0.073486
0.920000 0.287500 0.073486
0.990000 0.287500 0.073486
1.000000 0.287500 0.073486
0.000000 0.355469 0.073486
0.010000 0.355469 0.073486
0.080000 0.355469 0.073486
0.150000 0.355469 0.073486
0.220000 0.355469 0.073486
0.290000 0.355469 0.073486
0.360000 0.355469 0.073486
0.430000 0.355469 0.073486
0.500000 0.355469 0.073486
0.570000 0.355469 0.073486
0.640000 0.355469 0.073486
0.710000 0.355469 0.073486
0.780000 0.355469 0.073486
0.850000 0.355469 0.073486
0.920000 0.355469 0.073486
0.990000 0.355469 0.073486
1.000000 0.355469 0.073486
0.000000 0.421875 0.073486
0.010000 0.421875 0.073486
0.080000 0.421875 0.073486
0.150000 0.421875 0.073486
0.220000 0.421875 0.073486
0.290000 0.421875 0.073486
0.360000 0.421875 0.073486
0.430000 0.421875 0.073486
0.500000 0.421875 0.073486
0.570000 0.421875 0.073486
0.640000 0.421875 0.073486
0.710000 0.421875 0.073486
0.780000 0.421875 0.073486
0.850000 0.421875 0.073486
0.920000 0.421875 0.073486
0.990000 0.421875 0.073486
1.000000 0.421875 0.073486
0.000000 0.486719 0.073486
0.010000 0.486719 0.073486
0.080000 0.486719 0.073486
0.150000 0.486719 0.073486
0.220000 0.486719 0.073486
0.290000 0.486719 0.073486
0.360000 0.486719 0.073486
0.430000 0.486719 0.073486
0.500000 0.486719 0.073486
0.570000 0.486719 0.073486
0.640000 0.486719 0.073486
0.710000 0.486719 0.073486
0.780000 0.486719 0.073486
0.850000 0.486719 0.073486
0.920000 0.486719 0.073486
0.990000 0.486719 0.073486
1.000000 0.486719 0.073486
0.000000 0.550000 0.073486
0.010000 0.550000 0.073486
0.080000 0.550000 0.073486
0.150000 0.550000 0.073486
0.220000 0.550000 0.073486
0.290000 0.550000 0.073486
0.360000 0.550000 0.073486
0.430000 0.550000 0.073486
0.500000 0.550000 0.073486
0.570000 0.550000 0.073486
0.640000 0.550000 0.073486
0.710000 0.550000 0.073486
0.780000 0.550000 0.073486
0.850000 0.550000 0.073486
0.920000 0.550000 0.073486
0.990000 0.550000 0.073486
1.000000 0.550000 0.073486
0.000000 0.611719 0.073486
0.010000 0.611719 0.073486
0.080000 0.611719 0.073486
0.150000 0.611719 0.073486
0.220000 0.611719 0.073486
0.290000 0.611719 0.073486
0.360000 0.611719 0.073486
0.430000 0.611719 0.073486
0.500000 0.611719 0.073486
0.570000 0.611719 0.073486
0.640000 0.611719 0.073486
0.710000 0.611719 0.073486
0.780000 0.611719 0.073486
0.850000 0.611719 0.073486
0.920000 0.611719 0.073486
0.990000 0.611719 0.073486
1.000000 0.611719 0.073486
0.000000 0.671875 0.073486
0.010000 0.671875 0.073486
0.080000 0.671875 0.073486
0.150000 0.671875 0.073486
0.220000 0.671875 0.073486
0.290000 0.671875 0.073486
0.360000 0.671875 0.073486
0.430000 0.671875 0.073486
0.500000 0.671875 0.073486
0.570000 0.671875 0.073486
0.640000 0.671875 0.073486
0.710000 0.671875 0.073486
0.780000 0.671875 0.073486
0.850000 0.671875 0.073486
0.920000 0.671875 0.073486
0.990000 0.671875 0.073486
1.000000 0.671875 0.073486
0.000000 0.730469 0.073486
0.010000 0.730469 0.073486
0.080000 0.730469 0.073486
0.150000 0.730469 0.073486
0.220000 0.730469 0.073486
0.290000 0.730469 0.073486
0.360000 0.730469 0.073486
0.430000 0.730469 0.073486
0.500000 0.730469 0.073486
0.570000 0.730469 0.073486
0.640000 0.730469 0.073486
0.710000 0.730469 0.073486
0.780000 0.730469 0.073486
0.850000 0.730469 0.073486
0.920000 0.730469 0.073486
0.990000 0.730469 0.073486
1.000000 0.730469 0.073486
0.000000 0.787500 0.073486
0.010000 0.787500 0.073486
0.080000 0.787500 0.073486
0.150000 0.787500 0.073486
0.220000 0.787500 0.073486
0.290000 0.787500 0.073486
0.360000 0.787500 0.073486
0.430000 0.787500 0.073486
0.500000 0.787500 0.073486
0.570000 0.787500 0.073486
0.640000 0.787500 0.073486
0.710000 0.787500 0.073486
0.780000 0.787500 0.073486
0.850000 0.787500 0.073486
0.920000 0.787500 0.073486
0.990000 0.787500 0.073486
1.000000 0.787500 0.073486
0.000000 0.842969 0.073486
0.010000 0.842969 0.073486
0.080000 0.842969 0.073486
0.150000 0.842969 0.073486
0.220000 0.842969 0.073486
0.290000 0.842969 0.073486
0.360000 0.842969 0.073486
0.430000 0.842969 0.073486
0.500000 0.842969 0.073486
0.570000 0.842969 0.073486
0.640000 0.842969 0.073486
0.710000 0.842969 0.073486
0.780000 0.842969 0.073486
0.850000 0.842969 0.073486
0.920000 0.842969 0.073486
0.990000 0.842969 0.073486
1.000000 0.842969 0.073486
0.000000 0.896875 0.073486
0.010000 0.896875 0.073486
0.080000 0.896875 0.073486
0.150000 0.896875 0.073486
0.220000 0.896875 0.073486
0.290000 0.896875 0.073486
0.360000 0.896875 0.073486
0.430000 0.896875 0.073486
0.500000 0.896875 0.073486
0.570000 0.896875 0.073486
0.640000 0.896875 0.073486
0.710000 0.896875 0.073486
0.780000 0.896875 0.073486
0.850000 0.896875 0.073486
0.920000 0.896875 0.073486
0.990000 0.896875 0.073486
1.000000 0.896875 0.073486
0.000000 0.949219 0.073486
0.010000 0.949219 0.073486
0.080000 0.949219 0.073486
0.150000 0.949219 0.073486
0.220000 0.949219 0.073486
0.290000 0.949219 0.073486
0.360000 0.949219 0.073486
0.430000 0.949219 0.073486
0.500000 0.949219 0.073486
0.570000 0.949219 0.073486
0.640000 0.949219 0.073486
0.710000 0.949219 0.073486
0.780000 0.949219 0.073486
0.850000 0.949219 0.073486
0.920000 0.949219 0.073486
0.990000 0.949219 0.073486
1.000000 0.949219 0.073486
0.000000 1.000000 0.073486
0.010000 1.000000 0.073486
0.080000 1.000000 0.073486
0.150000 1.000000 0.073486
0.220000 1.000000 0.073486
0.290000 1.000000 0.073486
0.360000 1.000000 0.073486
0.430000 1.000000 0.073486
0.500000 1.000000 0.073486
0.570000 1.000000 0.073486
0.640000 1.000000 0.073486
0.710000 1.000000 0.073486
0.780000 1.000000 0.073486
0.850000 1.000000 0.073486
0.920000 1.000000 0.073486
0.990000 1.000000 0.073486
1.000000 1.000000 0.073486
0.000000 0.000000 0.144141
0.010000 0.000000 0.144141
0.080000 0.000000 0.144141
0.150000 0.000000 0.144141
0.220000 0.000000 0.144141
0.290000 0.000000 0.144141
0.360000 0.000000 0.144141
0.430000 0.000000 0.144141
0.500000 0.000000 0.144141
0.570000 0.000000 0.144141
0.640000 0.000000 0.144141
0.710000 0.000000 0.144141
0.780000 0.000000 0.144141
0.850000 0.000000 0.144141
0.920000 0.000000 0.144141
0.990000 0.000000 0.144141
1.000000 0.000000 0.144141
0.000000 0.074219 0.144141
0.010000 0.074219 0.144141
0.080000 0.074219 0.144141
0.150000 0.074219 0.144141
0.220000 0.074219 0.144141
0.290000 0.074219 0.144141
0.360000 0.074219 0.144141
0.430000 0.074219 0.144141
0.500000 0.074219 0.144141
0.570000 0.074219 0.144141
0.640000 0.074219 0.144141
0.710000 0.074219 0.144141
0.780000 0.074219 0.144141
0.850000 0.074219 0.144141
0.920000 0.074219 0.144141
0.990000 0.074219 0.144141
1.000000 0.074219 0.144141
0.000000 0.146875 0.144141
0.010000 0.146875 0.144141
0.080000 0.146875 0.144141
0.150000 0.146875 0.144141
0.220000 0.146875 0.144141
0.290000 0.146875 0.144141
0.360000 0.146875 0.144141
0.430000 0.146875 0.144141
0.500000 0.146875 0.144141
0.570000 0.146875 0.144141
0.640000 0.146875 0.144141
0.710000 0.146875 0.144141
0.780000 0.146875 0.144141
0.850000 0.146875 0.144141
0.920000 0.146875 0.144141
0.990000 0.146875 0.144141
1.000000 0.146875 0.144141
0.000000 0.217969 0.144141
0.010000 0.217969 0.144141
0.080000 0.217969 0.144141
0.150000 0.217969 0.144141
0.220000 0.217969 0.144141
0.290000 0.217969 0.144141
0.360000 0.217969 0.144141
0.430000 0.217969 0.144141
0.500000 0.217969 0.144141
0.570000 0.217969 0.144141
0.640000 0.217969 0.144141
0.710000 0.217969 0.144141
0.780000 0.217969 0.144141
0.850000 0.217969 0.144141
0.920000 0.217969 0.144141
0.990000 0.217969 0.144141
1.000000 0.217969 0.144141
0.000000 0.287500 0.144141
0.010000 0.287500 0.144141
0.080000 0.287500 0.144141
0.150000 0.287500 0.144141
0.220000 0.287500 0.144141
0.290000 0.287500 0.144141
0.360000 0.287500 0.144141
0.430000 0.287500 0.144141
0.500000 0.287500 0.144141
0.570000 0.287500 0.144141
0.640000 0.287500 0.144141
0.710000 0.287500 0.144141
0.780000 0.287500 0.144141
0.850000 0.287500 0.144141
0.920000 0.287500 0.144141
0.990000 0.287500 0.144141
1.000000 0.287500 0.144141
0.000000 0.355469 0.144141
0.010000 0.355469 0.144141
0.080000 0.355469 0.144141
0.150000 0.355469 0.144141
0.220000 0.355469 0.144141
0.290000 0.355469 0.144141
0.360000 0.355469 0.144141
0.430000 0.355469 0.144141
0.500000 0.355469 0.144141
0.570000 0.355469 0.144141
0.640000 0.355469 0.144141
0.710000 0.355469 0.144141
0.780000 0.355469 0.144141
0.850000 0.355469 0.144141
0.920000 0.355469 0.144141
0.990000 0.355469 0.144141
1.000000 0.355469 0.144141
0.000000 0.421875 0.144141
0.010000 0.421875 0.144141
0.080000 0.421875 0.144141
0.150000 0.421875 0.144141
0.220000 0.421875 0.144141
0.290000 0.421875 0.144141
0.360000 0.421875 0.144141
0.430000 0.421875 0.144141
0.500000 0.421875 0.144141
0.570000 0.421875 0.144141
0.640000 0.421875 0.144141
0.710000 0.421875 0.144141
0.780000 0.421875 0.144141
0.850000 0.421875 0.144141
0.920000 0.421875 0.144141
0.990000 0.421875 0.144141
1.000000 0.421875 0.144141
0.000000 0.486719 0.144141
0.010000 0.486719 0.144141
0.080000 0.486719 0.144141
0.150000 0.486719 0.144141
0.220000 0.486719 0.144141
0.290000 0.486719 0.144141
0.360000 0.486719 0.144141
0.430000 0.486719 0.144141
0.500000 0.486719 0.144141
0.570000 0.486719 0.144141
0.640000 0.486719 0.144141
0.710000 0.486719 0.144141
0.780000 0.486719 0.144141
0.850000 0.486719 0.144141
0.920000 0.486719 0.144141
0.990000 0.486719 0.144141
1.000000 0.486719 0.144141
0.000000 0.550000 0.144141
0.010000 0.550000 0.144141
0.080000 0.550000 0.144141
0.150000 0.550000 0.144141
0.220000 0.550000 0.144141
0.290000 0.550000 0.144141
0.360000 0.550000 0.144141
0.430000 0.550000 0.144141
0.500000 0.550000 0.144141
0.570000 0.550000 0.144141
0.640000 0.550000 0.144141
0.710000 0.550000 0.144141
0.780000 0.550000 0.144141
0.850000 0.550000 0.144141
0.920000 0.550000 0.144141
0.990000 0.550000 0.144141
1.000000 0.550000 0.144141
0.000000 0.611719 0.144141
0.010000 0.611719 0.144141
0.080000 0.611719 0.144141
0.150000 0.611719 0.144141
0.220000 0.611719 0.144141
0.290000 0.611719 0.144141
0.360000 0.611719 0.144141
0.430000 0.611719 0.144141
0.500000 0.611719 0.144141
0.570000 0.611719 0.144141
0.640000 0.611719 0.144141
0.710000 0.611719 0.144141
0.780000 0.611719 0.144141
0.850000 0.611719 0.144141
0.920000 0.611719 0.144141
0.990000 0.611719 0.144141
1.000000 0.611719 0.144141
0.000000 0.671875 0.144141
0.010000 0.671875 0.144141
0.080000 0.671875 0.144141
0.150000 0.671875 0.144141
0.220000 0.671875 0.144141
0.290000 0.671875 0.144141
0.360000 0.671875 0.144141
0.430000 0.671875 0.144141
0.500000 0.671875 0.144141
0.570000 0.671875 0.144141
0.640000 0.671875 0.144141
0.710000 0.671875 0.144141
0.780000 0.671875 0.144141
0.850000 0.671875 0.144141
0.920000 0.671875 0.144141
0.990000 0.671875 0.144141
1.000000 0.671875 0.144141
0.000000 0.730469 0.144141
0.010000 0.730469 0.144141
0.080000 0.730469 0.144141
0.150000 0.730469 0.144141
0.220000 0.730469 0.144141
0.290000 0.730469 0.144141
0.360000 0.730469 0.144141
0.430000 0.730469 0.144141
0.500000 0.730469 0.144141
0.570000 0.730469 0.144141
0.640000 0.730469 0.144141
0.710000 0.730469 0.144141
0.780000 0.730469 0.144141
0.850000 0.730469 0.144141
0.920000 0.730469 0.144141
0.990000 0.730469 0.144141
1.000000 0.730469 0.144141
0.000000 0.787500 0.144141
0.010000 0.787500 0.144141
0.080000 0.787500 0.144141
0.150000 0.787500 0.144141
0.220000 0.787500 0.144141
0.290000 0.787500 0.144141
0.360000 0.787500 0.144141
0.430000 0.787500 0.144141
0.500000 0.787500 0.144141
0.570000 0.787500 0.144141
0.640000 0.787500 0.144141
0.710000 0.787500 0.144141
0.780000 0.787500 0.144141
0.850000 0.787500 0.144141
0.920000 0.787500 0.144141
0.990000 0.787500 0.144141
1.000000 0.787500 0.144141
0.000000 0.842969 0.144141
0.010000 0.842969 0.144141
0.080000 0.842969 0.144141
0.150000 0.842969 0.144141
0.220000 0.842969 0.144141
0.290000 0.842969 0.144141
0.360000 0.842969 0.144141
0.430000 0.842969 0.144141
0.500000 0.842969 0.144141
0.570000 0.842969 0.144141
0.640000 0.842969 0.144141
0.710000 0.842969 0.144141
0.780000 0.842969 0.144141
0.850000 0.842969 0.144141
0.920000 0.842969 0.144141
0.990000 0.842969 0.144141
1.000000 0.842969 0.144141
0.000000 0.896875 0.144141
0.010000 0.896875 0.144141
0.080000 0.896875 0.144141
0.150000 0.896875 0.144141
0.220000 0.896875 0.144141
0.290000 0.896875 0.144141
0.360000 0.896875 0.144141
0.430000 0.896875 0.144141
0.500000 0.896875 0.144141
0.570000 0.896875 0.144141
0.640000 0.896875 0.144141
0.710000 0.896875 0.144141
0.780000 0.896875 0.144141
0.850000 0.896875 0.144141
0.920000 0.896875 0.144141
0.990000 0.896875 0.144141
1.000000 0.896875 0.144141
0.000000 0.949219 0.144141
0.010000 0.949219 0.144141
0.080000 0.949219 0.144141
0.150000 0.949219 0.144141
0.220000 0.949219 0.144141
0.290000 0.949219 0.144141
0.360000 0.949219 0.144141
0.430000 0.949219 0.144141
0.500000 0.949219 0.144141
0.570000 0.949219 0.144141
0.640000 0.949219 0.144141
0.710000 0.949219 0.144141
0.780000 0.949219 0.144141
0.850000 0.949219 0.144141
0.920000 0.949219 0.144141
0.990000 0.949219 0.144141
1.000000 0.949219 0.144141
0.000000 1.000000 0.144141
0.010000 1.000000 0.144141
0.080000 1.000000 0.144141
0.150000 1.000000 0.144141
0.220000 1.000000 0.144141
0.290000 1.000000 0.144141
0.360000 1.000000 0.144141
0.430000 1.000000 0.144141
0.500000 1.000000 0.144141
0.570000 1.000000 0.144141
0.640000 1.000000 0.144141
0.710000 1.000000 0.144141
0.780000 1.000000 0.144141
0.850000 1.000000 0.144141
0.920000 1.000000 0.144141
0.990000 1.000000 0.144141
1.000000 1.000000 0.144141
0.000000 0.000000 0.212256
0.010000 0.000000 0.212256
0.080000 0.000000 0.212256
0.150000 0.000000 0.212256
0.220000 0.000000 0.212256
0.290000 0.000000 0.212256
