luts/kodak_ish_17.cube
# Generated by scripts/recipes/generate_demo_luts.py
# Retouch Engine -- demo LUT (safe to redistribute).
# NOT an authoritative Kodak profile. An illustrative approximation:
#   R: gentle S-curve (linear contrast +10%)
#   G: midtone lift (+0.04 at L~0.5)
#   B: shadow crush (lower mids lifted via 4x(1-x)^2 weighting)
# For real Kodak/Fuji film stock emulation, install commercial LUTs
# (see luts/ACQUISITION.md).
TITLE "Demo Kodak-ish 17x17x17"
LUT_3D_SIZE 9
DOMAIN_MIN 0.0 0.0 0.0
DOMAIN_MAX 1.0 1.0 1.0
0.000000 0.000000 0.000000
0.087500 0.000000 0.000000
0.225000 0.000000 0.000000
0.362500 0.000000 0.000000
0.500000 0.000000 0.000000
0.637500 0.000000 0.000000
0.775000 0.000000 0.000000
0.912500 0.000000 0.000000
1.000000 0.000000 0.000000
0.000000 0.142500 0.000000
0.087500 0.142500 0.000000
0.225000 0.142500 0.000000
0.362500 0.142500 0.000000
0.500000 0.142500 0.000000
0.637500 0.142500 0.000000
0.775000 0.142500 0.000000
0.912500 0.142500 0.000000
1.000000 0.142500 0.000000
0.000000 0.280000 0.000000
0.087500 0.280000 0.000000
0.225000 0.280000 0.000000
0.362500 0.280000 0.000000
0.500000 0.280000 0.000000
0.637500 0.280000 0.000000
0.775000 0.280000 0.000000
0.912500 0.280000 0.000000
1.000000 0.280000 0.000000
0.000000 0.412500 0.000000
0.087500 0.412500 0.000000
0.225000 0.412500 0.000000
0.362500 0.412500 0.000000
0.500000 0.412500 0.000000
0.637500 0.412500 0.000000
0.775000 0.412500 0.000000
0.912500 0.412500 0.000000
1.000000 0.412500 0.000000
0.000000 0.540000 0.000000
0.087500 0.540000 0.000000
0.225000 0.540000 0.000000
0.362500 0.540000 0.000000
0.500000 0.540000 0.000000
0.637500 0.540000 0.000000
0.775000 0.540000 0.000000
0.912500 0.540000 0.000000
1.000000 0.540000 0.000000
0.000000 0.662500 0.000000
0.087500 0.662500 0.000000
0.225000 0.662500 0.000000
0.362500 0.662500 0.000000
0.500000 0.662500 0.000000
0.637500 0.662500 0.000000
0.775000 0.662500 0.000000
0.912500 0.662500 0.000000
1.000000 0.662500 0.000000
0.000000 0.780000 0.000000
0.087500 0.780000 0.000000
0.225000 0.780000 0.000000
0.362500 0.780000 0.000000
0.500000 0.780000 0.000000
0.637500 0.780000 0.000000
0.775000 0.780000 0.000000
0.912500 0.780000 0.000000
1.000000 0.780000 0.000000
0.000000 0.892500 0.000000
0.087500 0.892500 0.000000
0.225000 0.892500 0.000000
0.362500 0.892500 0.000000
0.500000 0.892500 0.000000
0.637500 0.892500 0.000000
0.775000 0.892500 0.000000
0.912500 0.892500 0.000000
1.000000 0.892500 0.000000
0.000000 1.000000 0.000000
0.087500 1.000000 0.000000
0.225000 1.000000 0.000000
0.362500 1.000000 0.000000
0.500000 1.000000 0.000000
0.637500 1.000000 0.000000
0.775000 1.000000 0.000000
0.912500 1.000000 0.000000
1.000000 1.000000 0.000000
0.000000 0.000000 0.147969
0.087500 0.000000 0.147969
0.225000 0.000000 0.147969
0.362500 0.000000 0.147969
0.500000 0.000000 0.147969
0.637500 0.000000 0.147969
0.775000 0.000000 0.147969
0.912500 0.000000 0.147969
1.000000 0.000000 0.147969
0.000000 0.142500 0.147969
0.087500 0.142500 0.147969
0.225000 0.142500 0.147969
0.362500 0.142500 0.147969
0.500000 0.142500 0.147969
0.637500 0.142500 0.147969
0.775000 0.142500 0.147969
0.912500 0.142500 0.147969
1.000000 0.142500 0.147969
0.000000 0.280000 0.147969
0.087500 0.280000 0.147969
0.225000 0.280000 0.147969
0.362500 0.280000 0.147969
0.500000 0.280000 0.147969
0.637500 0.280000 0.147969
0.775000 0.280000 0.147969
0.912500 0.280000 0.147969
1.000000 0.280000 0.147969
0.000000 0.412500 0.147969
0.087500 0.412500 0.147969
0.225000 0.412500 0.147969
0.362500 0.412500 0.147969
0.500000 0.412500 0.147969
0.637500 0.412500 0.147969
0.775000 0.412500 0.147969
0.912500 0.412500 0.147969
1.000000 0.412500 0.147969
0.000000 0.540000 0.147969
0.087500 0.540000 0.147969
0.225000 0.540000 0.147969
0.362500 0.540000 0.147969
0.500000 0.540000 0.147969
0.637500 0.540000 0.147969
0.775000 0.540000 0.147969
0.912500 0.540000 0.147969
1.000000 0.540000 0.147969
0.000000 0.662500 0.147969
0.087500 0.662500 0.147969
0.225000 0.662500 0.147969
0.362500 0.662500 0.147969
0.500000 0.662500 0.147969
0.637500 0.662500 0.147969
0.775000 0.662500 0.147969
0.912500 0.662500 0.147969
1.000000 0.662500 0.147969
0.000000 0.780000 0.147969
0.087500 0.780000 0.147969
0.225000 0.780000 0.147969
0.362500 0.780000 0.147969
0.500000 0.780000 0.147969
0.637500 0.780000 0.147969
0.775000 0.780000 0.147969
0.912500 0.780000 0.147969
1.000000 0.780000 0.147969
0.000000 0.892500 0.147969
0.087500 0.892500 0.147969
0.225000 0.892500 0.147969
0.362500 0.892500 0.147969
0.500000 0.892500 0.147969
0.637500 0.892500 0.147969
0.775000 0.892500 0.147969
0.912500 0.892500 0.147969
1.000000 0.892500 0.147969
0.000000 1.000000 0.147969
0.087500 1.000000 0.147969
0.225000 1.000000 0.147969
0.362500 1.000000 0.147969
0.500000 1.000000 0.147969
0.637500 1.000000 0.147969
0.775000 1.000000 0.147969
0.912500 1.000000 0.147969
1.000000 1.000000 0.147969
0.000000 0.000000 0.283750
0.087500 0.000000 0.283750
0.225000 0.000000 0.283750
0.362500 0.000000 0.283750
0.500000 0.000000 0.283750
0.637500 0.000000 0.283750
0.775000 0.000000 0.283750
0.912500 0.000000 0.283750
1.000000 0.000000 0.283750
0.000000 0.142500 0.283750
0.087500 0.142500 0.283750
0.225000 0.142500 0.283750
0.362500 0.142500 0.283750
0.500000 0.142500 0.283750
0.637500 0.142500 0.283750
0.775000 0.142500 0.283750
0.912500 0.142500 0.283750
1.000000 0.142500 0.283750
0.000000 0.280000 0.283750
0.087500 0.280000 0.283750
0.225000 0.280000 0.283750
0.362500 0.280000 0.283750
0.500000 0.280000 0.283750
0.637500 0.280000 0.283750
0.775000 0.280000 0.283750
0.912500 0.280000 0.283750
1.000000 0.280000 0.283750
0.000000 0.412500 0.283750
0.087500 0.412500 0.283750
0.225000 0.412500 0.283750
0.362500 0.412500 0.283750
0.500000 0.412500 0.283750
0.637500 0.412500 0.283750
0.775000 0.412500 0.283750
0.912500 0.412500 0.283750
1.000000 0.412500 0.283750
0.000000 0.540000 0.283750
0.087500 0.540000 0.283750
0.225000 0.540000 0.283750
0.362500 0.540000 0.283750
0.500000 0.540000 0.283750
0.637500 0.540000 0.283750
0.775000 0.540000 0.283750
0.912500 0.540000 0.283750
1.000000 0.540000 0.283750
0.000000 0.662500 0.283750
0.087500 0.662500 0.283750
0.225000 0.662500 0.283750
0.362500 0.662500 0.283750
0.500000 0.662500 0.283750
0.637500 0.662500 0.283750
0.775000 0.662500 0.283750
0.912500 0.662500 0.283750
1.000000 0.662500 0.283750
0.000000 0.780000 0.283750
0.087500 0.780000 0.283750
0.225000 0.780000 0.283750
0.362500 0.780000 0.283750
0.500000 0.780000 0.283750
0.637500 0.780000 0.283750
0.775000 0.780000 0.283750
0.912500 0.780000 0.283750
1.000000 0.780000 0.283750
0.000000 0.892500 0.283750
0.087500 0.892500 0.283750
0.225000 0.892500 0.283750
0.362500 0.892500 0.283750
0.500000 0.892500 0.283750
0.637500 0.892500 0.283750
0.775000 0.892500 0.283750
0.912500 0.892500 0.283750
1.000000 0.892500 0.283750
0.000000 1.000000 0.283750
0.087500 1.000000 0.283750
0.225000 1.000000 0.283750
0.362500 1.000000 0.283750
0.500000 1.000000 0.283750
0.637500 1.000000 0.283750
0.775000 1.000000 0.283750
0.912500 1.000000 0.283750
1.000000 1.000000 0.283750
0.000000 0.000000 0.410156
0.087500 0.000000 0.410156
0.225000 0.000000 0.410156
0.362500 0.000000 0.410156
0.500000 0.000000 0.410156
0.637500 0.000000 0.410156
0.775000 0.000000 0.410156
0.912500 0.000000 0.410156
1.000000 0.000000 0.410156
0.000000 0.142500 0.410156
0.087500 0.142500 0.410156
0.225000 0.142500 0.410156
0.362500 0.142500 0.410156
0.500000 0.142500 0.410156
0.637500 0.142500 0.410156
0.775000 0.142500 0.410156
0.912500 0.142500 0.410156
1.000000 0.142500 0.410156
0.000000 0.280000 0.410156
0.087500 0.280000 0.410156
0.225000 0.280000 0.410156
0.362500 0.280000 0.410156
0.500000 0.280000 0.410156
0.637500 0.280000 0.410156
0.775000 0.280000 0.410156
0.912500 0.280000 0.410156
1.000000 0.280000 0.410156
0.000000 0.412500 0.410156
0.087500 0.412500 0.410156
0.225000 0.412500 0.410156
0.362500 0.412500 0.410156
0.500000 0.412500 0.410156
0.637500 0.412500 0.410156
0.775000 0.412500 0.410156
0.912500 0.412500 0.410156
1.000000 0.412500 0.410156
0.000000 0.540000 0.410156
0.087500 0.540000 0.410156
0.225000 0.540000 0.410156
0.362500 0.540000 0.410156
0.500000 0.540000 0.410156
0.637500 0.540000 0.410156
0.775000 0.540000 0.410156
0.912500 0.540000 0.410156
1.000000 0.540000 0.410156
0.000000 0.662500 0.410156
0.087500 0.662500 0.410156
0.225000 0.662500 0.410156
0.362500 0.662500 0.410156
0.500000 0.662500 0.410156
0.637500 0.662500 0.410156
0.775000 0.662500 0.410156
0.912500 0.662500 0.410156
1.000000 0.662500 0.410156
0.000000 0.780000 0.410156
0.087500 0.780000 0.410156
0.225000 0.780000 0.410156
0.362500 0.780000 0.410156
0.500000 0.780000 0.410156
0.637500 0.780000 0.410156
0.775000 0.780000 0.410156
0.912500 0.780000 0.410156
1.000000 0.780000 0.410156
0.000000 0.892500 0.410156
0.087500 0.892500 0.410156
0.225000 0.892500 0.410156
0.362500 0.892500 0.410156
0.500000 0.892500 0.410156
0.637500 0.892500 0.410156
0.775000 0.892500 0.410156
0.912500 0.892500 0.410156
1.000000 0.892500 0.410156
0.000000 1.000000 0.410156
0.087500 1.000000 0.410156
0.225000 1.000000 0.410156
0.362500 1.000000 0.410156
0.500000 1.000000 0.410156
0.637500 1.000000 0.410156
0.775000 1.000000 0.410156
0.912500 1.000000 0.410156
1.000000 1.000000 0.410156
0.000000 0.000000 0.530000
0.087500 0.000000 0.530000
0.225000 0.000000 0.530000
0.362500 0.000000 0.530000
0.500000 0.000000 0.530000
0.637500 0.000000 0.530000
0.775000 0.000000 0.530000
0.912500 0.000000 0.530000
1.000000 0.000000 0.530000
0.000000 0.142500 0.530000
0.087500 0.142500 0.530000
0.225000 0.142500 0.530000
0.362500 0.142500 0.530000
0.500000 0.142500 0.530000
0.637500 0.142500 0.530000
0.775000 0.142500 0.530000
0.912500 0.142500 0.530000
1.000000 0.142500 0.530000
0.000000 0.280000 0.530000
0.087500 0.280000 0.530000
0.225000 0.280000 0.530000
0.362500 0.280000 0.530000
0.500000 0.280000 0.530000
0.637500 0.280000 0.530000
0.775000 0.280000 0.530000
0.912500 0.280000 0.530000
1.000000 0.280000 0.530000
0.000000 0.412500 0.530000
0.087500 0.412500 0.530000
0.225000 0.412500 0.530000
0.362500 0.412500 0.530000
0.500000 0.412500 0.530000
0.637500 0.412500 0.530000
0.775000 0.412500 0.530000
0.912500 0.412500 0.530000
1.000000 0.412500 0.530000
0.000000 0.540000 0.530000
0.087500 0.540000 0.530000
0.225000 0.540000 0.530000
0.362500 0.540000 0.530000
0.500000 0.540000 0.530000
0.637500 0.540000 0.530000
0.775000 0.540000 0.530000
0.912500 0.540000 0.530000
1.000000 0.540000 0.530000
0.000000 0.662500 0.530000
0.087500 0.662500 0.530000
0.225000 0.662500 0.530000
0.362500 0.662500 0.530000
0.500000 0.662500 0.530000
0.637500 0.662500 0.530000
0.775000 0.662500 0.530000
0.912500 0.662500 0.530000
1.000000 0.662500 0.530000
0.000000 0.780000 0.530000
0.087500 0.780000 0.530000
0.225000 0.780000 0.530000
0.362500 0.780000 0.530000
0.500000 0.780000 0.530000
0.637500 0.780000 0.530000
0.775000 0.780000 0.530000
0.912500 0.780000 0.530000
1.000000 0.780000 0.530000
0.000000 0.892500 0.530000
0.087500 0.892500 0.530000
0.225000 0.892500 0.530000
0.362500 0.892500 0.530000
0.500000 0.892500 0.530000
0.637500 0.892500 0.530000
0.775000 0.892500 0.530000
0.912500 0.892500 0.530000
1.000000 0.892500 0.530000
0.000000 1.000000 0.530000
0.087500 1.000000 0.530000
0.225000 1.000000 0.530000
0.362500 1.000000 0.530000
0.500000 1.000000 0.530000
0.637500 1.000000 0.530000
0.775000 1.000000 0.530000
0.912500 1.000000 0.530000
1.000000 1.000000 0.530000
0.000000 0.000000 0.646094
0.087500 0.000000 0.646094
0.225000 0.000000 0.646094
0.362500 0.000000 0.646094
0.500000 0.000000 0.646094
0.637500 0.000000 0.646094
0.775000 0.000000 0.646094
0.912500 0.000000 0.646094
1.000000 0.000000 0.646094
0.000000 0.142500 0.646094
0.087500 0.142500 0.646094
0.225000 0.142500 0.646094
0.362500 0.142500 0.646094
0.500000 0.142500 0.646094
0.637500 0.142500 0.646094
0.775000 0.142500 0.646094
0.912500 0.142500 0.646094
1.000000 0.142500 0.646094
0.000000 0.280000 0.646094
0.087500 0.280000 0.646094
0.225000 0.280000 0.646094
0.362500 0.280000 0.646094
0.500000 0.280000 0.646094
0.637500 0.280000 0.646094
0.775000 0.280000 0.646094
0.912500 0.280000 0.646094
1.000000 0.280000 0.646094
0.000000 0.412500 0.646094
0.087500 0.412500 0.646094
0.225000 0.412500 0.646094
0.362500 0.412500 0.646094
0.500000 0.412500 0.646094
0.637500 0.412500 0.646094
0.775000 0.412500 0.646094
0.912500 0.412500 0.646094
1.000000 0.412500 0.646094
0.000000 0.540000 0.646094
0.087500 0.540000 0.646094
0.225000 0.540000 0.646094
0.362500 0.540000 0.646094
0.500000 0.540000 0.646094
0.637500 0.540000 0.646094
0.775000 0.540000 0.646094
0.912500 0.540000 0.646094
1.000000 0.540000 0.646094
0.000000 0.662500 0.646094
0.087500 0.662500 0.646094
0.225000 0.662500 0.646094
0.362500 0.662500 0.646094
0.500000 0.662500 0.646094
0.637500 0.662500 0.646094
0.775000 0.662500 0.646094
0.912500 0.662500 0.646094
1.000000 0.662500 0.646094
0.000000 0.780000 0.646094
0.087500 0.780000 0.646094
0.225000 0.780000 0.646094
0.362500 0.780000 0.646094
0.500000 0.780000 0.646094
0.637500 0.780000 0.646094
0.775000 0.780000 0.646094
0.912500 0.780000 0.646094
1.000000 0.780000 0.646094
0.000000 0.892500 0.646094
0.087500 0.892500 0.646094
0.225000 0.892500 0.646094
0.362500 0.892500 0.646094
0.500000 0.892500 0.646094
0.637500 0.892500 0.646094
0.775000 0.892500 0.646094
0.912500 0.892500 0.646094
1.000000 0.892500 0.646094
0.000000 1.000000 0.646094
0.087500 1.000000 0.646094
0.225000 1.000000 0.646094
0.362500 1.000000 0.646094
0.500000 1.000000 0.646094
0.637500 1.000000 0.646094
0.775000 1.000000 0.646094
0.912500 1.000000 0.646094
1.000000 1.000000 0.646094
0.000000 0.000000 0.761250
0.087500 0.000000 0.761250
0.225000 0.000000 0.761250
0.362500 0.000000 0.761250
0.500000 0.000000 0.761250
0.637500 0.000000 0.761250
0.775000 0.000000 0.761250
0.912500 0.000000 0.761250
1.000000 0.000000 0.761250
0.000000 0.142500 0.761250
0.087500 0.142500 0.761250
0.225000 0.142500 0.761250
0.362500 0.142500 0.761250
0.500000 0.142500 0.761250
0.637500 0.142500 0.761250
0.775000 0.142500 0.761250
0.912500 0.142500 0.761250
1.000000 0.142500 0.761250
0.000000 0.280000 0.761250
0.087500 0.280000 0.761250
0.225000 0.280000 0.761250
0.362500 0.280000 0.761250
0.500000 0.280000 0.761250
0.637500 0.280000 0.761250
0.775000 0.280000 0.761250
0.912500 0.280000 0.761250
1.000000 0.280000 0.761250
0.000000 0.412500 0.761250
0.087500 0.412500 0.761250
0.225000 0.412500 0.761250
0.362500 0.412500 0.761250
0.500000 0.412500 0.761250
0.637500 0.412500 0.761250
0.775000 0.412500 0.761250
0.912500 0.412500 0.761250
1.000000 0.412500 0.761250
0.000000 0.540000 0.761250
0.087500 0.540000 0.761250
0.225000 0.540000 0.761250
0.362500 0.540000 0.761250
0.500000 0.540000 0.761250
0.637500 0.540000 0.761250
0.775000 0.540000 0.761250
0.912500 0.540000 0.761250
1.000000 0.540000 0.761250
0.000000 0.662500 0.761250
0.087500 0.662500 0.761250
0.225000 0.662500 0.761250
0.362500 0.662500 0.761250
0.500000 0.662500 0.761250
0.637500 0.662500 0.761250
0.775000 0.662500 0.761250
0.912500 0.662500 0.761250
1.000000 0.662500 0.761250
0.000000 0.780000 0.761250
0.087500 0.780000 0.761250
0.225000 0.780000 0.761250
0.362500 0.780000 0.761250
0.500000 0.780000 0.761250
0.637500 0.780000 0.761250
0.775000 0.780000 0.761250
0.912500 0.780000 0.761250
1.000000 0.780000 0.761250
0.000000 0.892500 0.761250
0.087500 0.892500 0.761250
0.225000 0.892500 0.761250
0.362500 0.892500 0.761250
0.500000 0.892500 0.761250
0.637500 0.892500 0.761250
0.775000 0.892500 0.761250
0.912500 0.892500 0.761250
1.000000 0.892500 0.761250
0.000000 1.000000 0.761250
0.087500 1.000000 0.761250
0.225000 1.000000 0.761250
0.362500 1.000000 0.761250
0.500000 1.000000 0.761250
0.637500 1.000000 0.761250
0.775000 1.000000 0.761250
0.912500 1.000000 0.761250
1.000000 1.000000 0.761250
0.000000 0.000000 0.878281
0.087500 0.000000 0.878281
0.225000 0.000000 0.878281
0.362500 0.000000 0.878281
0.500000 0.000000 0.878281
0.637500 0.000000 0.878281
0.775000 0.000000 0.878281
0.912500 0.000000 0.878281
1.000000 0.000000 0.878281
0.000000 0.142500 0.878281
0.087500 0.142500 0.878281
0.225000 0.142500 0.878281
0.362500 0.142500 0.878281
0.500000 0.142500 0.878281
0.637500 0.142500 0.878281
0.775000 0.142500 0.878281
0.912500 0.142500 0.878281
1.000000 0.142500 0.878281
0.000000 0.280000 0.878281
0.087500 0.280000 0.878281
0.225000 0.280000 0.878281
0.362500 0.280000 0.878281
0.500000 0.280000 0.878281
0.637500 0.280000 0.878281
0.775000 0.280000 0.878281
0.912500 0.280000 0.878281
1.000000 0.280000 0.878281
0.000000 0.412500 0.878281
0.087500 0.412500 0.878281
0.225000 0.412500 0.878281
0.362500 0.412500 0.878281
0.500000 0.412500 0.878281
0.637500 0.412500 0.878281
0.775000 0.412500 0.878281
0.912500 0.412500 0.878281
1.000000 0.412500 0.878281
0.000000 0.540000 0.878281
0.087500 0.540000 0.878281
0.225000 0.540000 0.878281
0.362500 0.540000 0.878281
0.500000 0.540000 0.878281
0.637500 0.540000 0.878281
0.775000 0.540000 0.878281
0.912500 0.540000 0.878281
1.000000 0.540000 0.878281
0.000000 0.662500 0.878281
0.087500 0.662500 0.878281
0.225000 0.662500 0.878281
0.362500 0.662500 0.878281
0.500000 0.662500 0.878281
0.637500 0.662500 0.878281
0.775000 0.662500 0.878281
0.912500 0.662500 0.878281
1.000000 0.662500 0.878281
0.000000 0.780000 0.878281
0.087500 0.780000 0.878281
0.225000 0.780000 0.878281
0.362500 0.780000 0.878281
0.500000 0.780000 0.878281
0.637500 0.780000 0.878281
0.775000 0.780000 0.878281
0.912500 0.780000 0.878281
1.000000 0.780000 0.878281
0.000000 0.892500 0.878281
0.087500 0.892500 0.878281
0.225000 0.892500 0.878281
0.362500 0.892500 0.878281
0.500000 0.892500 0.878281
0.637500 0.892500 0.878281
0.775000 0.892500 0.878281
0.912500 0.892500 0.878281
1.000000 0.892500 0.878281
0.000000 1.000000 0.878281
0.087500 1.000000 0.878281
0.225000 1.000000 0.878281
0.362500 1.000000 0.878281
0.500000 1.000000 0.878281
0.637500 1.000000 0.878281
0.775000 1.000000 0.878281
0.912500 1.000000 0.878281
1.000000 1.000000 0.878281
0.000000 0.000000 1.000000
0.087500 0.000000 1.000000
0.225000 0.000000 1.000000
0.362500 0.000000 1.000000
0.500000 0.000000 1.000000
0.637500 0.000000 1.000000
0.775000 0.000000 1.000000
0.912500 0.000000 1.000000
1.000000 0.000000 1.000000
0.000000 0.142500 1.000000
0.087500 0.142500 1.000000
0.225000 0.142500 1.000000
0.362500 0.142500 1.000000
0.500000 0.142500 1.000000
0.637500 0.142500 1.000000
0.775000 0.142500 1.000000
0.912500 0.142500 1.000000
1.000000 0.142500 1.000000
0.000000 0.280000 1.000000
0.087500 0.280000 1.000000
0.225000 0.280000 1.000000
0.362500 0.280000 1.000000
0.500000 0.280000 1.000000
0.637500 0.280000 1.000000
0.775000 0.280000 1.000000
0.912500 0.280000 1.000000
1.000000 0.280000 1.000000
0.000000 0.412500 1.000000
0.087500 0.412500 1.000000
0.225000 0.412500 1.000000
0.362500 0.412500 1.000000
0.500000 0.412500 1.000000
0.637500 0.412500 1.000000
0.775000 0.412500 1.000000
0.912500 0.412500 1.000000
1.000000 0.412500 1.000000
0.000000 0.540000 1.000000
0.087500 0.540000 1.000000
0.225000 0.540000 1.000000
0.362500 0.540000 1.000000
0.500000 0.540000 1.000000
0.637500 0.540000 1.000000
0.775000 0.540000 1.000000
0.912500 0.540000 1.000000
1.000000 0.540000 1.000000
0.000000 0.662500 1.000000
0.087500 0.662500 1.000000
0.225000 0.662500 1.000000
0.362500 0.662500 1.000000
0.500000 0.662500 1.000000
0.637500 0.662500 1.000000
0.775000 0.662500 1.000000
0.912500 0.662500 1.000000
1.000000 0.662500 1.000000
0.000000 0.780000 1.000000
0.087500 0.780000 1.000000
0.225000 0.780000 1.000000
0.362500 0.780000 1.000000
0.500000 0.780000 1.000000
0.637500 0.780000 1.000000
0.775000 0.780000 1.000000
0.912500 0.780000 1.000000
1.000000 0.780000 1.000000
0.000000 0.892500 1.000000
0.087500 0.892500 1.000000
0.225000 0.892500 1.000000
0.362500 0.892500 1.000000
0.500000 0.892500 1.000000
0.637500 0.892500 1.000000
0.775000 0.892500 1.000000
0.912500 0.892500 1.000000
1.000000 0.892500 1.000000
0.000000 1.000000 1.000000
0.087500 1.000000 1.000000
0.225000 1.000000 1.000000
0.362500 1.000000 1.000000
0.500000 1.000000 1.000000
0.637500 1.000000 1.000000
0.775000 1.000000 1.000000
0.912500 1.000000 1.000000
1.000000 1.000000 1.000000
