luts/kodak.cube
# Generated by scripts/recipes/generate_demo_luts.py
# Retouch Engine -- demo LUT (safe to redistribute).
# Referenced by the 'film' preset. NOT an authoritative Kodak profile.
# Per-channel curves: R S-curve (+12%), G midtone lift (+0.05), B shadow crush (+0.05).
# For real Kodak/Fuji film stock emulation, install commercial LUTs.
TITLE "Demo Kodak Warm 17x17x17"
LUT_3D_SIZE 5
DOMAIN_MIN 0.0 0.0 0.0
DOMAIN_MAX 1.0 1.0 1.0
0.000000 0.000000 0.000000
0.220000 0.000000 0.000000
0.500000 0.000000 0.000000
0.780000 0.000000 0.000000
1.000000 0.000000 0.000000
0.000000 0.287500 0.000000
0.220000 0.287500 0.000000
0.500000 0.287500 0.000000
0.780000 0.287500 0.000000
1.000000 0.287500 0.000000
0.000000 0.550000 0.000000
0.220000 0.550000 0.000000
0.500000 0.550000 0.000000
0.780000 0.550000 0.000000
1.000000 0.550000 0.000000
0.000000 0.787500 0.000000
0.220000 0.787500 0.000000
0.500000 0.787500 0.000000
0.780000 0.787500 0.000000
1.000000 0.787500 0.000000
0.000000 1.000000 0.000000
0.220000 1.000000 0.000000
0.500000 1.000000 0.000000
0.780000 1.000000 0.000000
1.000000 1.000000 0.000000
0.000000 0.000000 0.278125
0.220000 0.000000 0.278125
0.500000 0.000000 0.278125
0.780000 0.000000 0.278125
1.000000 0.000000 0.278125
0.000000 0.287500 0.278125
0.220000 0.287500 0.278125
0.500000 0.287500 0.278125
0.780000 0.287500 0.278125
1.000000 0.287500 0.278125
0.000000 0.550000 0.278125
0.220000 0.550000 0.278125
0.500000 0.550000 0.278125
0.780000 0.550000 0.278125
1.000000 0.550000 0.278125
0.000000 0.787500 0.278125
0.220000 0.787500 0.278125
0.500000 0.787500 0.278125
0.780000 0.787500 0.278125
1.000000 0.787500 0.278125
0.000000 1.000000 0.278125
0.220000 1.000000 0.278125
0.500000 1.000000 0.278125
0.780000 1.000000 0.278125
1.000000 1.000000 0.278125
0.000000 0.000000 0.525000
0.220000 0.000000 0.525000
0.500000 0.000000 0.525000
0.780000 0.000000 0.525000
1.000000 0.000000 0.525000
0.000000 0.287500 0.525000
0.220000 0.287500 0.525000
0.500000 0.287500 0.525000
0.780000 0.287500 0.525000
1.000000 0.287500 0.525000
0.000000 0.550000 0.525000
0.220000 0.550000 0.525000
0.500000 0.550000 0.525000
0.780000 0.550000 0.525000
1.000000 0.550000 0.525000
0.000000 0.787500 0.525000
0.220000 0.787500 0.525000
0.500000 0.787500 0.525000
0.780000 0.787500 0.525000
1.000000 0.787500 0.525000
0.000000 1.000000 0.525000
0.220000 1.000000 0.525000
0.500000 1.000000 0.525000
0.780000 1.000000 0.525000
1.000000 1.000000 0.525000
0.000000 0.000000 0.759375
0.220000 0.000000 0.759375
0.500000 0.000000 0.759375
0.780000 0.000000 0.759375
1.000000 0.000000 0.759375
0.000000 0.287500 0.759375
0.220000 0.287500 0.759375
0.500000 0.287500 0.759375
0.780000 0.287500 0.759375
1.000000 0.287500 0.759375
0.000000 0.550000 0.759375
0.220000 0.550000 0.759375
0.500000 0.550000 0.759375
0.780000 0.550000 0.759375
1.000000 0.550000 0.759375
0.000000 0.787500 0.759375
0.220000 0.787500 0.759375
0.500000 0.787500 0.759375
0.780000 0.787500 0.759375
1.000000 0.787500 0.759375
0.000000 1.000000 0.759375
0.220000 1.000000 0.759375
0.500000 1.000000 0.759375
0.780000 1.000000 0.759375
1.000000 1.000000 0.759375
0.000000 0.000000 1.000000
0.220000 0.000000 1.000000
0.500000 0.000000 1.000000
0.780000 0.000000 1.000000
1.000000 0.000000 1.000000
0.000000 0.287500 1.000000
0.220000 0.287500 1.000000
0.500000 0.287500 1.000000
0.780000 0.287500 1.000000
1.000000 0.287500 1.000000
0.000000 0.550000 1.000000
0.220000 0.550000 1.000000
0.500000 0.550000 1.000000
0.780000 0.550000 1.000000
1.000000 0.550000 1.000000
0.000000 0.787500 1.000000
0.220000 0.787500 1.000000
0.500000 0.787500 1.000000
0.780000 0.787500 1.000000
1.000000 0.787500 1.000000
0.000000 1.000000 1.000000
0.220000 1.000000 1.000000
0.500000 1.000000 1.000000
0.780000 1.000000 1.000000
1.000000 1.000000 1.000000
