luts/kodak_ish_17.cube
# Generated by scripts/recipes/generate_demo_luts.py
# Retouch Engine -- demo LUT (safe to redistribute).
# NOT an authoritative Kodak profile. An illustrative approximation:
#   R: gentle S-curve (linear contrast +10%)
#   G: midtone lift (+0.04 at L~0.5)
#   B: shadow crush (lower mids lifted via 4x(1-x)^2 weighting)
# For real Kodak/Fuji film stock emulation, install commercial LUTs
# (see luts/ACQUISITION.md).
TITLE "Demo Kodak-ish 17x17x17"
LUT_3D_SIZE 5
DOMAIN_MIN 0.0 0.0 0.0
DOMAIN_MAX 1.0 1.0 1.0
0.000000 0.000000 0.000000
0.225000 0.000000 0.000000
0.500000 0.000000 0.000000
0.775000 0.000000 0.000000
1.000000 0.000000 0.000000
0.000000 0.280000 0.000000
0.225000 0.280000 0.000000
0.500000 0.280000 0.000000
0.775000 0.280000 0.000000
1.000000 0.280000 0.000000
0.000000 0.540000 0.000000
0.225000 0.540000 0.000000
0.500000 0.540000 0.000000
0.775000 0.540000 0.000000
1.000000 0.540000 0.000000
0.000000 0.780000 0.000000
0.225000 0.780000 0.000000
0.500000 0.780000 0.000000
0.775000 0.780000 0.000000
1.000000 0.780000 0.000000
0.000000 1.000000 0.000000
0.225000 1.000000 0.000000
0.500000 1.000000 0.000000
0.775000 1.000000 0.000000
1.000000 1.000000 0.000000
0.000000 0.000000 0.283750
0.225000 0.000000 0.283750
0.500000 0.000000 0.283750
0.775000 0.000000 0.283750
1.000000 0.000000 0.283750
0.000000 0.280000 0.283750
0.225000 0.280000 0.283750
0.500000 0.280000 0.283750
0.775000 0.280000 0.283750
1.000000 0.280000 0.283750
0.000000 0.540000 0.283750
0.225000 0.540000 0.283750
0.500000 0.540000 0.283750
0.775000 0.540000 0.283750
1.000000 0.540000 0.283750
0.000000 0.780000 0.283750
0.225000 0.780000 0.283750
0.500000 0.780000 0.283750
0.775000 0.780000 0.283750
1.000000 0.780000 0.283750
0.000000 1.000000 0.283750
0.225000 1.000000 0.283750
0.500000 1.000000 0.283750
0.775000 1.000000 0.283750
1.000000 1.000000 0.283750
0.000000 0.000000 0.530000
0.225000 0.000000 0.530000
0.500000 0.000000 0.530000
0.775000 0.000000 0.530000
1.000000 0.000000 0.530000
0.000000 0.280000 0.530000
0.225000 0.280000 0.530000
0.500000 0.280000 0.530000
0.775000 0.280000 0.530000
1.000000 0.280000 0.530000
0.000000 0.540000 0.530000
0.225000 0.540000 0.530000
0.500000 0.540000 0.530000
0.775000 0.540000 0.530000
1.000000 0.540000 0.530000
0.000000 0.780000 0.530000
0.225000 0.780000 0.530000
0.500000 0.780000 0.530000
0.775000 0.780000 0.530000
1.000000 0.780000 0.530000
0.000000 1.000000 0.530000
0.225000 1.000000 0.530000
0.500000 1.000000 0.530000
0.775000 1.000000 0.530000
1.000000 1.000000 0.530000
0.000000 0.000000 0.761250
0.225000 0.000000 0.761250
0.500000 0.000000 0.761250
0.775000 0.000000 0.761250
1.000000 0.000000 0.761250
0.000000 0.280000 0.761250
0.225000 0.280000 0.761250
0.500000 0.280000 0.761250
0.775000 0.280000 0.761250
1.000000 0.280000 0.761250
0.000000 0.540000 0.761250
0.225000 0.540000 0.761250
0.500000 0.540000 0.761250
0.775000 0.540000 0.761250
1.000000 0.540000 0.761250
0.000000 0.780000 0.761250
0.225000 0.780000 0.761250
0.500000 0.780000 0.761250
0.775000 0.780000 0.761250
1.000000 0.780000 0.761250
0.000000 1.000000 0.761250
0.225000 1.000000 0.761250
0.500000 1.000000 0.761250
0.775000 1.000000 0.761250
1.000000 1.000000 0.761250
0.000000 0.000000 1.000000
0.225000 0.000000 1.000000
0.500000 0.000000 1.000000
0.775000 0.000000 1.000000
1.000000 0.000000 1.000000
0.000000 0.280000 1.000000
0.225000 0.280000 1.000000
0.500000 0.280000 1.000000
0.775000 0.280000 1.000000
1.000000 0.280000 1.000000
0.000000 0.540000 1.000000
0.225000 0.540000 1.000000
0.500000 0.540000 1.000000
0.775000 0.540000 1.000000
1.000000 0.540000 1.000000
0.000000 0.780000 1.000000
0.225000 0.780000 1.000000
0.500000 0.780000 1.000000
0.775000 0.780000 1.000000
1.000000 0.780000 1.000000
0.000000 1.000000 1.000000
0.225000 1.000000 1.000000
0.500000 1.000000 1.000000
0.775000 1.000000 1.000000
1.000000 1.000000 1.000000
