luts/kodak_ish_17.cube
# Generated by scripts/recipes/generate_demo_luts.py
# Retouch Engine -- demo LUT (safe to redistribute).
# NOT an authoritative Kodak profile. An illustrative approximation:
#   R: gentle S-curve (linear contrast +10%)
#   G: midtone lift (+0.04 at L~0.5)
#   B: shadow crush (lower mids lifted via 4x(1-x)^2 weighting)
# For real Kodak/Fuji film stock emulation, install commercial LUTs
# (see luts/ACQUISITION.md).
TITLE "Demo Kodak-ish 17x17x17"
LUT_3D_SIZE 17
DOMAIN_MIN 0.0 0.0 0.0
DOMAIN_MAX 1.0 1.0 1.0
0.000000 0.000000 0.000000
0.018750 0.000000 0.000000
0.087500 0.000000 0.000000
0.156250 0.000000 0.000000
0.225000 0.000000 0.000000
0.293750 0.000000 0.000000
0.362500 0.000000 0.000000
0.431250 0.000000 0.000000
0.500000 0.000000 0.000000
0.568750 0.000000 0.000000
0.637500 0.000000 0.000000
0.706250 0.000000 0.000000
0.775000 0.000000 0.000000
0.843750 0.000000 0.000000
0.912500 0.000000 0.000000
0.981250 0.000000 0.000000
1.000000 0.000000 0.000000
0.000000 0.071875 0.000000
0.018750 0.071875 0.000000
0.087500 0.071875 0.000000
0.156250 0.071875 0.000000
0.225000 0.071875 0.000000
0.293750 0.071875 0.000000
0.362500 0.071875 0.000000
0.431250 0.071875 0.000000
0.500000 0.071875 0.000000
0.568750 0.071875 0.000000
0.637500 0.071875 0.000000
0.706250 0.071875 0.000000
0.775000 0.071875 0.000000
0.843750 0.071875 0.000000
0.912500 0.071875 0.000000
0.981250 0.071875 0.000000
1.000000 0.071875 0.000000
0.000000 0.142500 0.000000
0.018750 0.142500 0.000000
0.087500 0.142500 0.000000
0.156250 0.142500 0.000000
0.225000 0.142500 0.000000
0.293750 0.142500 0.000000
0.362500 0.142500 0.000000
0.431250 0.142500 0.000000
0.500000 0.142500 0.000000
0.568750 0.142500 0.000000
0.637500 0.142500 0.000000
0.706250 0.142500 0.000000
0.775000 0.142500 0.000000
0.843750 0.142500 0.000000
0.912500 0.142500 0.000000
0.981250 0.142500 0.000000
1.000000 0.142500 0.000000
0.000000 0.211875 0.000000
0.018750 0.211875 0.000000
0.087500 0.211875 0.000000
0.156250 0.211875 0.000000
0.225000 0.211875 0.000000
0.293750 0.211875 0.000000
0.362500 0.211875 0.000000
0.431250 0.211875 0.000000
0.500000 0.211875 0.000000
0.568750 0.211875 0.000000
0.637500 0.211875 0.000000
0.706250 0.211875 0.000000
0.775000 0.211875 0.000000
0.843750 0.211875 0.000000
0.912500 0.211875 0.000000
0.981250 0.211875 0.000000
1.000000 0.211875 0.000000
0.000000 0.280000 0.000000
0.018750 0.280000 0.000000
0.087500 0.280000 0.000000
0.156250 0.280000 0.000000
0.225000 0.280000 0.000000
0.293750 0.280000 0.000000
0.362500 0.280000 0.000000
0.431250 0.280000 0.000000
0.500000 0.280000 0.000000
0.568750 0.280000 0.000000
0.637500 0.280000 0.000000
0.706250 0.280000 0.000000
0.775000 0.280000 0.000000
0.843750 0.280000 0.000000
0.912500 0.280000 0.000000
0.981250 0.280000 0.000000
1.000000 0.280000 0.000000
0.000000 0.346875 0.000000
0.018750 0.346875 0.000000
0.087500 0.346875 0.000000
0.156250 0.346875 0.000000
0.225000 0.346875 0.000000
0.293750 0.346875 0.000000
0.362500 0.346875 0.000000
0.431250 0.346875 0.000000
0.500000 0.346875 0.000000
0.568750 0.346875 0.000000
0.637500 0.346875 0.000000
0.706250 0.346875 0.000000
0.775000 0.346875 0.000000
0.843750 0.346875 0.000000
0.912500 0.346875 0.000000
0.981250 0.346875 0.000000
1.000000 0.346875 0.000000
0.000000 0.412500 0.000000
0.018750 0.412500 0.000000
0.087500 0.412500 0.000000
0.156250 0.412500 0.000000
0.225000 0.412500 0.000000
0.293750 0.412500 0.000000
0.362500 0.412500 0.000000
0.431250 0.412500 0.000000
0.500000 0.412500 0.000000
0.568750 0.412500 0.000000
0.637500 0.412500 0.000000
0.706250 0.412500 0.000000
0.775000 0.412500 0.000000
0.843750 0.412500 0.000000
0.912500 0.412500 0.000000
0.981250 0.412500 0.000000
1.000000 0.412500 0.000000
0.000000 0.476875 0.000000
0.018750 0.476875 0.000000
0.087500 0.476875 0.000000
0.156250 0.476875 0.000000
0.225000 0.476875 0.000000
0.293750 0.476875 0.000000
0.362500 0.476875 0.000000
0.431250 0.476875 0.000000
0.500000 0.476875 0.000000
0.568750 0.476875 0.000000
0.637500 0.476875 0.000000
0.706250 0.476875 0.000000
0.775000 0.476875 0.000000
0.843750 0.476875 0.000000
0.912500 0.476875 0.000000
0.981250 0.476875 0.000000
1.000000 0.476875 0.000000
0.000000 0.540000 0.000000
0.018750 0.540000 0.000000
0.087500 0.540000 0.000000
0.156250 0.540000 0.000000
0.225000 0.540000 0.000000
0.293750 0.540000 0.000000
0.362500 0.540000 0.000000
0.431250 0.540000 0.000000
0.500000 0.540000 0.000000
0.568750 0.540000 0.000000
0.637500 0.540000 0.000000
0.706250 0.540000 0.000000
0.775000 0.540000 0.000000
0.843750 0.540000 0.000000
0.912500 0.540000 0.000000
0.981250 0.540000 0.000000
1.000000 0.540000 0.000000
0.000000 0.601875 0.000000
0.018750 0.601875 0.000000
0.087500 0.601875 0.000000
0.156250 0.601875 0.000000
0.225000 0.601875 0.000000
0.293750 0.601875 0.000000
0.362500 0.601875 0.000000
0.431250 0.601875 0.000000
0.500000 0.601875 0.000000
0.568750 0.601875 0.000000
0.637500 0.601875 0.000000
0.706250 0.601875 0.000000
0.775000 0.601875 0.000000
0.843750 0.601875 0.000000
0.912500 0.601875 0.000000
0.981250 0.601875 0.000000
1.000000 0.601875 0.000000
0.000000 0.662500 0.000000
0.018750 0.662500 0.000000
0.087500 0.662500 0.000000
0.156250 0.662500 0.000000
0.225000 0.662500 0.000000
0.293750 0.662500 0.000000
0.362500 0.662500 0.000000
0.431250 0.662500 0.000000
0.500000 0.662500 0.000000
0.568750 0.662500 0.000000
0.637500 0.662500 0.000000
0.706250 0.662500 0.000000
0.775000 0.662500 0.000000
0.843750 0.662500 0.000000
0.912500 0.662500 0.000000
0.981250 0.662500 0.000000
1.000000 0.662500 0.000000
0.000000 0.721875 0.000000
0.018750 0.721875 0.000000
0.087500 0.721875 0.000000
0.156250 0.721875 0.000000
0.225000 0.721875 0.000000
0.293750 0.721875 0.000000
0.362500 0.721875 0.000000
0.431250 0.721875 0.000000
0.500000 0.721875 0.000000
0.568750 0.721875 0.000000
0.637500 0.721875 0.000000
0.706250 0.721875 0.000000
0.775000 0.721875 0.000000
0.843750 0.721875 0.000000
0.912500 0.721875 0.000000
0.981250 0.721875 0.000000
1.000000 0.721875 0.000000
0.000000 0.780000 0.000000
0.018750 0.780000 0.000000
0.087500 0.780000 0.000000
0.156250 0.780000 0.000000
0.225000 0.780000 0.000000
0.293750 0.780000 0.000000
0.362500 0.780000 0.000000
0.431250 0.780000 0.000000
0.500000 0.780000 0.000000
0.568750 0.780000 0.000000
0.637500 0.780000 0.000000
0.706250 0.780000 0.000000
0.775000 0.780000 0.000000
0.843750 0.780000 0.000000
0.912500 0.780000 0.000000
0.981250 0.780000 0.000000
1.000000 0.780000 0.000000
0.000000 0.836875 0.000000
0.018750 0.836875 0.000000
0.087500 0.836875 0.000000
0.156250 0.836875 0.000000
0.225000 0.836875 0.000000
0.293750 0.836875 0.000000
0.362500 0.836875 0.000000
0.431250 0.836875 0.000000
0.500000 0.836875 0.000000
0.568750 0.836875 0.000000
0.637500 0.836875 0.000000
0.706250 0.836875 0.000000
0.775000 0.836875 0.000000
0.843750 0.836875 0.000000
0.912500 0.836875 0.000000
0.981250 0.836875 0.000000
1.000000 0.836875 0.000000
0.000000 0.892500 0.000000
0.018750 0.892500 0.000000
0.087500 0.892500 0.000000
0.156250 0.892500 0.000000
0.225000 0.892500 0.000000
0.293750 0.892500 0.000000
0.362500 0.892500 0.000000
0.431250 0.892500 0.000000
0.500000 0.892500 0.000000
0.568750 0.892500 0.000000
0.637500 0.892500 0.000000
0.706250 0.892500 0.000000
0.775000 0.892500 0.000000
0.843750 0.892500 0.000000
0.912500 0.892500 0.000000
0.981250 0.892500 0.000000
1.000000 0.892500 0.000000
0.000000 0.946875 0.000000
0.018750 0.946875 0.000000
0.087500 0.946875 0.000000
0.156250 0.946875 0.000000
0.225000 0.946875 0.000000
0.293750 0.946875 0.000000
0.362500 0.946875 0.000000
0.431250 0.946875 0.000000
0.500000 0.946875 0.000000
0.568750 0.946875 0.000000
0.637500 0.946875 0.000000
0.706250 0.946875 0.000000
0.775000 0.946875 0.000000
0.843750 0.946875 0.000000
0.912500 0.946875 0.000000
0.981250 0.946875 0.000000
1.000000 0.946875 0.000000
0.000000 1.000000 0.000000
0.018750 1.000000 0.000000
0.087500 1.000000 0.000000
0.156250 1.000000 0.000000
0.225000 1.000000 0.000000
0.293750 1.000000 0.000000
0.362500 1.000000 0.000000
0.431250 1.000000 0.000000
0.500000 1.000000 0.000000
0.568750 1.000000 0.000000
0.637500 1.000000 0.000000
0.706250 1.000000 0.000000
0.775000 1.000000 0.000000
0.843750 1.000000 0.000000
0.912500 1.000000 0.000000
0.981250 1.000000 0.000000
1.000000 1.000000 0.000000
0.000000 0.000000 0.075684
0.018750 0.000000 0.075684
0.087500 0.000000 0.075684
0.156250 0.000000 0.075684
0.225000 0.000000 0.075684
0.293750 0.000000 0.075684
0.362500 0.000000 0.075684
0.431250 0.000000 0.075684
0.500000 0.000000 0.075684
0.568750 0.000000 0.075684
0.637500 0.000000 0.075684
0.706250 0.000000 0.075684
0.775000 0.000000 0.075684
0.843750 0.000000 0.075684
0.912500 0.000000 0.075684
0.981250 0.000000 0.075684
1.000000 0.000000 0.075684
0.000000 0.071875 0.075684
0.018750 0.071875 0.075684
0.087500 0.071875 0.075684
0.156250 0.071875 0.075684
0.225000 0.071875 0.075684
0.293750 0.071875 0.075684
0.362500 0.071875 0.075684
0.431250 0.071875 0.075684
0.500000 0.071875 0.075684
0.568750 0.071875 0.075684
0.637500 0.071875 0.075684
0.706250 0.071875 0.075684
0.775000 0.071875 0.075684
0.843750 0.071875 0.075684
0.912500 0.071875 0.075684
0.981250 0.071875 0.075684
1.000000 0.071875 0.075684
0.000000 0.142500 0.075684
0.018750 0.142500 0.075684
0.087500 0.142500 0.075684
0.156250 0.142500 0.075684
0.225000 0.142500 0.075684
0.293750 0.142500 0.075684
0.362500 0.142500 0.075684
0.431250 0.142500 0.075684
0.500000 0.142500 0.075684
0.568750 0.142500 0.075684
0.637500 0.142500 0.075684
0.706250 0.142500 0.075684
0.775000 0.142500 0.075684
0.843750 0.142500 0.075684
0.912500 0.142500 0.075684
0.981250 0.142500 0.075684
1.000000 0.142500 0.075684
0.000000 0.211875 0.075684
0.018750 0.211875 0.075684
0.087500 0.211875 0.075684
0.156250 0.211875 0.075684
0.225000 0.211875 0.075684
0.293750 0.211875 0.075684
0.362500 0.211875 0.075684
0.431250 0.211875 0.075684
0.500000 0.211875 0.075684
0.568750 0.211875 0.075684
0.637500 0.211875 0.075684
0.706250 0.211875 0.075684
0.775000 0.211875 0.075684
0.843750 0.211875 0.075684
0.912500 0.211875 0.075684
0.981250 0.211875 0.075684
1.000000 0.211875 0.075684
0.000000 0.280000 0.075684
0.018750 0.280000 0.075684
0.087500 0.280000 0.075684
0.156250 0.280000 0.075684
0.225000 0.280000 0.075684
0.293750 0.280000 0.075684
0.362500 0.280000 0.075684
0.431250 0.280000 0.075684
0.500000 0.280000 0.075684
0.568750 0.280000 0.075684
0.637500 0.280000 0.075684
0.706250 0.280000 0.075684
0.775000 0.280000 0.075684
0.843750 0.280000 0.075684
0.912500 0.280000 0.075684
0.981250 0.280000 0.075684
1.000000 0.280000 0.075684
0.000000 0.346875 0.075684
0.018750 0.346875 0.075684
0.087500 0.346875 0.075684
0.156250 0.346875 0.075684
0.225000 0.346875 0.075684
0.293750 0.346875 0.075684
0.362500 0.346875 0.075684
0.431250 0.346875 0.075684
0.500000 0.346875 0.075684
0.568750 0.346875 0.075684
0.637500 0.346875 0.075684
0.706250 0.346875 0.075684
0.775000 0.346875 0.075684
0.843750 0.346875 0.075684
0.912500 0.346875 0.075684
0.981250 0.346875 0.075684
1.000000 0.346875 0.075684
0.000000 0.412500 0.075684
0.018750 0.412500 0.075684
0.087500 0.412500 0.075684
0.156250 0.412500 0.075684
0.225000 0.412500 0.075684
0.293750 0.412500 0.075684
0.362500 0.412500 0.075684
0.431250 0.412500 0.075684
0.500000 0.412500 0.075684
0.568750 0.412500 0.075684
0.637500 0.412500 0.075684
0.706250 0.412500 0.075684
0.775000 0.412500 0.075684
0.843750 0.412500 0.075684
0.912500 0.412500 0.075684
0.981250 0.412500 0.075684
1.000000 0.412500 0.075684
0.000000 0.476875 0.075684
0.018750 0.476875 0.075684
0.087500 0.476875 0.075684
0.156250 0.476875 0.075684
0.225000 0.476875 0.075684
0.293750 0.476875 0.075684
0.362500 0.476875 0.075684
0.431250 0.476875 0.075684
0.500000 0.476875 0.075684
0.568750 0.476875 0.075684
0.637500 0.476875 0.075684
0.706250 0.476875 0.075684
0.775000 0.476875 0.075684
0.843750 0.476875 0.075684
0.912500 0.476875 0.075684
0.981250 0.476875 0.075684
1.000000 0.476875 0.075684
0.000000 0.540000 0.075684
0.018750 0.540000 0.075684
0.087500 0.540000 0.075684
0.156250 0.540000 0.075684
0.225000 0.540000 0.075684
0.293750 0.540000 0.075684
0.362500 0.540000 0.075684
0.431250 0.540000 0.075684
0.500000 0.540000 0.075684
0.568750 0.540000 0.075684
0.637500 0.540000 0.075684
0.706250 0.540000 0.075684
0.775000 0.540000 0.075684
0.843750 0.540000 0.075684
0.912500 0.540000 0.075684
0.981250 0.540000 0.075684
1.000000 0.540000 0.075684
0.000000 0.601875 0.075684
0.018750 0.601875 0.075684
0.087500 0.601875 0.075684
0.156250 0.601875 0.075684
0.225000 0.601875 0.075684
0.293750 0.601875 0.075684
0.362500 0.601875 0.075684
0.431250 0.601875 0.075684
0.500000 0.601875 0.075684
0.568750 0.601875 0.075684
0.637500 0.601875 0.075684
0.706250 0.601875 0.075684
0.775000 0.601875 0.075684
0.843750 0.601875 0.075684
0.912500 0.601875 0.075684
0.981250 0.601875 0.075684
1.000000 0.601875 0.075684
0.000000 0.662500 0.075684
0.018750 0.662500 0.075684
0.087500 0.662500 0.075684
0.156250 0.662500 0.075684
0.225000 0.662500 0.075684
0.293750 0.662500 0.075684
0.362500 0.662500 0.075684
0.431250 0.662500 0.075684
0.500000 0.662500 0.075684
0.568750 0.662500 0.075684
0.637500 0.662500 0.075684
0.706250 0.662500 0.075684
0.775000 0.662500 0.075684
0.843750 0.662500 0.075684
0.912500 0.662500 0.075684
0.981250 0.662500 0.075684
1.000000 0.662500 0.075684
0.000000 0.721875 0.075684
0.018750 0.721875 0.075684
0.087500 0.721875 0.075684
0.156250 0.721875 0.075684
0.225000 0.721875 0.075684
0.293750 0.721875 0.075684
0.362500 0.721875 0.075684
0.431250 0.721875 0.075684
0.500000 0.721875 0.075684
0.568750 0.721875 0.075684
0.637500 0.721875 0.075684
0.706250 0.721875 0.075684
0.775000 0.721875 0.075684
0.843750 0.721875 0.075684
0.912500 0.721875 0.075684
0.981250 0.721875 0.075684
1.000000 0.721875 0.075684
0.000000 0.780000 0.075684
0.018750 0.780000 0.075684
0.087500 0.780000 0.075684
0.156250 0.780000 0.075684
0.225000 0.780000 0.075684
0.293750 0.780000 0.075684
0.362500 0.780000 0.075684
0.431250 0.780000 0.075684
0.500000 0.780000 0.075684
0.568750 0.780000 0.075684
0.637500 0.780000 0.075684
0.706250 0.780000 0.075684
0.775000 0.780000 0.075684
0.843750 0.780000 0.075684
0.912500 0.780000 0.075684
0.981250 0.780000 0.075684
1.000000 0.780000 0.075684
0.000000 0.836875 0.075684
0.018750 0.836875 0.075684
0.087500 0.836875 0.075684
0.156250 0.836875 0.075684
0.225000 0.836875 0.075684
0.293750 0.836875 0.075684
0.362500 0.836875 0.075684
0.431250 0.836875 0.075684
0.500000 0.836875 0.075684
0.568750 0.836875 0.075684
0.637500 0.836875 0.075684
0.706250 0.836875 0.075684
0.775000 0.836875 0.075684
0.843750 0.836875 0.075684
0.912500 0.836875 0.075684
0.981250 0.836875 0.075684
1.000000 0.836875 0.075684
0.000000 0.892500 0.075684
0.018750 0.892500 0.075684
0.087500 0.892500 0.075684
0.156250 0.892500 0.075684
0.225000 0.892500 0.075684
0.293750 0.892500 0.075684
0.362500 0.892500 0.075684
0.431250 0.892500 0.075684
0.500000 0.892500 0.075684
0.568750 0.892500 0.075684
0.637500 0.892500 0.075684
0.706250 0.892500 0.075684
0.775000 0.892500 0.075684
0.843750 0.892500 0.075684
0.912500 0.892500 0.075684
0.981250 0.892500 0.075684
1.000000 0.892500 0.075684
0.000000 0.946875 0.075684
0.018750 0.946875 0.075684
0.087500 0.946875 0.075684
0.156250 0.946875 0.075684
0.225000 0.946875 0.075684
0.293750 0.946875 0.075684
0.362500 0.946875 0.075684
0.431250 0.946875 0.075684
0.500000 0.946875 0.075684
0.568750 0.946875 0.075684
0.637500 0.946875 0.075684
0.706250 0.946875 0.075684
0.775000 0.946875 0.075684
0.843750 0.946875 0.075684
0.912500 0.946875 0.075684
0.981250 0.946875 0.075684
1.000000 0.946875 0.075684
0.000000 1.000000 0.075684
0.018750 1.000000 0.075684
0.087500 1.000000 0.075684
0.156250 1.000000 0.075684
0.225000 1.000000 0.075684
0.293750 1.000000 0.075684
0.362500 1.000000 0.075684
0.431250 1.000000 0.075684
0.500000 1.000000 0.075684
0.568750 1.000000 0.075684
0.637500 1.000000 0.075684
0.706250 1.000000 0.075684
0.775000 1.000000 0.075684
0.843750 1.000000 0.075684
0.912500 1.000000 0.075684
0.981250 1.000000 0.075684
1.000000 1.000000 0.075684
0.000000 0.000000 0.147969
0.018750 0.000000 0.147969
0.087500 0.000000 0.147969
0.156250 0.000000 0.147969
0.225000 0.000000 0.147969
0.293750 0.000000 0.147969
0.362500 0.000000 0.147969
0.431250 0.000000 0.147969
0.500000 0.000000 0.147969
0.568750 0.000000 0.147969
0.637500 0.000000 0.147969
0.706250 0.000000 0.147969
0.775000 0.000000 0.147969
0.843750 0.000000 0.147969
0.912500 0.000000 0.147969
0.981250 0.000000 0.147969
1.000000 0.000000 0.147969
0.000000 0.071875 0.147969
0.018750 0.071875 0.147969
0.087500 0.071875 0.147969
0.156250 0.071875 0.147969
0.225000 0.071875 0.147969
0.293750 0.071875 0.147969
0.362500 0.071875 0.147969
0.431250 0.071875 0.147969
0.500000 0.071875 0.147969
0.568750 0.071875 0.147969
0.637500 0.071875 0.147969
0.706250 0.071875 0.147969
0.775000 0.071875 0.147969
0.843750 0.071875 0.147969
0.912500 0.071875 0.147969
0.981250 0.071875 0.147969
1.000000 0.071875 0.147969
0.000000 0.142500 0.147969
0.018750 0.142500 0.147969
0.087500 0.142500 0.147969
0.156250 0.142500 0.147969
0.225000 0.142500 0.147969
0.293750 0.142500 0.147969
0.362500 0.142500 0.147969
0.431250 0.142500 0.147969
0.500000 0.142500 0.147969
0.568750 0.142500 0.147969
0.637500 0.142500 0.147969
0.706250 0.142500 0.147969
0.775000 0.142500 0.147969
0.843750 0.142500 0.147969
0.912500 0.142500 0.147969
0.981250 0.142500 0.147969
1.000000 0.142500 0.147969
0.000000 0.211875 0.147969
0.018750 0.211875 0.147969
0.087500 0.211875 0.147969
0.156250 0.211875 0.147969
0.225000 0.211875 0.147969
0.293750 0.211875 0.147969
0.362500 0.211875 0.147969
0.431250 0.211875 0.147969
0.500000 0.211875 0.147969
0.568750 0.211875 0.147969
0.637500 0.211875 0.147969
0.706250 0.211875 0.147969
0.775000 0.211875 0.147969
0.843750 0.211875 0.147969
0.912500 0.211875 0.147969
0.981250 0.211875 0.147969
1.000000 0.211875 0.147969
0.000000 0.280000 0.147969
0.018750 0.280000 0.147969
0.087500 0.280000 0.147969
0.156250 0.280000 0.147969
0.225000 0.280000 0.147969
0.293750 0.280000 0.147969
0.362500 0.280000 0.147969
0.431250 0.280000 0.147969
0.500000 0.280000 0.147969
0.568750 0.280000 0.147969
0.637500 0.280000 0.147969
0.706250 0.280000 0.147969
0.775000 0.280000 0.147969
0.843750 0.280000 0.147969
0.912500 0.280000 0.147969
0.981250 0.280000 0.147969
1.000000 0.280000 0.147969
0.000000 0.346875 0.147969
0.018750 0.346875 0.147969
0.087500 0.346875 0.147969
0.156250 0.346875 0.147969
0.225000 0.346875 0.147969
0.293750 0.346875 0.147969
0.362500 0.346875 0.147969
0.431250 0.346875 0.147969
0.500000 0.346875 0.147969
0.568750 0.346875 0.147969
0.637500 0.346875 0.147969
0.706250 0.346875 0.147969
0.775000 0.346875 0.147969
0.843750 0.346875 0.147969
0.912500 0.346875 0.147969
0.981250 0.346875 0.147969
1.000000 0.346875 0.147969
0.000000 0.412500 0.147969
0.018750 0.412500 0.147969
0.087500 0.412500 0.147969
0.156250 0.412500 0.147969
0.225000 0.412500 0.147969
0.293750 0.412500 0.147969
0.362500 0.412500 0.147969
0.431250 0.412500 0.147969
0.500000 0.412500 0.147969
0.568750 0.412500 0.147969
0.637500 0.412500 0.147969
0.706250 0.412500 0.147969
0.775000 0.412500 0.147969
0.843750 0.412500 0.147969
0.912500 0.412500 0.147969
0.981250 0.412500 0.147969
1.000000 0.412500 0.147969
0.000000 0.476875 0.147969
0.018750 0.476875 0.147969
0.087500 0.476875 0.147969
0.156250 0.476875 0.147969
0.225000 0.476875 0.147969
0.293750 0.476875 0.147969
0.362500 0.476875 0.147969
0.431250 0.476875 0.147969
0.500000 0.476875 0.147969
0.568750 0.476875 0.147969
0.637500 0.476875 0.147969
0.706250 0.476875 0.147969
0.775000 0.476875 0.147969
0.843750 0.476875 0.147969
0.912500 0.476875 0.147969
0.981250 0.476875 0.147969
1.000000 0.476875 0.147969
0.000000 0.540000 0.147969
0.018750 0.540000 0.147969
0.087500 0.540000 0.147969
0.156250 0.540000 0.147969
0.225000 0.540000 0.147969
0.293750 0.540000 0.147969
0.362500 0.540000 0.147969
0.431250 0.540000 0.147969
0.500000 0.540000 0.147969
0.568750 0.540000 0.147969
0.637500 0.540000 0.147969
0.706250 0.540000 0.147969
0.775000 0.540000 0.147969
0.843750 0.540000 0.147969
0.912500 0.540000 0.147969
0.981250 0.540000 0.147969
1.000000 0.540000 0.147969
0.000000 0.601875 0.147969
0.018750 0.601875 0.147969
0.087500 0.601875 0.147969
0.156250 0.601875 0.147969
0.225000 0.601875 0.147969
0.293750 0.601875 0.147969
0.362500 0.601875 0.147969
0.431250 0.601875 0.147969
0.500000 0.601875 0.147969
0.568750 0.601875 0.147969
0.637500 0.601875 0.147969
0.706250 0.601875 0.147969
0.775000 0.601875 0.147969
0.843750 0.601875 0.147969
0.912500 0.601875 0.147969
0.981250 0.601875 0.147969
1.000000 0.601875 0.147969
0.000000 0.662500 0.147969
0.018750 0.662500 0.147969
0.087500 0.662500 0.147969
0.156250 0.662500 0.147969
0.225000 0.662500 0.147969
0.293750 0.662500 0.147969
0.362500 0.662500 0.147969
0.431250 0.662500 0.147969
0.500000 0.662500 0.147969
0.568750 0.662500 0.147969
0.637500 0.662500 0.147969
0.706250 0.662500 0.147969
0.775000 0.662500 0.147969
0.843750 0.662500 0.147969
0.912500 0.662500 0.147969
0.981250 0.662500 0.147969
1.000000 0.662500 0.147969
0.000000 0.721875 0.147969
0.018750 0.721875 0.147969
0.087500 0.721875 0.147969
0.156250 0.721875 0.147969
0.225000 0.721875 0.147969
0.293750 0.721875 0.147969
0.362500 0.721875 0.147969
0.431250 0.721875 0.147969
0.500000 0.721875 0.147969
0.568750 0.721875 0.147969
0.637500 0.721875 0.147969
0.706250 0.721875 0.147969
0.775000 0.721875 0.147969
0.843750 0.721875 0.147969
0.912500 0.721875 0.147969
0.981250 0.721875 0.147969
1.000000 0.721875 0.147969
0.000000 0.780000 0.147969
0.018750 0.780000 0.147969
0.087500 0.780000 0.147969
0.156250 0.780000 0.147969
0.225000 0.780000 0.147969
0.293750 0.780000 0.147969
0.362500 0.780000 0.147969
0.431250 0.780000 0.147969
0.500000 0.780000 0.147969
0.568750 0.780000 0.147969
0.637500 0.780000 0.147969
0.706250 0.780000 0.147969
0.775000 0.780000 0.147969
0.843750 0.780000 0.147969
0.912500 0.780000 0.147969
0.981250 0.780000 0.147969
1.000000 0.780000 0.147969
0.000000 0.836875 0.147969
0.018750 0.836875 0.147969
0.087500 0.836875 0.147969
0.156250 0.836875 0.147969
0.225000 0.836875 0.147969
0.293750 0.836875 0.147969
0.362500 0.836875 0.147969
0.431250 0.836875 0.147969
0.500000 0.836875 0.147969
0.568750 0.836875 0.147969
0.637500 0.836875 0.147969
0.706250 0.836875 0.147969
0.775000 0.836875 0.147969
0.843750 0.836875 0.147969
0.912500 0.836875 0.147969
0.981250 0.836875 0.147969
1.000000 0.836875 0.147969
0.000000 0.892500 0.147969
0.018750 0.892500 0.147969
0.087500 0.892500 0.147969
0.156250 0.892500 0.147969
0.225000 0.892500 0.147969
0.293750 0.892500 0.147969
0.362500 0.892500 0.147969
0.431250 0.892500 0.147969
0.500000 0.892500 0.147969
0.568750 0.892500 0.147969
0.637500 0.892500 0.147969
0.706250 0.892500 0.147969
0.775000 0.892500 0.147969
0.843750 0.892500 0.147969
0.912500 0.892500 0.147969
0.981250 0.892500 0.147969
1.000000 0.892500 0.147969
0.000000 0.946875 0.147969
0.018750 0.946875 0.147969
0.087500 0.946875 0.147969
0.156250 0.946875 0.147969
0.225000 0.946875 0.147969
0.293750 0.946875 0.147969
0.362500 0.946875 0.147969
0.431250 0.946875 0.147969
0.500000 0.946875 0.147969
0.568750 0.946875 0.147969
0.637500 0.946875 0.147969
0.706250 0.946875 0.147969
0.775000 0.946875 0.147969
0.843750 0.946875 0.147969
0.912500 0.946875 0.147969
0.981250 0.946875 0.147969
1.000000 0.946875 0.147969
0.000000 1.000000 0.147969
0.018750 1.000000 0.147969
0.087500 1.000000 0.147969
0.156250 1.000000 0.147969
0.225000 1.000000 0.147969
0.293750 1.000000 0.147969
0.362500 1.000000 0.147969
0.431250 1.000000 0.147969
0.500000 1.000000 0.147969
0.568750 1.000000 0.147969
0.637500 1.000000 0.147969
0.706250 1.000000 0.147969
0.775000 1.000000 0.147969
0.843750 1.000000 0.147969
0.912500 1.000000 0.147969
0.981250 1.000000 0.147969
1.000000 1.000000 0.147969
0.000000 0.000000 0.217207
0.018750 0.000000 0.217207
