luts/kodak.cube
# Generated by scripts/recipes/generate_demo_luts.py
# Retouch Engine -- demo LUT (safe to redistribute).
# Referenced by the 'film' preset. NOT an authoritative Kodak profile.
# Per-channel curves: R S-curve (+12%), G midtone lift (+0.05), B shadow crush (+0.05).
# For real Kodak/Fuji film stock emulation, install commercial LUTs.
TITLE "Demo Kodak Warm 17x17x17"
LUT_3D_SIZE 9
DOMAIN_MIN 0.0 0.0 0.0
DOMAIN_MAX 1.0 1.0 1.0
0.000000 0.000000 0.000000
0.080000 0.000000 0.000000
0.220000 0.000000 0.000000
0.360000 0.000000 0.000000
0.500000 0.000000 0.000000
0.640000 0.000000 0.000000
0.780000 0.000000 0.000000
0.920000 0.000000 0.000000
1.000000 0.000000 0.000000
0.000000 0.146875 0.000000
0.080000 0.146875 0.000000
0.220000 0.146875 0.000000
0.360000 0.146875 0.000000
0.500000 0.146875 0.000000
0.640000 0.146875 0.000000
0.780000 0.146875 0.000000
0.920000 0.146875 0.000000
1.000000 0.146875 0.000000
0.000000 0.287500 0.000000
0.080000 0.287500 0.000000
0.220000 0.287500 0.000000
0.360000 0.287500 0.000000
0.500000 0.287500 0.000000
0.640000 0.287500 0.000000
0.780000 0.287500 0.000000
0.920000 0.287500 0.000000
1.000000 0.287500 0.000000
0.000000 0.421875 0.000000
0.080000 0.421875 0.000000
0.220000 0.421875 0.000000
0.360000 0.421875 0.000000
0.500000 0.421875 0.000000
0.640000 0.421875 0.000000
0.780000 0.421875 0.000000
0.920000 0.421875 0.000000
1.000000 0.421875 0.000000
0.000000 0.550000 0.000000
0.080000 0.550000 0.000000
0.220000 0.550000 0.000000
0.360000 0.550000 0.000000
0.500000 0.550000 0.000000
0.640000 0.550000 0.000000
0.780000 0.550000 0.000000
0.920000 0.550000 0.000000
1.000000 0.550000 0.000000
0.000000 0.671875 0.000000
0.080000 0.671875 0.000000
0.220000 0.671875 0.000000
0.360000 0.671875 0.000000
0.500000 0.671875 0.000000
0.640000 0.671875 0.000000
0.780000 0.671875 0.000000
0.920000 0.671875 0.000000
1.000000 0.671875 0.000000
0.000000 0.787500 0.000000
0.080000 0.787500 0.000000
0.220000 0.787500 0.000000
0.360000 0.787500 0.000000
0.500000 0.787500 0.000000
0.640000 0.787500 0.000000
0.780000 0.787500 0.000000
0.920000 0.787500 0.000000
1.000000 0.787500 0.000000
0.000000 0.896875 0.000000
0.080000 0.896875 0.000000
0.220000 0.896875 0.000000
0.360000 0.896875 0.000000
0.500000 0.896875 0.000000
0.640000 0.896875 0.000000
0.780000 0.896875 0.000000
0.920000 0.896875 0.000000
1.000000 0.896875 0.000000
0.000000 1.000000 0.000000
0.080000 1.000000 0.000000
0.220000 1.000000 0.000000
0.360000 1.000000 0.000000
0.500000 1.000000 0.000000
0.640000 1.000000 0.000000
0.780000 1.000000 0.000000
0.920000 1.000000 0.000000
1.000000 1.000000 0.000000
0.000000 0.000000 0.144141
0.080000 0.000000 0.144141
0.220000 0.000000 0.144141
0.360000 0.000000 0.144141
0.500000 0.000000 0.144141
0.640000 0.000000 0.144141
0.780000 0.000000 0.144141
0.920000 0.000000 0.144141
1.000000 0.000000 0.144141
0.000000 0.146875 0.144141
0.080000 0.146875 0.144141
0.220000 0.146875 0.144141
0.360000 0.146875 0.144141
0.500000 0.146875 0.144141
0.640000 0.146875 0.144141
0.780000 0.146875 0.144141
0.920000 0.146875 0.144141
1.000000 0.146875 0.144141
0.000000 0.287500 0.144141
0.080000 0.287500 0.144141
0.220000 0.287500 0.144141
0.360000 0.287500 0.144141
0.500000 0.287500 0.144141
0.640000 0.287500 0.144141
0.780000 0.287500 0.144141
0.920000 0.287500 0.144141
1.000000 0.287500 0.144141
0.000000 0.421875 0.144141
0.080000 0.421875 0.144141
0.220000 0.421875 0.144141
0.360000 0.421875 0.144141
0.500000 0.421875 0.144141
0.640000 0.421875 0.144141
0.780000 0.421875 0.144141
0.920000 0.421875 0.144141
1.000000 0.421875 0.144141
0.000000 0.550000 0.144141
0.080000 0.550000 0.144141
0.220000 0.550000 0.144141
0.360000 0.550000 0.144141
0.500000 0.550000 0.144141
0.640000 0.550000 0.144141
0.780000 0.550000 0.144141
0.920000 0.550000 0.144141
1.000000 0.550000 0.144141
0.000000 0.671875 0.144141
0.080000 0.671875 0.144141
0.220000 0.671875 0.144141
0.360000 0.671875 0.144141
0.500000 0.671875 0.144141
0.640000 0.671875 0.144141
0.780000 0.671875 0.144141
0.920000 0.671875 0.144141
1.000000 0.671875 0.144141
0.000000 0.787500 0.144141
0.080000 0.787500 0.144141
0.220000 0.787500 0.144141
0.360000 0.787500 0.144141
0.500000 0.787500 0.144141
0.640000 0.787500 0.144141
0.780000 0.787500 0.144141
0.920000 0.787500 0.144141
1.000000 0.787500 0.144141
0.000000 0.896875 0.144141
0.080000 0.896875 0.144141
0.220000 0.896875 0.144141
0.360000 0.896875 0.144141
0.500000 0.896875 0.144141
0.640000 0.896875 0.144141
0.780000 0.896875 0.144141
0.920000 0.896875 0.144141
1.000000 0.896875 0.144141
0.000000 1.000000 0.144141
0.080000 1.000000 0.144141
0.220000 1.000000 0.144141
0.360000 1.000000 0.144141
0.500000 1.000000 0.144141
0.640000 1.000000 0.144141
0.780000 1.000000 0.144141
0.920000 1.000000 0.144141
1.000000 1.000000 0.144141
0.000000 0.000000 0.278125
0.080000 0.000000 0.278125
0.220000 0.000000 0.278125
0.360000 0.000000 0.278125
0.500000 0.000000 0.278125
0.640000 0.000000 0.278125
0.780000 0.000000 0.278125
0.920000 0.000000 0.278125
1.000000 0.000000 0.278125
0.000000 0.146875 0.278125
0.080000 0.146875 0.278125
0.220000 0.146875 0.278125
0.360000 0.146875 0.278125
0.500000 0.146875 0.278125
0.640000 0.146875 0.278125
0.780000 0.146875 0.278125
0.920000 0.146875 0.278125
1.000000 0.146875 0.278125
0.000000 0.287500 0.278125
0.080000 0.287500 0.278125
0.220000 0.287500 0.278125
0.360000 0.287500 0.278125
0.500000 0.287500 0.278125
0.640000 0.287500 0.278125
0.780000 0.287500 0.278125
0.920000 0.287500 0.278125
1.000000 0.287500 0.278125
0.000000 0.421875 0.278125
0.080000 0.421875 0.278125
0.220000 0.421875 0.278125
0.360000 0.421875 0.278125
0.500000 0.421875 0.278125
0.640000 0.421875 0.278125
0.780000 0.421875 0.278125
0.920000 0.421875 0.278125
1.000000 0.421875 0.278125
0.000000 0.550000 0.278125
0.080000 0.550000 0.278125
0.220000 0.550000 0.278125
0.360000 0.550000 0.278125
0.500000 0.550000 0.278125
0.640000 0.550000 0.278125
0.780000 0.550000 0.278125
0.920000 0.550000 0.278125
1.000000 0.550000 0.278125
0.000000 0.671875 0.278125
0.080000 0.671875 0.278125
0.220000 0.671875 0.278125
0.360000 0.671875 0.278125
0.500000 0.671875 0.278125
0.640000 0.671875 0.278125
0.780000 0.671875 0.278125
0.920000 0.671875 0.278125
1.000000 0.671875 0.278125
0.000000 0.787500 0.278125
0.080000 0.787500 0.278125
0.220000 0.787500 0.278125
0.360000 0.787500 0.278125
0.500000 0.787500 0.278125
0.640000 0.787500 0.278125
0.780000 0.787500 0.278125
0.920000 0.787500 0.278125
1.000000 0.787500 0.278125
0.000000 0.896875 0.278125
0.080000 0.896875 0.278125
0.220000 0.896875 0.278125
0.360000 0.896875 0.278125
0.500000 0.896875 0.278125
0.640000 0.896875 0.278125
0.780000 0.896875 0.278125
0.920000 0.896875 0.278125
1.000000 0.896875 0.278125
0.000000 1.000000 0.278125
0.080000 1.000000 0.278125
0.220000 1.000000 0.278125
0.360000 1.000000 0.278125
0.500000 1.000000 0.278125
0.640000 1.000000 0.278125
0.780000 1.000000 0.278125
0.920000 1.000000 0.278125
1.000000 1.000000 0.278125
0.000000 0.000000 0.404297
0.080000 0.000000 0.404297
0.220000 0.000000 0.404297
0.360000 0.000000 0.404297
0.500000 0.000000 0.404297
0.640000 0.000000 0.404297
0.780000 0.000000 0.404297
0.920000 0.000000 0.404297
1.000000 0.000000 0.404297
0.000000 0.146875 0.404297
0.080000 0.146875 0.404297
0.220000 0.146875 0.404297
0.360000 0.146875 0.404297
0.500000 0.146875 0.404297
0.640000 0.146875 0.404297
0.780000 0.146875 0.404297
0.920000 0.146875 0.404297
1.000000 0.146875 0.404297
0.000000 0.287500 0.404297
0.080000 0.287500 0.404297
0.220000 0.287500 0.404297
0.360000 0.287500 0.404297
0.500000 0.287500 0.404297
0.640000 0.287500 0.404297
0.780000 0.287500 0.404297
0.920000 0.287500 0.404297
1.000000 0.287500 0.404297
0.000000 0.421875 0.404297
0.080000 0.421875 0.404297
0.220000 0.421875 0.404297
0.360000 0.421875 0.404297
0.500000 0.421875 0.404297
0.640000 0.421875 0.404297
0.780000 0.421875 0.404297
0.920000 0.421875 0.404297
1.000000 0.421875 0.404297
0.000000 0.550000 0.404297
0.080000 0.550000 0.404297
0.220000 0.550000 0.404297
0.360000 0.550000 0.404297
0.500000 0.550000 0.404297
0.640000 0.550000 0.404297
0.780000 0.550000 0.404297
0.920000 0.550000 0.404297
1.000000 0.550000 0.404297
0.000000 0.671875 0.404297
0.080000 0.671875 0.404297
0.220000 0.671875 0.404297
0.360000 0.671875 0.404297
0.500000 0.671875 0.404297
0.640000 0.671875 0.404297
0.780000 0.671875 0.404297
0.920000 0.671875 0.404297
1.000000 0.671875 0.404297
0.000000 0.787500 0.404297
0.080000 0.787500 0.404297
0.220000 0.787500 0.404297
0.360000 0.787500 0.404297
0.500000 0.787500 0.404297
0.640000 0.787500 0.404297
0.780000 0.787500 0.404297
0.920000 0.787500 0.404297
1.000000 0.787500 0.404297
0.000000 0.896875 0.404297
0.080000 0.896875 0.404297
0.220000 0.896875 0.404297
0.360000 0.896875 0.404297
0.500000 0.896875 0.404297
0.640000 0.896875 0.404297
0.780000 0.896875 0.404297
0.920000 0.896875 0.404297
1.000000 0.896875 0.404297
0.000000 1.000000 0.404297
0.080000 1.000000 0.404297
0.220000 1.000000 0.404297
0.360000 1.000000 0.404297
0.500000 1.000000 0.404297
0.640000 1.000000 0.404297
0.780000 1.000000 0.404297
0.920000 1.000000 0.404297
1.000000 1.000000 0.404297
0.000000 0.000000 0.525000
0.080000 0.000000 0.525000
0.220000 0.000000 0.525000
0.360000 0.000000 0.525000
0.500000 0.000000 0.525000
0.640000 0.000000 0.525000
0.780000 0.000000 0.525000
0.920000 0.000000 0.525000
1.000000 0.000000 0.525000
0.000000 0.146875 0.525000
0.080000 0.146875 0.525000
0.220000 0.146875 0.525000
0.360000 0.146875 0.525000
0.500000 0.146875 0.525000
0.640000 0.146875 0.525000
0.780000 0.146875 0.525000
0.920000 0.146875 0.525000
1.000000 0.146875 0.525000
0.000000 0.287500 0.525000
0.080000 0.287500 0.525000
0.220000 0.287500 0.525000
0.360000 0.287500 0.525000
0.500000 0.287500 0.525000
0.640000 0.287500 0.525000
0.780000 0.287500 0.525000
0.920000 0.287500 0.525000
1.000000 0.287500 0.525000
0.000000 0.421875 0.525000
0.080000 0.421875 0.525000
0.220000 0.421875 0.525000
0.360000 0.421875 0.525000
0.500000 0.421875 0.525000
0.640000 0.421875 0.525000
0.780000 0.421875 0.525000
0.920000 0.421875 0.525000
1.000000 0.421875 0.525000
0.000000 0.550000 0.525000
0.080000 0.550000 0.525000
0.220000 0.550000 0.525000
0.360000 0.550000 0.525000
0.500000 0.550000 0.525000
0.640000 0.550000 0.525000
0.780000 0.550000 0.525000
0.920000 0.550000 0.525000
1.000000 0.550000 0.525000
0.000000 0.671875 0.525000
0.080000 0.671875 0.525000
0.220000 0.671875 0.525000
0.360000 0.671875 0.525000
0.500000 0.671875 0.525000
0.640000 0.671875 0.525000
0.780000 0.671875 0.525000
0.920000 0.671875 0.525000
1.000000 0.671875 0.525000
0.000000 0.787500 0.525000
0.080000 0.787500 0.525000
0.220000 0.787500 0.525000
0.360000 0.787500 0.525000
0.500000 0.787500 0.525000
0.640000 0.787500 0.525000
0.780000 0.787500 0.525000
0.920000 0.787500 0.525000
1.000000 0.787500 0.525000
0.000000 0.896875 0.525000
0.080000 0.896875 0.525000
0.220000 0.896875 0.525000
0.360000 0.896875 0.525000
0.500000 0.896875 0.525000
0.640000 0.896875 0.525000
0.780000 0.896875 0.525000
0.920000 0.896875 0.525000
1.000000 0.896875 0.525000
0.000000 1.000000 0.525000
0.080000 1.000000 0.525000
0.220000 1.000000 0.525000
0.360000 1.000000 0.525000
0.500000 1.000000 0.525000
0.640000 1.000000 0.525000
0.780000 1.000000 0.525000
0.920000 1.000000 0.525000
1.000000 1.000000 0.525000
0.000000 0.000000 0.642578
0.080000 0.000000 0.642578
0.220000 0.000000 0.642578
0.360000 0.000000 0.642578
0.500000 0.000000 0.642578
0.640000 0.000000 0.642578
0.780000 0.000000 0.642578
0.920000 0.000000 0.642578
1.000000 0.000000 0.642578
0.000000 0.146875 0.642578
0.080000 0.146875 0.642578
0.220000 0.146875 0.642578
0.360000 0.146875 0.642578
0.500000 0.146875 0.642578
0.640000 0.146875 0.642578
0.780000 0.146875 0.642578
0.920000 0.146875 0.642578
1.000000 0.146875 0.642578
0.000000 0.287500 0.642578
0.080000 0.287500 0.642578
0.220000 0.287500 0.642578
0.360000 0.287500 0.642578
0.500000 0.287500 0.642578
0.640000 0.287500 0.642578
0.780000 0.287500 0.642578
0.920000 0.287500 0.642578
1.000000 0.287500 0.642578
0.000000 0.421875 0.642578
0.080000 0.421875 0.642578
0.220000 0.421875 0.642578
0.360000 0.421875 0.642578
0.500000 0.421875 0.642578
0.640000 0.421875 0.642578
0.780000 0.421875 0.642578
0.920000 0.421875 0.642578
1.000000 0.421875 0.642578
0.000000 0.550000 0.642578
0.080000 0.550000 0.642578
0.220000 0.550000 0.642578
0.360000 0.550000 0.642578
0.500000 0.550000 0.642578
0.640000 0.550000 0.642578
0.780000 0.550000 0.642578
0.920000 0.550000 0.642578
1.000000 0.550000 0.642578
0.000000 0.671875 0.642578
0.080000 0.671875 0.642578
0.220000 0.671875 0.642578
0.360000 0.671875 0.642578
0.500000 0.671875 0.642578
0.640000 0.671875 0.642578
0.780000 0.671875 0.642578
0.920000 0.671875 0.642578
1.000000 0.671875 0.642578
0.000000 0.787500 0.642578
0.080000 0.787500 0.642578
0.220000 0.787500 0.642578
0.360000 0.787500 0.642578
0.500000 0.787500 0.642578
0.640000 0.787500 0.642578
0.780000 0.787500 0.642578
0.920000 0.787500 0.642578
1.000000 0.787500 0.642578
0.000000 0.896875 0.642578
0.080000 0.896875 0.642578
0.220000 0.896875 0.642578
0.360000 0.896875 0.642578
0.500000 0.896875 0.642578
0.640000 0.896875 0.642578
0.780000 0.896875 0.642578
0.920000 0.896875 0.642578
1.000000 0.896875 0.642578
0.000000 1.000000 0.642578
0.080000 1.000000 0.642578
0.220000 1.000000 0.642578
0.360000 1.000000 0.642578
0.500000 1.000000 0.642578
0.640000 1.000000 0.642578
0.780000 1.000000 0.642578
0.920000 1.000000 0.642578
1.000000 1.000000 0.642578
0.000000 0.000000 0.759375
0.080000 0.000000 0.759375
0.220000 0.000000 0.759375
0.360000 0.000000 0.759375
0.500000 0.000000 0.759375
0.640000 0.000000 0.759375
0.780000 0.000000 0.759375
0.920000 0.000000 0.759375
1.000000 0.000000 0.759375
0.000000 0.146875 0.759375
0.080000 0.146875 0.759375
0.220000 0.146875 0.759375
0.360000 0.146875 0.759375
0.500000 0.146875 0.759375
0.640000 0.146875 0.759375
0.780000 0.146875 0.759375
0.920000 0.146875 0.759375
1.000000 0.146875 0.759375
0.000000 0.287500 0.759375
0.080000 0.287500 0.759375
0.220000 0.287500 0.759375
0.360000 0.287500 0.759375
0.500000 0.287500 0.759375
0.640000 0.287500 0.759375
0.780000 0.287500 0.759375
0.920000 0.287500 0.759375
1.000000 0.287500 0.759375
0.000000 0.421875 0.759375
0.080000 0.421875 0.759375
0.220000 0.421875 0.759375
0.360000 0.421875 0.759375
0.500000 0.421875 0.759375
0.640000 0.421875 0.759375
0.780000 0.421875 0.759375
0.920000 0.421875 0.759375
1.000000 0.421875 0.759375
0.000000 0.550000 0.759375
0.080000 0.550000 0.759375
0.220000 0.550000 0.759375
0.360000 0.550000 0.759375
0.500000 0.550000 0.759375
0.640000 0.550000 0.759375
0.780000 0.550000 0.759375
0.920000 0.550000 0.759375
1.000000 0.550000 0.759375
0.000000 0.671875 0.759375
0.080000 0.671875 0.759375
0.220000 0.671875 0.759375
0.360000 0.671875 0.759375
0.500000 0.671875 0.759375
0.640000 0.671875 0.759375
0.780000 0.671875 0.759375
0.920000 0.671875 0.759375
1.000000 0.671875 0.759375
0.000000 0.787500 0.759375
0.080000 0.787500 0.759375
0.220000 0.787500 0.759375
0.360000 0.787500 0.759375
0.500000 0.787500 0.759375
0.640000 0.787500 0.759375
0.780000 0.787500 0.759375
0.920000 0.787500 0.759375
1.000000 0.787500 0.759375
0.000000 0.896875 0.759375
0.080000 0.896875 0.759375
0.220000 0.896875 0.759375
0.360000 0.896875 0.759375
0.500000 0.896875 0.759375
0.640000 0.896875 0.759375
0.780000 0.896875 0.759375
0.920000 0.896875 0.759375
1.000000 0.896875 0.759375
0.000000 1.000000 0.759375
0.080000 1.000000 0.759375
0.220000 1.000000 0.759375
0.360000 1.000000 0.759375
0.500000 1.000000 0.759375
0.640000 1.000000 0.759375
0.780000 1.000000 0.759375
0.920000 1.000000 0.759375
1.000000 1.000000 0.759375
0.000000 0.000000 0.877734
0.080000 0.000000 0.877734
0.220000 0.000000 0.877734
0.360000 0.000000 0.877734
0.500000 0.000000 0.877734
0.640000 0.000000 0.877734
0.780000 0.000000 0.877734
0.920000 0.000000 0.877734
1.000000 0.000000 0.877734
0.000000 0.146875 0.877734
0.080000 0.146875 0.877734
0.220000 0.146875 0.877734
0.360000 0.146875 0.877734
0.500000 0.146875 0.877734
0.640000 0.146875 0.877734
0.780000 0.146875 0.877734
0.920000 0.146875 0.877734
1.000000 0.146875 0.877734
0.000000 0.287500 0.877734
0.080000 0.287500 0.877734
0.220000 0.287500 0.877734
0.360000 0.287500 0.877734
0.500000 0.287500 0.877734
0.640000 0.287500 0.877734
0.780000 0.287500 0.877734
0.920000 0.287500 0.877734
1.000000 0.287500 0.877734
0.000000 0.421875 0.877734
0.080000 0.421875 0.877734
0.220000 0.421875 0.877734
0.360000 0.421875 0.877734
0.500000 0.421875 0.877734
0.640000 0.421875 0.877734
0.780000 0.421875 0.877734
0.920000 0.421875 0.877734
1.000000 0.421875 0.877734
0.000000 0.550000 0.877734
0.080000 0.550000 0.877734
0.220000 0.550000 0.877734
0.360000 0.550000 0.877734
0.500000 0.550000 0.877734
0.640000 0.550000 0.877734
0.780000 0.550000 0.877734
0.920000 0.550000 0.877734
1.000000 0.550000 0.877734
0.000000 0.671875 0.877734
0.080000 0.671875 0.877734
0.220000 0.671875 0.877734
0.360000 0.671875 0.877734
0.500000 0.671875 0.877734
0.640000 0.671875 0.877734
0.780000 0.671875 0.877734
0.920000 0.671875 0.877734
1.000000 0.671875 0.877734
0.000000 0.787500 0.877734
0.080000 0.787500 0.877734
0.220000 0.787500 0.877734
0.360000 0.787500 0.877734
0.500000 0.787500 0.877734
0.640000 0.787500 0.877734
0.780000 0.787500 0.877734
0.920000 0.787500 0.877734
1.000000 0.787500 0.877734
0.000000 0.896875 0.877734
0.080000 0.896875 0.877734
0.220000 0.896875 0.877734
0.360000 0.896875 0.877734
0.500000 0.896875 0.877734
0.640000 0.896875 0.877734
0.780000 0.896875 0.877734
0.920000 0.896875 0.877734
1.000000 0.896875 0.877734
0.000000 1.000000 0.877734
0.080000 1.000000 0.877734
0.220000 1.000000 0.877734
0.360000 1.000000 0.877734
0.500000 1.000000 0.877734
0.640000 1.000000 0.877734
0.780000 1.000000 0.877734
0.920000 1.000000 0.877734
1.000000 1.000000 0.877734
0.000000 0.000000 1.000000
0.080000 0.000000 1.000000
0.220000 0.000000 1.000000
0.360000 0.000000 1.000000
0.500000 0.000000 1.000000
0.640000 0.000000 1.000000
0.780000 0.000000 1.000000
0.920000 0.000000 1.000000
1.000000 0.000000 1.000000
0.000000 0.146875 1.000000
0.080000 0.146875 1.000000
0.220000 0.146875 1.000000
0.360000 0.146875 1.000000
0.500000 0.146875 1.000000
0.640000 0.146875 1.000000
0.780000 0.146875 1.000000
0.920000 0.146875 1.000000
1.000000 0.146875 1.000000
0.000000 0.287500 1.000000
0.080000 0.287500 1.000000
0.220000 0.287500 1.000000
0.360000 0.287500 1.000000
0.500000 0.287500 1.000000
0.640000 0.287500 1.000000
0.780000 0.287500 1.000000
0.920000 0.287500 1.000000
1.000000 0.287500 1.000000
0.000000 0.421875 1.000000
0.080000 0.421875 1.000000
0.220000 0.421875 1.000000
0.360000 0.421875 1.000000
0.500000 0.421875 1.000000
0.640000 0.421875 1.000000
0.780000 0.421875 1.000000
0.920000 0.421875 1.000000
1.000000 0.421875 1.000000
0.000000 0.550000 1.000000
0.080000 0.550000 1.000000
0.220000 0.550000 1.000000
0.360000 0.550000 1.000000
0.500000 0.550000 1.000000
0.640000 0.550000 1.000000
0.780000 0.550000 1.000000
0.920000 0.550000 1.000000
1.000000 0.550000 1.000000
0.000000 0.671875 1.000000
0.080000 0.671875 1.000000
0.220000 0.671875 1.000000
0.360000 0.671875 1.000000
0.500000 0.671875 1.000000
0.640000 0.671875 1.000000
0.780000 0.671875 1.000000
0.920000 0.671875 1.000000
1.000000 0.671875 1.000000
0.000000 0.787500 1.000000
0.080000 0.787500 1.000000
0.220000 0.787500 1.000000
0.360000 0.787500 1.000000
0.500000 0.787500 1.000000
0.640000 0.787500 1.000000
0.780000 0.787500 1.000000
0.920000 0.787500 1.000000
1.000000 0.787500 1.000000
0.000000 0.896875 1.000000
0.080000 0.896875 1.000000
0.220000 0.896875 1.000000
0.360000 0.896875 1.000000
0.500000 0.896875 1.000000
0.640000 0.896875 1.000000
0.780000 0.896875 1.000000
0.920000 0.896875 1.000000
1.000000 0.896875 1.000000
0.000000 1.000000 1.000000
0.080000 1.000000 1.000000
0.220000 1.000000 1.000000
0.360000 1.000000 1.000000
0.500000 1.000000 1.000000
0.640000 1.000000 1.000000
0.780000 1.000000 1.000000
0.920000 1.000000 1.000000
1.000000 1.000000 1.000000
