luts/teal_orange_17.cube
# Generated by scripts/recipes/generate_demo_luts.py
# Retouch Engine -- demo LUT (safe to redistribute).
# Complementary split-tone: shadows -> teal (B+ R-), highlights -> orange (R+ B-).
# Gaussian bells peaked at L=0.2 and L=0.8; midtones and endpoints untouched.
# Demonstrates luminance-masked complementary grading.
TITLE "Demo Teal & Orange 17x17x17"
LUT_3D_SIZE 5
DOMAIN_MIN 0.0 0.0 0.0
DOMAIN_MAX 1.0 1.0 1.0
0.000000 0.000000 0.000000
0.248777 0.000000 0.001223
0.495683 0.000000 0.004317
0.741107 0.000000 0.008893
0.987334 0.000000 0.012666
0.000000 0.250000 0.010516
0.236700 0.250000 0.013300
0.487602 0.250000 0.012398
0.741324 0.249999 0.008676
0.995412 0.249993 0.004588
0.000000 0.499998 0.007108
0.246619 0.499986 0.003381
0.498952 0.499929 0.001048
0.750470 0.499725 0.000000
1.000000 0.499178 0.000000
0.001057 0.749577 0.000000
0.253398 0.748853 0.000000
0.507132 0.747621 0.000000
0.761268 0.746244 0.000000
1.000000 0.745528 0.000000
0.012413 0.995862 0.000000
0.263294 0.995569 0.000000
0.510492 0.996503 0.000000
0.755871 0.998043 0.000000
1.000000 0.999301 0.000000
0.000000 0.000000 0.250249
0.247956 0.000000 0.252044
0.494215 0.000000 0.255785
0.739587 0.000000 0.260413
0.986727 0.000000 0.263273
0.000000 0.250000 0.261806
0.236577 0.250000 0.263423
0.488665 0.250000 0.261335
0.742788 0.249998 0.257212
0.996544 0.249987 0.253456
0.000000 0.499996 0.255708
0.247563 0.499975 0.252437
0.499502 0.499884 0.250498
0.751015 0.499589 0.248985
1.000000 0.498877 0.246676
0.001708 0.749389 0.248292
0.254521 0.748486 0.245479
0.508595 0.747134 0.241405
0.762347 0.745884 0.237653
1.000000 0.745560 0.236681
0.013130 0.995623 0.236870
0.262711 0.995763 0.237289
0.508980 0.997007 0.241020
0.754394 0.998535 0.245606
1.000000 0.999579 0.248738
0.000000 0.000000 0.500656
0.246895 0.000000 0.503105
0.492627 0.000000 0.507373
0.738277 0.000000 0.511723
0.986571 0.000000 0.513429
0.000000 0.250000 0.512767
0.236909 0.250000 0.513091
0.489969 0.249999 0.510031
0.744195 0.249996 0.505805
0.997501 0.249976 0.502499
0.000000 0.499992 0.504434
0.248343 0.499957 0.501657
0.500000 0.499817 0.500000
0.751657 0.499404 0.498343
1.000000 0.498514 0.495566
0.002499 0.749143 0.497501
0.255805 0.748061 0.494195
0.510031 0.746656 0.489969
0.763091 0.745636 0.486909
1.000000 0.745744 0.487233
0.013429 0.995524 0.486571
0.261723 0.996092 0.488277
0.507373 0.997542 0.492627
0.753105 0.998965 0.496895
1.000000 0.999781 0.499344
0.000000 0.000000 0.751262
0.245606 0.000000 0.754394
0.491020 0.000000 0.758980
0.737289 0.000000 0.762711
0.986870 0.000000 0.763130
0.000000 0.250000 0.763319
0.237653 0.250000 0.762347
0.491405 0.249999 0.758595
0.745479 0.249992 0.754521
0.998292 0.249958 0.751708
0.000000 0.499986 0.753324
0.248985 0.499927 0.751015
0.500498 0.499718 0.749502
0.752437 0.499163 0.747563
1.000000 0.498093 0.744292
0.003456 0.748835 0.746544
0.257212 0.747594 0.742788
0.511335 0.746222 0.738665
0.763423 0.745526 0.736577
1.000000 0.746065 0.738194
0.013273 0.995576 0.736727
0.260413 0.996529 0.739587
0.505785 0.998072 0.744215
0.752044 0.999319 0.747956
1.000000 0.999917 0.749751
0.000000 0.000000 1.000000
0.244129 0.000000 1.000000
0.489508 0.000000 1.000000
0.736706 0.000000 1.000000
0.987587 0.000000 1.000000
0.000000 0.250000 1.000000
0.238732 0.250000 1.000000
0.492868 0.249998 1.000000
0.746602 0.249986 1.000000
0.998943 0.249930 1.000000
0.000000 0.499974 1.000000
0.249530 0.499881 1.000000
0.501048 0.499580 0.998952
0.753381 0.498859 0.996619
1.000000 0.497629 0.992892
0.004588 0.748463 0.995412
0.258676 0.747107 0.991324
0.512398 0.745867 0.987602
0.763300 0.745567 0.986700
1.000000 0.746495 0.989484
0.012666 0.995778 0.987334
0.258893 0.997036 0.991107
0.504317 0.998561 0.995683
0.751223 0.999592 0.998777
1.000000 1.000000 1.000000
