luts/teal_orange_17.cube
# Generated by scripts/recipes/generate_demo_luts.py
# Retouch Engine -- demo LUT (safe to redistribute).
# Complementary split-tone: shadows -> teal (B+ R-), highlights -> orange (R+ B-).
# Gaussian bells peaked at L=0.2 and L=0.8; midtones and endpoints untouched.
# Demonstrates luminance-masked complementary grading.
TITLE "Demo Teal & Orange 17x17x17"
LUT_3D_SIZE 9
DOMAIN_MIN 0.0 0.0 0.0
DOMAIN_MAX 1.0 1.0 1.0
0.000000 0.000000 0.000000
0.124581 0.000000 0.000419
0.248777 0.000000 0.001223
0.372485 0.000000 0.002515
0.495683 0.000000 0.004317
0.618474 0.000000 0.006526
0.741107 0.000000 0.008893
0.863935 0.000000 0.011065
0.987334 0.000000 0.012666
0.000000 0.125000 0.003114
0.119916 0.125000 0.005084
0.242614 0.125000 0.007386
0.365273 0.125000 0.009727
0.488268 0.125000 0.011732
0.611954 0.125000 0.013046
0.736572 0.125000 0.013428
0.862167 0.125000 0.012833
0.988589 0.125000 0.011411
0.000000 0.250000 0.010516
0.112693 0.250000 0.012307
0.236700 0.250000 0.013300
0.361679 0.250000 0.013321
0.487602 0.250000 0.012398
0.614258 0.250000 0.010742
0.741324 0.249999 0.008676
0.868464 0.249997 0.006536
0.995412 0.249993 0.004588
0.000000 0.375000 0.013087
0.113136 0.375000 0.011864
0.239981 0.374999 0.010019
0.367111 0.374999 0.007889
0.494206 0.374996 0.005794
0.621040 0.374990 0.003960
0.747508 0.374976 0.002492
0.873620 0.374946 0.001380
0.999469 0.374888 0.000531
0.000000 0.499998 0.007108
0.119913 0.499994 0.005087
0.246619 0.499986 0.003381
0.372951 0.499967 0.002049
0.498952 0.499929 0.001048
0.624741 0.499856 0.000259
0.750470 0.499725 0.000000
0.876303 0.499508 0.000000
1.000000 0.499178 0.000000
0.000000 0.624956 0.001651
0.124256 0.624908 0.000744
0.250004 0.624816 0.000000
0.375753 0.624657 0.000000
0.501663 0.624403 0.000000
0.627869 0.624025 0.000000
0.754444 0.623511 0.000000
0.881368 0.622874 0.000000
1.000000 0.622165 0.000000
0.001057 0.749577 0.000000
0.127062 0.749280 0.000000
0.253398 0.748853 0.000000
0.380109 0.748291 0.000000
0.507132 0.747621 0.000000
0.634282 0.746905 0.000000
0.761268 0.746244 0.000000
0.887746 0.745751 0.000000
1.000000 0.745528 0.000000
0.005816 0.873057 0.000000
0.132914 0.872361 0.000000
0.260042 0.871652 0.000000
0.386882 0.871039 0.000000
0.513096 0.870635 0.000000
0.638421 0.870526 0.000000
0.762761 0.870746 0.000000
0.886221 0.871260 0.000000
1.000000 0.871973 0.000000
0.012413 0.995862 0.000000
0.138326 0.995558 0.000000
0.263294 0.995569 0.000000
0.387290 0.995903 0.000000
0.510492 0.996503 0.000000
0.633226 0.997258 0.000000
0.755871 0.998043 0.000000
0.878759 0.998747 0.000000
1.000000 0.999301 0.000000
0.000000 0.000000 0.125107
0.124357 0.000000 0.125643
0.248396 0.000000 0.126604
0.371928 0.000000 0.128072
0.494969 0.000000 0.130031
0.617672 0.000000 0.132328
0.740328 0.000000 0.134672
0.863310 0.000000 0.136690
0.986976 0.000000 0.138024
0.000000 0.125000 0.128733
0.119159 0.125000 0.130841
0.241806 0.125000 0.133194
0.364535 0.125000 0.135465
0.487729 0.125000 0.137271
0.611713 0.125000 0.138287
0.736668 0.125000 0.138332
0.862570 0.125000 0.137430
0.989211 0.125000 0.135789
0.000000 0.250000 0.136195
0.112254 0.250000 0.137746
0.236581 0.250000 0.138419
0.361894 0.250000 0.138106
0.488097 0.250000 0.136903
0.614931 0.249999 0.135069
0.742058 0.249999 0.132942
0.869157 0.249996 0.130842
0.996000 0.249990 0.129000
0.000000 0.375000 0.137760
0.113709 0.375000 0.136291
0.240690 0.374999 0.134310
0.367840 0.374998 0.132160
0.494866 0.374994 0.130134
0.621582 0.374986 0.128418
0.747922 0.374968 0.127078
0.873931 0.374931 0.126069
0.999723 0.374858 0.125277
0.000000 0.499997 0.131395
0.120533 0.499992 0.129467
0.247113 0.499981 0.127887
0.373323 0.499957 0.126677
0.499237 0.499909 0.125763
0.624986 0.499819 0.125014
0.750733 0.499662 0.124267
0.876638 0.499410 0.123362
1.000000 0.499036 0.122165
0.000000 0.624943 0.126316
0.124521 0.624882 0.125479
0.250250 0.624771 0.124750
0.376036 0.624583 0.123964
0.502034 0.624289 0.122966
0.628361 0.623865 0.121639
0.755063 0.623307 0.119937
0.882080 0.622638 0.117920
1.000000 0.621922 0.115770
0.001368 0.749490 0.123632
0.127475 0.749151 0.122525
0.253938 0.748677 0.121062
0.380767 0.748073 0.119233
0.507861 0.747378 0.117139
0.634992 0.746669 0.115008
0.761843 0.746052 0.113157
0.888076 0.745641 0.111924
1.000000 0.745525 0.111575
0.006508 0.872828 0.118492
0.133648 0.872116 0.116352
0.260717 0.871427 0.114283
0.387380 0.870873 0.112620
0.513315 0.870562 0.111685
0.638306 0.870565 0.111694
0.762326 0.870892 0.112674
0.885543 0.871486 0.114457
1.000000 0.872239 0.116716
0.012819 0.995727 0.112181
0.138427 0.995524 0.111573
0.263057 0.995648 0.111943
0.386755 0.996082 0.113245
0.509756 0.996748 0.115244
0.632417 0.997528 0.117583
0.755113 0.998296 0.119887
0.878137 0.998954 0.121863
1.000000 0.999450 0.123351
0.000000 0.000000 0.250249
0.124084 0.000000 0.250916
0.247956 0.000000 0.252044
0.371313 0.000000 0.253687
0.494215 0.000000 0.255785
0.616864 0.000000 0.258136
0.739587 0.000000 0.260413
0.862765 0.000000 0.262235
0.986727 0.000000 0.263273
0.000000 0.125000 0.254406
0.118373 0.125000 0.256627
0.241006 0.125000 0.258994
0.363851 0.125000 0.261149
0.487282 0.125000 0.262718
0.611586 0.125000 0.263414
0.736875 0.125000 0.263125
0.863059 0.125000 0.261941
0.989881 0.125000 0.260119
0.000000 0.250000 0.261806
0.111917 0.250000 0.263083
0.236577 0.250000 0.263423
0.362213 0.250000 0.262787
0.488665 0.250000 0.261335
0.615638 0.249999 0.259362
0.742788 0.249998 0.257212
0.869820 0.249995 0.255180
0.996544 0.249987 0.253456
0.000000 0.375000 0.262339
0.114341 0.375000 0.260659
0.241417 0.374999 0.258583
0.368554 0.374997 0.256446
0.495489 0.374992 0.254511
0.622079 0.374982 0.252921
0.748298 0.374958 0.251702
0.874217 0.374911 0.250783
0.999969 0.374822 0.250031
0.000000 0.499996 0.255708
0.121112 0.499989 0.253888
0.247563 0.499975 0.252437
0.373661 0.499944 0.251339
0.499502 0.499884 0.250498
0.625232 0.499775 0.249768
0.751015 0.499589 0.248985
0.877006 0.499298 0.247994
1.000000 0.498877 0.246676
0.000000 0.624927 0.251010
0.124772 0.624852 0.250228
0.250502 0.624717 0.249498
0.376344 0.624497 0.248656
0.502444 0.624161 0.247556
0.628897 0.623690 0.246103
0.755719 0.623090 0.244281
0.882808 0.622396 0.242192
1.000000 0.621686 0.240058
0.001708 0.749389 0.248292
0.127929 0.749005 0.247071
0.254521 0.748486 0.245479
0.381458 0.747845 0.243542
0.508595 0.747134 0.241405
0.635670 0.746443 0.239330
0.762347 0.745884 0.237653
0.888303 0.745566 0.236697
1.000000 0.745560 0.236681
0.007224 0.872590 0.242776
0.134374 0.871875 0.240626
0.261345 0.871218 0.238655
0.387793 0.870735 0.237207
0.513423 0.870526 0.236577
0.638078 0.870641 0.236922
0.761796 0.871068 0.238204
0.884811 0.871730 0.240189
1.000000 0.872508 0.242524
0.013130 0.995623 0.236870
0.138413 0.995529 0.236587
0.262711 0.995763 0.237289
0.386138 0.996287 0.238862
0.508980 0.997007 0.241020
0.631614 0.997795 0.243386
0.754394 0.998535 0.245606
0.877574 0.999142 0.247426
1.000000 0.999579 0.248738
0.000000 0.000000 0.375430
0.123757 0.000000 0.376243
0.247456 0.000000 0.377544
0.370644 0.000000 0.379356
0.493430 0.000000 0.381570
0.616063 0.000000 0.383937
0.738898 0.000000 0.386102
0.862311 0.000000 0.387689
0.986591 0.000000 0.388409
0.000000 0.125000 0.380125
0.117569 0.125000 0.382431
0.240231 0.125000 0.384769
0.363236 0.125000 0.386764
0.486938 0.125000 0.388062
0.611574 0.125000 0.388426
0.737187 0.125000 0.387813
0.863622 0.125000 0.386378
0.990586 0.124999 0.384414
0.000000 0.250000 0.387334
0.111691 0.250000 0.388309
0.236688 0.250000 0.388312
0.362627 0.250000 0.387373
0.489294 0.250000 0.385706
0.616365 0.249999 0.383635
0.743503 0.249997 0.381497
0.870446 0.249993 0.379554
0.997044 0.249982 0.377956
0.000000 0.375000 0.386834
0.115020 0.374999 0.384980
0.242151 0.374998 0.382849
0.369244 0.374996 0.380756
0.496072 0.374990 0.378928
0.622532 0.374976 0.377468
0.748638 0.374945 0.376362
0.874483 0.374886 0.375517
1.000000 0.374778 0.374786
0.000000 0.499994 0.380052
0.121647 0.499986 0.378353
0.247972 0.499967 0.377028
0.373969 0.499928 0.376031
0.499754 0.499854 0.375246
0.625484 0.499722 0.374516
0.751321 0.499503 0.373679
0.877413 0.499170 0.372587
1.000000 0.498703 0.371143
0.000000 0.624906 0.375728
0.125018 0.624814 0.374982
0.250768 0.624654 0.374232
0.376683 0.624397 0.373317
0.502895 0.624016 0.372105
0.629477 0.623500 0.370523
0.756407 0.622861 0.368593
0.883542 0.622152 0.366458
1.000000 0.621459 0.364378
0.002084 0.749274 0.372916
0.128427 0.748844 0.371573
0.255144 0.748280 0.369856
0.382172 0.747607 0.367828
0.509322 0.746892 0.365678
0.636301 0.746233 0.363699
0.762767 0.745744 0.362233
0.888419 0.745527 0.361581
1.000000 0.745634 0.361902
0.007954 0.872347 0.367046
0.135080 0.871639 0.364920
0.261912 0.871029 0.363088
0.388111 0.870630 0.361889
0.513418 0.870527 0.361582
0.637739 0.870754 0.362260
0.761185 0.871272 0.363815
0.884037 0.871988 0.365963
1.000000 0.872776 0.368329
0.013335 0.995555 0.361665
0.138284 0.995572 0.361716
0.262263 0.995912 0.362737
0.385453 0.996516 0.364547
0.508181 0.997273 0.366819
0.630828 0.998057 0.369172
0.753723 0.998759 0.371277
0.877070 0.999310 0.372930
1.000000 0.999689 0.374068
0.000000 0.000000 0.500656
0.123374 0.000000 0.501626
0.246895 0.000000 0.503105
0.369928 0.000000 0.505072
0.492627 0.000000 0.507373
0.615286 0.000000 0.509714
0.738277 0.000000 0.511723
0.861959 0.000000 0.513041
0.986571 0.000000 0.513429
0.000000 0.125000 0.505884
0.116761 0.125000 0.508239
0.239496 0.125000 0.510504
0.362701 0.125000 0.512299
0.486703 0.125000 0.513297
0.611676 0.125000 0.513324
0.737594 0.125000 0.512406
0.864247 0.125000 0.510753
0.991312 0.124999 0.508688
0.000000 0.250000 0.512767
0.111578 0.250000 0.513422
0.236909 0.250000 0.513091
0.363127 0.250000 0.511873
0.489969 0.249999 0.510031
0.617099 0.249999 0.507901
0.744195 0.249996 0.505805
0.871031 0.249990 0.503969
0.997501 0.249976 0.502499
0.000000 0.375000 0.511258
0.115730 0.374999 0.509270
0.242880 0.374998 0.507120
0.369902 0.374994 0.505098
0.496610 0.374986 0.503390
0.622944 0.374968 0.502056
0.748948 0.374930 0.501052
0.874736 0.374856 0.500264
1.000000 0.374726 0.499535
0.000000 0.499992 0.504434
0.122139 0.499981 0.502861
0.248343 0.499957 0.501657
0.374252 0.499908 0.500748
0.500000 0.499817 0.500000
0.625748 0.499659 0.499252
0.751657 0.499404 0.498343
0.877861 0.499027 0.497139
1.000000 0.498514 0.495566
0.000000 0.624881 0.500465
0.125264 0.624768 0.499736
0.251052 0.624579 0.498948
0.377056 0.624282 0.497944
0.503390 0.623856 0.496610
0.630098 0.623295 0.494902
0.757120 0.622625 0.492880
0.884270 0.621909 0.490730
1.000000 0.621247 0.488742
0.002499 0.749143 0.497501
0.128969 0.748667 0.496031
0.255805 0.748061 0.494195
0.382901 0.747365 0.492099
0.510031 0.746656 0.489969
0.636873 0.746042 0.488127
0.763091 0.745636 0.486909
0.888422 0.745526 0.486578
1.000000 0.745744 0.487233
0.008688 0.872103 0.491312
0.135753 0.871415 0.489247
0.262406 0.870865 0.487594
0.388324 0.870559 0.486676
0.513297 0.870568 0.486703
0.637299 0.870900 0.487701
0.760504 0.871499 0.489496
0.883239 0.872254 0.491761
1.000000 0.873039 0.494116
0.013429 0.995524 0.486571
0.138041 0.995653 0.486959
0.261723 0.996092 0.488277
0.384714 0.996762 0.490286
0.507373 0.997542 0.492627
0.630072 0.998309 0.494928
0.753105 0.998965 0.496895
0.876626 0.999458 0.498374
1.000000 0.999781 0.499344
0.000000 0.000000 0.625932
0.122930 0.000000 0.627070
0.246277 0.000000 0.628723
0.369172 0.000000 0.630828
0.491819 0.000000 0.633181
0.614547 0.000000 0.635453
0.737737 0.000000 0.637263
0.861716 0.000000 0.638284
0.986665 0.000000 0.638335
0.000000 0.125000 0.631671
0.115963 0.125000 0.634037
0.238815 0.125000 0.636185
0.362260 0.125000 0.637739
0.486582 0.125000 0.638418
0.611889 0.125000 0.638111
0.738088 0.125000 0.636912
0.864920 0.125000 0.635080
0.992046 0.124999 0.632954
0.000000 0.250000 0.638098
0.111581 0.250000 0.638419
0.237233 0.250000 0.637767
0.363699 0.250000 0.636301
0.490678 0.249999 0.634322
0.617828 0.249998 0.632172
0.744856 0.249995 0.630144
0.871573 0.249986 0.628427
0.997916 0.249968 0.627084
0.000000 0.375000 0.635622
0.116458 0.374999 0.633542
0.243593 0.374997 0.631407
0.370523 0.374992 0.629477
0.497105 0.374981 0.627895
0.623317 0.374958 0.626683
0.749232 0.374910 0.625768
0.874982 0.374820 0.625018
1.000000 0.374664 0.624272
0.000000 0.499989 0.628857
0.122587 0.499975 0.627413
0.248679 0.499944 0.626321
0.374516 0.499883 0.625484
0.500246 0.499772 0.624754
0.626031 0.499584 0.623969
0.752028 0.499291 0.622972
0.878353 0.498868 0.621647
1.000000 0.498310 0.619948
0.000000 0.624850 0.625214
0.125517 0.624714 0.624483
0.251362 0.624491 0.623638
0.377468 0.624153 0.622532
0.503928 0.623680 0.621072
0.630756 0.623077 0.619244
0.757849 0.622382 0.617151
0.884980 0.621673 0.615020
1.000000 0.621055 0.613166
0.002956 0.748997 0.622044
0.129554 0.748475 0.620446
0.256497 0.747832 0.618503
0.383635 0.747120 0.616365
0.510706 0.746431 0.614294
0.637373 0.745876 0.612627
0.763312 0.745563 0.611688
0.888309 0.745564 0.611691
1.000000 0.745889 0.612666
0.009414 0.871861 0.615586
0.136378 0.871207 0.613622
0.262813 0.870729 0.612187
0.388426 0.870525 0.611574
0.513062 0.870646 0.611938
0.636764 0.871078 0.613236
0.759769 0.871744 0.615231
0.882431 0.872523 0.617569
1.000000 0.873292 0.619875
0.013409 0.995530 0.611591
0.137689 0.995770 0.612311
0.261102 0.996300 0.613898
0.383937 0.997021 0.616063
0.506570 0.997810 0.618430
0.629356 0.998548 0.620644
0.752544 0.999152 0.622456
0.876243 0.999586 0.623757
1.000000 0.999857 0.624570
0.000000 0.000000 0.751262
0.122426 0.000000 0.752574
0.245606 0.000000 0.754394
0.368386 0.000000 0.756614
0.491020 0.000000 0.758980
0.613862 0.000000 0.761138
0.737289 0.000000 0.762711
0.861587 0.000000 0.763413
0.986870 0.000000 0.763130
0.000000 0.125000 0.757476
0.115189 0.125000 0.759811
0.238204 0.125000 0.761796
0.361922 0.125000 0.763078
0.486577 0.125000 0.763423
0.612207 0.125000 0.762793
0.738655 0.125000 0.761345
0.865626 0.124999 0.759374
0.992776 0.124998 0.757224
0.000000 0.250000 0.763319
0.111697 0.250000 0.763303
0.237653 0.250000 0.762347
0.364330 0.250000 0.760670
0.491405 0.249999 0.758595
0.618542 0.249997 0.756458
0.745479 0.249992 0.754521
0.872071 0.249982 0.752929
0.998292 0.249958 0.751708
0.000000 0.374999 0.759942
0.117192 0.374998 0.757808
0.244281 0.374996 0.755719
0.371103 0.374990 0.753897
0.497556 0.374975 0.752444
0.623656 0.374945 0.751344
0.749498 0.374885 0.750502
0.875228 0.374776 0.749772
1.000000 0.374590 0.748990
0.000000 0.499986 0.753324
0.122994 0.499966 0.752006
0.248985 0.499927 0.751015
0.374768 0.499852 0.750232
0.500498 0.499718 0.749502
0.626339 0.499498 0.748661
0.752437 0.499163 0.747563
0.878888 0.498693 0.746112
1.000000 0.498093 0.744292
0.000031 0.624812 0.749969
0.125783 0.624650 0.749217
0.251702 0.624391 0.748298
0.377921 0.624008 0.747079
0.504511 0.623489 0.745489
0.631446 0.622848 0.743554
0.758583 0.622138 0.741417
0.885659 0.621447 0.739341
1.000000 0.620887 0.737661
0.003456 0.748835 0.746544
0.130180 0.748268 0.744820
0.257212 0.747594 0.742788
0.384362 0.746879 0.740638
0.511335 0.746222 0.738665
0.637787 0.745738 0.737213
0.763423 0.745526 0.736577
0.888083 0.745639 0.736917
1.000000 0.746065 0.738194
0.010119 0.871627 0.739881
0.136941 0.871019 0.738059
0.263125 0.870625 0.736875
0.388414 0.870529 0.736586
0.512718 0.870761 0.737282
0.636149 0.871284 0.738851
0.758994 0.872002 0.741006
0.881627 0.872791 0.743373
1.000000 0.873531 0.745594
0.013273 0.995576 0.736727
0.137235 0.995921 0.737765
0.260413 0.996529 0.739587
0.383136 0.997288 0.741864
0.505785 0.998072 0.744215
0.628687 0.998771 0.746313
0.752044 0.999319 0.747956
0.875916 0.999695 0.749084
1.000000 0.999917 0.749751
0.000000 0.000000 0.876649
0.121863 0.000000 0.878137
0.244887 0.000000 0.880113
0.367583 0.000000 0.882417
0.490244 0.000000 0.884756
0.613245 0.000000 0.886755
0.736943 0.000000 0.888057
0.861573 0.000000 0.888427
0.987181 0.000000 0.887819
0.000000 0.125000 0.883284
0.114457 0.125000 0.885543
0.237674 0.125000 0.887326
0.361694 0.125000 0.888306
0.486685 0.125000 0.888315
0.612620 0.125000 0.887380
0.739283 0.125000 0.885717
0.866352 0.124999 0.883648
0.993492 0.124997 0.881508
0.000000 0.250000 0.888425
0.111924 0.250000 0.888076
0.238157 0.250000 0.886843
0.365008 0.249999 0.884992
0.492139 0.249998 0.882861
0.619233 0.249996 0.880767
0.746062 0.249990 0.878938
0.872525 0.249976 0.877475
0.998632 0.249946 0.876368
0.000000 0.374999 0.884230
0.117920 0.374998 0.882080
0.244937 0.374994 0.880063
0.371639 0.374986 0.878361
0.497966 0.374967 0.877034
0.623964 0.374929 0.876036
0.749750 0.374855 0.875250
0.875479 0.374723 0.874521
1.000000 0.374505 0.873684
0.000000 0.499981 0.877835
0.123362 0.499956 0.876638
0.249267 0.499907 0.875733
0.375014 0.499815 0.874986
0.500763 0.499655 0.874237
0.626677 0.499398 0.873323
0.752887 0.499019 0.872113
0.879467 0.498503 0.870533
1.000000 0.497865 0.868605
0.000277 0.624766 0.874723
0.126069 0.624574 0.873931
0.252078 0.624276 0.872922
0.378418 0.623847 0.871582
0.505134 0.623283 0.869866
0.632160 0.622611 0.867840
0.759310 0.621896 0.865690
0.886291 0.621236 0.863709
1.000000 0.620746 0.862240
0.004000 0.748657 0.871000
0.130842 0.748049 0.869157
0.257942 0.747351 0.867058
0.385069 0.746643 0.864931
0.511903 0.746032 0.863097
0.638106 0.745631 0.861894
0.763419 0.745527 0.861581
0.887746 0.745751 0.862254
1.000000 0.746268 0.863805
0.010789 0.871403 0.864211
0.137430 0.870856 0.862570
0.263332 0.870556 0.861668
0.388287 0.870571 0.861713
0.512271 0.870910 0.862729
0.635465 0.871512 0.864535
0.758194 0.872269 0.866806
0.880841 0.873053 0.869159
1.000000 0.873756 0.871267
0.013024 0.995659 0.861976
0.136690 0.996103 0.863310
0.259672 0.996776 0.865328
0.382328 0.997557 0.867672
0.505031 0.998323 0.869969
0.628072 0.998976 0.871928
0.751604 0.999465 0.873396
0.875643 0.999786 0.874357
1.000000 0.999964 0.874893
0.000000 0.000000 1.000000
0.121241 0.000000 1.000000
0.244129 0.000000 1.000000
0.366774 0.000000 1.000000
0.489508 0.000000 1.000000
0.612710 0.000000 1.000000
0.736706 0.000000 1.000000
0.861674 0.000000 1.000000
0.987587 0.000000 1.000000
0.000000 0.125000 1.000000
0.113779 0.125000 1.000000
0.237239 0.125000 1.000000
0.361579 0.125000 1.000000
0.486904 0.125000 1.000000
0.613118 0.125000 1.000000
0.739958 0.124999 1.000000
0.867086 0.124999 1.000000
0.994184 0.124996 1.000000
0.000000 0.250000 1.000000
0.112254 0.250000 1.000000
0.238732 0.250000 1.000000
0.365718 0.249999 1.000000
0.492868 0.249998 1.000000
0.619891 0.249994 1.000000
0.746602 0.249986 1.000000
0.872938 0.249968 1.000000
0.998943 0.249930 1.000000
0.000000 0.374999 1.000000
0.118632 0.374997 1.000000
0.245556 0.374992 1.000000
0.372131 0.374981 1.000000
0.498337 0.374957 1.000000
0.624247 0.374908 1.000000
0.749996 0.374818 1.000000
0.875744 0.374660 0.999256
1.000000 0.374406 0.998349
0.000000 0.499974 1.000000
0.123697 0.499943 1.000000
0.249530 0.499881 1.000000
0.375259 0.499769 0.999741
0.501048 0.499580 0.998952
0.627049 0.499284 0.997951
0.753381 0.498859 0.996619
0.880087 0.498299 0.994913
1.000000 0.497629 0.992892
0.000531 0.624711 0.999469
0.126380 0.624486 0.998620
0.252492 0.624145 0.997508
0.378960 0.623670 0.996041
0.505794 0.623065 0.994206
0.632889 0.622369 0.992111
0.760019 0.621660 0.989981
0.886864 0.621045 0.988136
1.000000 0.620638 0.986913
0.004588 0.748463 0.995412
0.131536 0.747819 0.993464
0.258676 0.747107 0.991324
0.385742 0.746419 0.989258
0.512398 0.745867 0.987602
0.638321 0.745560 0.986679
0.763300 0.745567 0.986700
0.887307 0.745898 0.987693
1.000000 0.746495 0.989484
0.011411 0.871196 0.988589
0.137833 0.870722 0.987167
0.263428 0.870524 0.986572
0.388046 0.870651 0.986954
0.511732 0.871089 0.988268
0.634727 0.871758 0.990273
0.757386 0.872538 0.992614
0.880084 0.873305 0.994916
1.000000 0.873962 0.996886
0.012666 0.995778 0.987334
0.136065 0.996312 0.988935
0.258893 0.997036 0.991107
0.381526 0.997825 0.993474
0.504317 0.998561 0.995683
0.627515 0.999162 0.997485
0.751223 0.999592 0.998777
0.875419 0.999860 0.999581
1.000000 1.000000 1.000000
