luts/teal_orange_17.cube
# Generated by scripts/recipes/generate_demo_luts.py
# Retouch Engine -- demo LUT (safe to redistribute).
# Complementary split-tone: shadows -> teal (B+ R-), highlights -> orange (R+ B-).
# Gaussian bells peaked at L=0.2 and L=0.8; midtones and endpoints untouched.
# Demonstrates luminance-masked complementary grading.
TITLE "Demo Teal & Orange 17x17x17"
LUT_3D_SIZE 17
DOMAIN_MIN 0.0 0.0 0.0
DOMAIN_MAX 1.0 1.0 1.0
0.000000 0.000000 0.000000
0.062331 0.000000 0.000169
0.124581 0.000000 0.000419
0.186735 0.000000 0.000765
0.248777 0.000000 0.001223
0.310696 0.000000 0.001804
0.372485 0.000000 0.002515
0.434144 0.000000 0.003355
0.495683 0.000000 0.004317
0.557117 0.000000 0.005383
0.618474 0.000000 0.006526
0.679790 0.000000 0.007710
0.741107 0.000000 0.008893
0.802473 0.000000 0.010027
0.863935 0.000000 0.011065
0.925542 0.000000 0.011958
0.987334 0.000000 0.012666
0.000000 0.062500 0.000918
0.061080 0.062500 0.001420
0.122952 0.062500 0.002048
0.184694 0.062500 0.002806
0.246308 0.062500 0.003692
0.307805 0.062500 0.004695
0.369208 0.062500 0.005792
0.430546 0.062500 0.006954
0.491857 0.062500 0.008143
0.553186 0.062500 0.009314
0.614581 0.062500 0.010419
0.676091 0.062500 0.011409
0.737760 0.062500 0.012240
0.799629 0.062500 0.012871
0.861725 0.062500 0.013275
0.924067 0.062500 0.013433
0.986658 0.062500 0.013342
0.000000 0.125000 0.003114
0.058455 0.125000 0.004045
0.119916 0.125000 0.005084
0.181291 0.125000 0.006209
0.242614 0.125000 0.007386
0.303926 0.125000 0.008574
0.365273 0.125000 0.009727
0.426705 0.125000 0.010795
0.488268 0.125000 0.011732
0.550006 0.125000 0.012494
0.611954 0.125000 0.013046
0.674139 0.125000 0.013361
0.736572 0.125000 0.013428
0.799252 0.125000 0.013248
0.862167 0.125000 0.012833
0.925290 0.125000 0.012210
0.988589 0.125000 0.011411
0.000000 0.187500 0.006634
0.054680 0.187500 0.007820
0.116000 0.187500 0.009000
0.177372 0.187500 0.010128
0.238846 0.187500 0.011154
0.300468 0.187500 0.012032
0.362279 0.187500 0.012721
0.424311 0.187500 0.013189
0.486585 0.187500 0.013415
0.549109 0.187500 0.013391
0.611877 0.187500 0.013123
0.674871 0.187500 0.012629
0.738063 0.187500 0.011937
0.801416 0.187500 0.011084
0.864887 0.187500 0.010113
0.928433 0.187499 0.009067
0.992011 0.187499 0.007989
0.000000 0.250000 0.010516
0.051007 0.250000 0.011493
0.112693 0.250000 0.012307
0.174582 0.250000 0.012918
0.236700 0.250000 0.013300
0.299065 0.250000 0.013435
0.361679 0.250000 0.013321
0.424532 0.250000 0.012968
0.487602 0.250000 0.012398
0.550857 0.250000 0.011643
0.614258 0.250000 0.010742
0.677761 0.249999 0.009739
0.741324 0.249999 0.008676
0.804904 0.249998 0.007596
0.868464 0.249997 0.006536
0.931975 0.249995 0.005525
0.995412 0.249993 0.004588
0.000000 0.312500 0.013085
0.049122 0.312500 0.013378
0.111578 0.312500 0.013422
0.174281 0.312500 0.013219
0.237216 0.312500 0.012784
0.300357 0.312500 0.012143
0.363670 0.312500 0.011330
0.427114 0.312500 0.010386
0.490644 0.312499 0.009356
0.554217 0.312499 0.008283
0.617794 0.312498 0.007206
0.681339 0.312497 0.006161
0.744825 0.312495 0.005175
0.808232 0.312491 0.004268
0.871549 0.312487 0.003451
0.934769 0.312479 0.002731
0.997897 0.312469 0.002103
0.000000 0.375000 0.013087
0.049927 0.375000 0.012573
0.113136 0.375000 0.011864
0.176501 0.375000 0.010999
0.239981 0.374999 0.010019
0.303532 0.374999 0.008968
0.367111 0.374999 0.007889
0.430680 0.374998 0.006820
0.494206 0.374996 0.005794
0.557666 0.374994 0.004834
0.621040 0.374990 0.003960
0.684322 0.374984 0.003178
0.747508 0.374976 0.002492
0.810604 0.374964 0.001896
0.873620 0.374946 0.001380
0.936569 0.374922 0.000931
0.999469 0.374888 0.000531
0.000000 0.437500 0.010653
0.052858 0.437499 0.009642
0.116423 0.437499 0.008577
0.180003 0.437498 0.007497
0.243560 0.437497 0.006440
0.307064 0.437495 0.005436
0.370494 0.437492 0.004506
0.433836 0.437488 0.003664
0.497083 0.437482 0.002917
0.560235 0.437472 0.002265
0.623301 0.437458 0.001699
0.686290 0.437438 0.001210
0.749219 0.437411 0.000781
0.812106 0.437373 0.000394
0.874971 0.437322 0.000029
0.937834 0.437254 0.000000
1.000000 0.437167 0.000000
0.000000 0.499998 0.007108
0.056433 0.499996 0.006067
0.119913 0.499994 0.005087
0.183312 0.499991 0.004188
0.246619 0.499986 0.003381
0.309831 0.499978 0.002669
0.372951 0.499967 0.002049
0.435987 0.499952 0.001513
0.498952 0.499929 0.001048
0.561864 0.499898 0.000636
0.624741 0.499856 0.000259
0.687602 0.499799 0.000000
0.750470 0.499725 0.000000
0.813363 0.499629 0.000000
0.876303 0.499508 0.000000
0.939307 0.499359 0.000000
1.000000 0.499178 0.000000
0.000000 0.562489 0.003884
0.059389 0.562484 0.003111
0.122567 0.562475 0.002433
0.185655 0.562462 0.001845
0.248664 0.562444 0.001336
0.311608 0.562419 0.000892
0.374504 0.562384 0.000496
0.437373 0.562337 0.000127
0.500234 0.562274 0.000000
0.563109 0.562193 0.000000
0.626017 0.562088 0.000000
0.688979 0.561957 0.000000
0.752009 0.561797 0.000000
0.815123 0.561603 0.000000
0.878328 0.561376 0.000000
0.941629 0.561114 0.000000
1.000000 0.560820 0.000000
0.000000 0.624956 0.001651
0.061332 0.624936 0.001168
0.124256 0.624908 0.000744
0.187141 0.624869 0.000359
0.250004 0.624816 0.000000
0.312868 0.624747 0.000000
0.375753 0.624657 0.000000
0.438678 0.624544 0.000000
0.501663 0.624403 0.000000
0.564723 0.624230 0.000000
0.627869 0.624025 0.000000
0.691109 0.623785 0.000000
0.754444 0.623511 0.000000
0.817868 0.623206 0.000000
0.881368 0.622874 0.000000
0.944922 0.622524 0.000000
1.000000 0.622165 0.000000
0.000000 0.687351 0.000226
0.062635 0.687293 0.000000
0.125504 0.687217 0.000000
0.188402 0.687119 0.000000
0.251347 0.686996 0.000000
0.314357 0.686844 0.000000
0.377447 0.686659 0.000000
0.440627 0.686441 0.000000
0.503902 0.686189 0.000000
0.567271 0.685903 0.000000
0.630724 0.685588 0.000000
0.694247 0.685248 0.000000
0.757814 0.684894 0.000000
0.821394 0.684535 0.000000
0.884948 0.684184 0.000000
0.948434 0.683855 0.000000
1.000000 0.683564 0.000000
0.001057 0.749577 0.000000
0.064024 0.749444 0.000000
0.127062 0.749280 0.000000
0.190184 0.749084 0.000000
0.253398 0.748853 0.000000
0.316708 0.748589 0.000000
0.380109 0.748291 0.000000
0.443590 0.747967 0.000000
0.507132 0.747621 0.000000
0.570707 0.747263 0.000000
0.634282 0.746905 0.000000
0.697817 0.746561 0.000000
0.761268 0.746244 0.000000
0.824591 0.745969 0.000000
0.887746 0.745751 0.000000
0.950696 0.745601 0.000000
1.000000 0.745528 0.000000
0.002933 0.811504 0.000000
0.066182 0.811261 0.000000
0.129526 0.810984 0.000000
0.192958 0.810676 0.000000
0.256463 0.810343 0.000000
0.320021 0.809991 0.000000
0.383601 0.809632 0.000000
0.447166 0.809277 0.000000
0.510675 0.808941 0.000000
0.574085 0.808638 0.000000
0.637351 0.808383 0.000000
0.700435 0.808188 0.000000
0.763304 0.808065 0.000000
0.825935 0.808022 0.000000
0.888317 0.808061 0.000000
0.950453 0.808182 0.000000
1.000000 0.808381 0.000000
0.005816 0.873057 0.000000
0.069344 0.872716 0.000000
0.132914 0.872361 0.000000
0.196492 0.872002 0.000000
0.260042 0.871652 0.000000
0.323520 0.871326 0.000000
0.386882 0.871039 0.000000
0.450087 0.870804 0.000000
0.513096 0.870635 0.000000
0.575880 0.870540 0.000000
0.638421 0.870526 0.000000
0.700713 0.870596 0.000000
0.762761 0.870746 0.000000
0.824587 0.870971 0.000000
0.886221 0.871260 0.000000
0.947703 0.871599 0.000000
1.000000 0.871973 0.000000
0.009380 0.934373 0.000000
0.072909 0.934030 0.000000
0.136350 0.933717 0.000000
0.199659 0.933447 0.000000
0.262796 0.933234 0.000000
0.325726 0.933091 0.000000
0.388424 0.933025 0.000000
0.450874 0.933042 0.000000
0.513075 0.933142 0.000000
0.575040 0.933320 0.000000
0.636792 0.933569 0.000000
0.698365 0.933878 0.000000
0.759804 0.934232 0.000000
0.821156 0.934615 0.000000
0.882469 0.935010 0.000000
0.943790 0.935403 0.000000
1.000000 0.935780 0.000000
0.012413 0.995862 0.000000
0.075478 0.995674 0.000000
0.138326 0.995558 0.000000
0.200935 0.995522 0.000000
0.263294 0.995569 0.000000
0.325407 0.995698 0.000000
0.387290 0.995903 0.000000
0.448973 0.996176 0.000000
0.510492 0.996503 0.000000
0.571894 0.996869 0.000000
0.633226 0.997258 0.000000
0.694536 0.997654 0.000000
0.755871 0.998043 0.000000
0.817268 0.998411 0.000000
0.878759 0.998747 0.000000
0.940364 0.999045 0.000000
1.000000 0.999301 0.000000
0.000000 0.000000 0.062550
0.062256 0.000000 0.062744
0.124475 0.000000 0.063025
0.186593 0.000000 0.063407
0.248594 0.000000 0.063906
0.310469 0.000000 0.064531
0.372214 0.000000 0.065286
0.433831 0.000000 0.066169
0.495331 0.000000 0.067169
0.556736 0.000000 0.068264
0.618075 0.000000 0.069425
0.679386 0.000000 0.070614
0.740714 0.000000 0.071786
0.802107 0.000000 0.072893
0.863613 0.000000 0.073887
0.925278 0.000000 0.074722
0.987142 0.000000 0.075358
0.000000 0.062500 0.063575
0.060882 0.062500 0.064118
0.122709 0.062500 0.064791
0.184407 0.062500 0.065593
0.245979 0.062500 0.066521
0.307442 0.062500 0.067558
0.368819 0.062500 0.068681
0.430143 0.062500 0.069857
0.491455 0.062500 0.071045
0.552801 0.062500 0.072199
0.614229 0.062500 0.073271
0.675789 0.062500 0.074211
0.737522 0.062500 0.074978
0.799465 0.062500 0.075535
0.861644 0.062500 0.075856
0.924070 0.062500 0.075930
0.986745 0.062500 0.075755
0.000000 0.125000 0.065917
0.058113 0.125000 0.066887
0.119542 0.125000 0.067958
0.180895 0.125000 0.069105
0.242210 0.125000 0.070290
0.303528 0.125000 0.071472
0.364899 0.125000 0.072601
0.426369 0.125000 0.073631
0.487987 0.125000 0.074513
0.549793 0.125000 0.075207
0.611820 0.125000 0.075680
0.674088 0.125000 0.075912
0.736605 0.125000 0.075895
0.799368 0.125000 0.075632
0.862357 0.125000 0.075143
0.925544 0.125000 0.074456
0.988893 0.125000 0.073607
0.000000 0.187500 0.069534
0.054277 0.187500 0.070723
0.115608 0.187500 0.071892
0.177010 0.187500 0.072990
0.238529 0.187500 0.073971
0.300211 0.187500 0.074789
0.362094 0.187500 0.075406
0.424207 0.187500 0.075793
0.486565 0.187500 0.075935
0.549173 0.187500 0.075827
0.612021 0.187500 0.075479
0.675086 0.187500 0.074914
0.738337 0.187500 0.074163
0.801734 0.187500 0.073266
0.865236 0.187499 0.072264
0.928798 0.187499 0.071202
0.992378 0.187498 0.070122
0.000000 0.250000 0.073363
0.050710 0.250000 0.074290
0.112461 0.250000 0.075039
0.174425 0.250000 0.075575
0.236626 0.250000 0.075874
0.299076 0.250000 0.075924
0.361773 0.250000 0.075727
0.424703 0.250000 0.075297
0.487839 0.250000 0.074661
0.551149 0.250000 0.073851
0.614589 0.250000 0.072911
0.678118 0.249999 0.071882
0.741691 0.249999 0.070809
0.805268 0.249998 0.069732
0.868814 0.249997 0.068686
0.932302 0.249995 0.067698
0.995711 0.249991 0.066789
0.000000 0.312500 0.075712
0.049079 0.312500 0.075921
0.111620 0.312500 0.075880
0.174404 0.312500 0.075596
0.237412 0.312500 0.075088
0.300616 0.312500 0.074384
0.363978 0.312500 0.073522
0.427456 0.312499 0.072544
0.491006 0.312499 0.071494
0.554584 0.312499 0.070416
0.618154 0.312498 0.069346
0.681682 0.312496 0.068318
0.745143 0.312494 0.067357
0.808520 0.312490 0.066480
0.871804 0.312484 0.065696
0.934993 0.312476 0.065007
0.998091 0.312464 0.064409
0.000000 0.375000 0.075436
0.050148 0.375000 0.074852
0.113414 0.375000 0.074086
0.176823 0.375000 0.073177
0.240332 0.374999 0.072168
0.303897 0.374999 0.071103
0.367477 0.374998 0.070023
0.431035 0.374997 0.068965
0.494541 0.374995 0.067959
0.557973 0.374992 0.067027
0.621317 0.374988 0.066183
0.684566 0.374982 0.065434
0.747720 0.374972 0.064780
0.810788 0.374958 0.064212
0.873779 0.374939 0.063721
0.936709 0.374911 0.063291
0.999597 0.374874 0.062903
0.000000 0.437500 0.072819
0.053216 0.437499 0.071784
0.116791 0.437499 0.070709
0.180366 0.437498 0.069634
0.243908 0.437497 0.068592
0.307389 0.437494 0.067611
0.370791 0.437491 0.066709
0.434100 0.437486 0.065900
0.497315 0.437479 0.065185
0.560437 0.437468 0.064563
0.623475 0.437452 0.064025
0.686442 0.437430 0.063558
0.749354 0.437399 0.063146
0.812232 0.437357 0.062768
0.875093 0.437301 0.062407
0.937960 0.437227 0.062040
1.000000 0.437132 0.061647
0.000000 0.499997 0.069249
0.056774 0.499996 0.068226
0.120228 0.499993 0.067272
0.183596 0.499990 0.066404
0.246871 0.499984 0.065629
0.310052 0.499975 0.064949
0.373142 0.499963 0.064358
0.436152 0.499945 0.063848
0.499097 0.499920 0.063403
0.561995 0.499885 0.063005
0.624864 0.499838 0.062636
0.687725 0.499776 0.062275
0.750599 0.499695 0.061901
0.813507 0.499591 0.061493
0.876467 0.499461 0.061033
0.939495 0.499301 0.060505
1.000000 0.499109 0.059893
0.000000 0.562488 0.066110
0.059630 0.562481 0.065370
0.122776 0.562471 0.064724
0.185836 0.562457 0.064164
0.248821 0.562437 0.063679
0.311747 0.562408 0.063253
0.374631 0.562370 0.062869
0.437495 0.562318 0.062505
0.500359 0.562249 0.062141
0.563243 0.562160 0.061757
0.626167 0.562047 0.061333
0.689150 0.561906 0.060850
0.752208 0.561735 0.060292
0.815352 0.561530 0.059648
0.878590 0.561291 0.058910
0.941922 0.561018 0.058078
1.000000 0.560713 0.057155
0.000000 0.624950 0.063980
0.061482 0.624927 0.063518
0.124390 0.624896 0.063110
0.187265 0.624852 0.062735
0.250127 0.624795 0.062373
0.312995 0.624719 0.062005
0.375892 0.624622 0.061608
0.438835 0.624499 0.061165
0.501844 0.624348 0.060656
0.564932 0.624164 0.060068
0.628109 0.623947 0.059391
0.691382 0.623695 0.058618
0.754748 0.623411 0.057752
0.818200 0.623096 0.056800
0.881721 0.622757 0.055779
0.945288 0.622403 0.054712
1.000000 0.622043 0.053633
0.000000 0.687333 0.062603
0.062759 0.687269 0.062241
0.125635 0.687186 0.061865
0.188547 0.687080 0.061453
0.251512 0.686948 0.060988
0.314548 0.686785 0.060452
0.377668 0.686589 0.059832
0.440880 0.686359 0.059120
0.504187 0.686095 0.058313
0.567586 0.685799 0.057414
0.631065 0.685475 0.056435
0.694606 0.685129 0.055394
0.758181 0.684772 0.054319
0.821756 0.684414 0.053244
0.885292 0.684069 0.052208
0.948746 0.683751 0.051254
1.000000 0.683476 0.050427
0.001209 0.749535 0.061291
0.064198 0.749392 0.060802
0.127264 0.749217 0.060237
0.190416 0.749010 0.059584
0.253662 0.748767 0.058838
0.317004 0.748491 0.057996
0.380434 0.748184 0.057066
0.443938 0.747851 0.056062
0.507495 0.747500 0.055005
0.571074 0.747141 0.053926
0.634640 0.746786 0.052860
0.698151 0.746449 0.051849
0.761564 0.746145 0.050936
0.824834 0.745888 0.050166
0.887923 0.745692 0.049577
0.950798 0.745567 0.049202
1.000000 0.745522 0.049065
0.003177 0.811425 0.059323
0.066458 0.811171 0.058542
0.129833 0.810883 0.057667
0.193292 0.810565 0.056708
0.256818 0.810225 0.055682
0.320387 0.809869 0.054613
0.383966 0.809510 0.053534
0.447517 0.809160 0.052483
0.510997 0.808834 0.051503
0.574363 0.808546 0.050637
0.637572 0.808309 0.049928
0.700586 0.808138 0.049414
0.763376 0.808041 0.049124
0.825923 0.808026 0.049077
0.888221 0.808093 0.049279
0.950275 0.808242 0.049725
1.000000 0.808465 0.050394
0.006159 0.872944 0.056341
0.069704 0.872597 0.055296
0.133281 0.872239 0.054219
0.196854 0.871881 0.053146
0.260384 0.871538 0.052116
0.323828 0.871224 0.051172
0.387141 0.870953 0.050359
0.450283 0.870739 0.049717
0.513219 0.870594 0.049281
0.575922 0.870526 0.049078
0.638378 0.870541 0.049122
0.700586 0.870638 0.049414
0.762556 0.870815 0.049944
0.824312 0.871063 0.050688
0.885890 0.871370 0.051610
0.947331 0.871723 0.052669
1.000000 0.872105 0.053815
0.009737 0.934254 0.052763
0.073240 0.933920 0.051760
0.136641 0.933619 0.050859
0.199897 0.933368 0.050103
0.262967 0.933178 0.049533
0.325821 0.933060 0.049179
0.388435 0.933022 0.049065
0.450800 0.933067 0.049200
0.512919 0.933194 0.049581
0.574808 0.933397 0.050192
0.636495 0.933668 0.051005
0.698018 0.933994 0.051982
0.759422 0.934359 0.053078
0.820755 0.934748 0.054245
0.882065 0.935145 0.055435
0.943399 0.935534 0.056601
1.000000 0.935902 0.057706
0.012628 0.995791 0.049872
0.075622 0.995626 0.049378
0.138391 0.995536 0.049109
0.200915 0.995528 0.049085
0.263189 0.995604 0.049311
0.325222 0.995759 0.049778
0.387034 0.995989 0.050466
0.448656 0.996281 0.051344
0.510130 0.996623 0.052370
0.571502 0.996999 0.053498
0.632822 0.997393 0.054678
0.694136 0.997788 0.055864
0.755488 0.998171 0.057012
0.816914 0.998529 0.058086
0.878441 0.998853 0.059059
0.940089 0.999137 0.059911
1.000000 0.999378 0.060635
0.000000 0.000000 0.125107
0.062171 0.000000 0.125329
0.124357 0.000000 0.125643
0.186437 0.000000 0.126063
0.248396 0.000000 0.126604
0.310227 0.000000 0.127273
0.371928 0.000000 0.128072
0.433504 0.000000 0.128996
0.494969 0.000000 0.130031
0.556347 0.000000 0.131153
0.617672 0.000000 0.132328
0.678984 0.000000 0.133516
0.740328 0.000000 0.134672
0.801754 0.000000 0.135746
0.863310 0.000000 0.136690
0.925038 0.000000 0.137462
0.986976 0.000000 0.138024
0.000000 0.062500 0.126245
0.060668 0.062500 0.126832
0.122451 0.062500 0.127549
0.184105 0.062500 0.128395
0.245639 0.062500 0.129361
0.307069 0.062500 0.130431
0.368424 0.062500 0.131576
0.429739 0.062500 0.132761
0.491057 0.062500 0.133943
0.552425 0.062500 0.135075
0.613893 0.062500 0.136107
0.675507 0.062500 0.136993
0.737308 0.062500 0.137692
0.799329 0.062500 0.138171
0.861591 0.062500 0.138409
0.924102 0.062500 0.138398
0.986858 0.062500 0.138142
0.000000 0.125000 0.128733
0.057760 0.125000 0.129740
0.119159 0.125000 0.130841
0.180495 0.125000 0.132005
0.241806 0.125000 0.133194
0.303136 0.125000 0.134364
0.364535 0.125000 0.135465
0.426051 0.125000 0.136449
0.487729 0.125000 0.137271
0.549607 0.125000 0.137893
0.611713 0.125000 0.138287
0.674066 0.125000 0.138434
0.736668 0.125000 0.138332
0.799509 0.125000 0.137991
0.862570 0.125000 0.137430
0.925816 0.125000 0.136684
0.989211 0.125000 0.135789
0.000000 0.187500 0.132438
0.053875 0.187500 0.133625
0.115225 0.187500 0.134775
0.176661 0.187500 0.135839
0.238231 0.187500 0.136769
0.299977 0.187500 0.137523
0.361936 0.187500 0.138064
0.424131 0.187500 0.138369
0.486574 0.187500 0.138426
0.549265 0.187500 0.138235
0.612190 0.187500 0.137810
0.675322 0.187500 0.137178
0.738627 0.187500 0.136373
0.802065 0.187500 0.135435
0.865592 0.187499 0.134408
0.929164 0.187499 0.133336
0.992742 0.187498 0.132258
0.000000 0.250000 0.136195
0.050434 0.250000 0.137066
0.112254 0.250000 0.137746
0.174296 0.250000 0.138204
0.236581 0.250000 0.138419
0.299116 0.250000 0.138384
0.361894 0.250000 0.138106
0.424897 0.250000 0.137603
0.488097 0.250000 0.136903
0.551456 0.250000 0.136044
0.614931 0.249999 0.135069
0.678479 0.249999 0.134021
0.742058 0.249999 0.132942
0.805628 0.249998 0.131872
0.869157 0.249996 0.130842
0.932620 0.249994 0.129880
0.996000 0.249990 0.129000
0.000000 0.312500 0.138311
0.049065 0.312500 0.138435
0.111689 0.312500 0.138311
0.174552 0.312500 0.137948
0.237631 0.312500 0.137369
0.300893 0.312500 0.136607
0.364299 0.312500 0.135701
0.427807 0.312499 0.134693
0.491371 0.312499 0.133629
0.554951 0.312498 0.132550
0.618509 0.312497 0.131491
0.682017 0.312495 0.130483
0.745451 0.312493 0.129549
0.808797 0.312488 0.128703
0.872048 0.312482 0.127952
0.935206 0.312472 0.127294
0.998275 0.312459 0.126725
0.000000 0.375000 0.137760
0.050389 0.375000 0.137111
0.113709 0.375000 0.136291
0.177157 0.375000 0.135343
0.240690 0.374999 0.134310
0.304264 0.374999 0.133236
0.367840 0.374998 0.132160
0.431383 0.374997 0.131117
0.494866 0.374994 0.130134
0.558270 0.374991 0.129230
0.621582 0.374986 0.128418
0.684798 0.374979 0.127702
0.747922 0.374968 0.127078
0.810962 0.374953 0.126538
0.873931 0.374931 0.126069
0.936845 0.374900 0.125655
0.999723 0.374858 0.125277
0.000000 0.437499 0.134975
0.053578 0.437499 0.133922
0.117158 0.437498 0.132842
0.180725 0.437497 0.131775
0.244249 0.437496 0.130751
0.307705 0.437493 0.129795
0.371076 0.437490 0.128924
0.434354 0.437484 0.128146
0.497536 0.437475 0.127464
0.560628 0.437463 0.126872
0.623640 0.437445 0.126360
0.686587 0.437420 0.125913
0.749486 0.437386 0.125514
0.812355 0.437340 0.125145
0.875216 0.437278 0.124784
0.938090 0.437197 0.124410
1.000000 0.437094 0.124004
0.000000 0.499997 0.131395
0.057106 0.499995 0.130394
0.120533 0.499992 0.129467
0.183870 0.499988 0.128630
0.247113 0.499981 0.127887
0.310262 0.499971 0.127238
0.373323 0.499957 0.126677
0.436310 0.499937 0.126190
0.499237 0.499909 0.125763
0.562122 0.499871 0.125378
0.624986 0.499819 0.125014
0.687850 0.499751 0.124650
0.750733 0.499662 0.124267
0.813656 0.499550 0.123844
0.876638 0.499410 0.123362
0.939693 0.499239 0.122807
1.000000 0.499036 0.122165
0.000000 0.562486 0.128348
0.059860 0.562478 0.127640
0.122976 0.562467 0.127024
0.186008 0.562451 0.126492
0.248971 0.562428 0.126029
0.311881 0.562397 0.125619
0.374756 0.562354 0.125244
0.437618 0.562296 0.124882
0.500486 0.562221 0.124514
0.563381 0.562124 0.124119
0.626324 0.562002 0.123676
0.689331 0.561852 0.123169
0.752416 0.561669 0.122584
0.815592 0.561453 0.121908
0.878862 0.561202 0.121138
0.942226 0.560918 0.120274
1.000000 0.560604 0.119324
0.000000 0.624943 0.126316
0.061626 0.624918 0.125874
0.124521 0.624882 0.125479
0.187388 0.624835 0.125112
0.250250 0.624771 0.124750
0.313126 0.624689 0.124374
0.376036 0.624583 0.123964
0.439000 0.624451 0.123500
0.502034 0.624289 0.122966
0.565152 0.624094 0.122348
0.628361 0.623865 0.121639
0.691666 0.623602 0.120834
0.755063 0.623307 0.119937
0.818540 0.622983 0.118960
0.882080 0.622638 0.117920
0.945655 0.622281 0.116845
1.000000 0.621922 0.115770
0.000020 0.687314 0.124980
0.062884 0.687244 0.124616
0.125770 0.687153 0.124230
0.188698 0.687038 0.123802
0.251686 0.686896 0.123314
0.314749 0.686722 0.122751
0.377899 0.686515 0.122101
0.441143 0.686274 0.121357
0.504482 0.685998 0.120518
0.567910 0.685692 0.119590
0.631413 0.685359 0.118587
0.694969 0.685009 0.117531
0.758548 0.684650 0.116452
0.822115 0.684294 0.115385
0.885628 0.683957 0.114372
0.949043 0.683652 0.113457
1.000000 0.683394 0.112683
0.001368 0.749490 0.123632
0.064381 0.749336 0.123119
0.127475 0.749151 0.122525
0.190659 0.748931 0.121841
0.253938 0.748677 0.121062
0.317310 0.748390 0.120190
0.380767 0.748073 0.119233
0.444293 0.747733 0.118208
0.507861 0.747378 0.117139
0.571440 0.747019 0.116060
0.634992 0.746669 0.115008
0.698475 0.746342 0.114025
0.761843 0.746052 0.113157
0.825056 0.745814 0.112444
0.888076 0.745641 0.111924
0.950872 0.745543 0.111628
1.000000 0.745525 0.111575
0.003431 0.811343 0.121569
0.066745 0.811076 0.120755
0.130150 0.810778 0.119850
0.193634 0.810452 0.118866
0.257178 0.810105 0.117822
0.320754 0.809747 0.116746
0.384328 0.809390 0.115672
0.447860 0.809046 0.114640
0.511306 0.808731 0.113694
0.574623 0.808459 0.112877
0.637770 0.808243 0.112230
0.700711 0.808096 0.111789
0.763420 0.808027 0.111580
0.825882 0.808039 0.111618
0.888096 0.808135 0.111904
0.950071 0.808310 0.112429
1.000000 0.808556 0.113167
0.006508 0.872828 0.118492
0.070068 0.872476 0.117432
0.133648 0.872116 0.116352
0.197211 0.871762 0.115289
0.260717 0.871427 0.114283
0.324121 0.871126 0.113379
0.387380 0.870873 0.112620
0.450456 0.870681 0.112044
0.513315 0.870562 0.111685
0.575935 0.870522 0.111565
0.638306 0.870565 0.111694
0.700431 0.870690 0.112069
0.762326 0.870892 0.112674
0.824017 0.871161 0.113483
0.885543 0.871486 0.114457
0.946949 0.871850 0.115551
1.000000 0.872239 0.116716
0.010086 0.934137 0.114914
0.073560 0.933813 0.113940
0.136916 0.933528 0.113084
0.200113 0.933296 0.112387
0.263113 0.933129 0.111887
0.325887 0.933038 0.111613
0.388417 0.933028 0.111583
0.450698 0.933101 0.111802
0.512736 0.933255 0.112264
0.574553 0.933482 0.112947
0.636179 0.933774 0.113821
0.697657 0.934115 0.114844
0.759031 0.934490 0.115969
0.820351 0.934883 0.117149
0.881665 0.935278 0.118335
0.943015 0.935662 0.119485
1.000000 0.936020 0.120561
0.012819 0.995727 0.112181
0.075740 0.995587 0.111760
0.138427 0.995524 0.111573
0.200866 0.995545 0.111634
0.263057 0.995648 0.111943
0.325012 0.995829 0.112488
0.386755 0.996082 0.113245
0.448322 0.996393 0.114178
0.509756 0.996748 0.115244
0.571105 0.997132 0.116395
0.632417 0.997528 0.117583
0.693740 0.997920 0.118760
0.755113 0.998296 0.119887
0.816571 0.998643 0.120929
0.878137 0.998954 0.121863
0.939828 0.999224 0.122672
1.000000 0.999450 0.123351
0.000000 0.000000 0.187673
0.062076 0.000000 0.187924
0.124227 0.000000 0.188273
0.186267 0.000000 0.188733
0.248184 0.000000 0.189316
0.309970 0.000000 0.190030
