luts/warm_boost_17.cube
# Generated by scripts/recipes/generate_demo_luts.py
# Retouch Engine -- demo LUT (safe to redistribute).
# Mild warm midtone shift: R * 1.10 and B * 0.95 in midtones,
# weighted by a triangular bell peaking at L=0.5.
# Demonstrates a per-channel 'look' without being a real film stock.
TITLE "Demo Warm Boost 17x17x17"
LUT_3D_SIZE 5
DOMAIN_MIN 0.0 0.0 0.0
DOMAIN_MAX 1.0 1.0 1.0
0.000000 0.000000 0.000000
0.252658 0.000000 0.000000
0.510630 0.000000 0.000000
0.773918 0.000000 0.000000
1.000000 0.000000 0.000000
0.000000 0.250000 0.000000
0.261598 0.250000 0.000000
0.528510 0.250000 0.000000
0.800738 0.250000 0.000000
1.000000 0.250000 0.000000
0.000000 0.500000 0.000000
0.270537 0.500000 0.000000
0.546390 0.500000 0.000000
0.822443 0.500000 0.000000
1.000000 0.500000 0.000000
0.000000 0.750000 0.000000
0.270523 0.750000 0.000000
0.535730 0.750000 0.000000
0.795622 0.750000 0.000000
1.000000 0.750000 0.000000
0.000000 1.000000 0.000000
0.261582 1.000000 0.000000
0.517850 1.000000 0.000000
0.768802 1.000000 0.000000
1.000000 1.000000 0.000000
0.000000 0.000000 0.249549
0.253560 0.000000 0.248220
0.512435 0.000000 0.246891
0.776625 0.000000 0.245562
1.000000 0.000000 0.244234
0.000000 0.250000 0.245079
0.262500 0.250000 0.243750
0.530315 0.250000 0.242421
0.803445 0.250000 0.241093
1.000000 0.250000 0.239764
0.000000 0.500000 0.240609
0.271440 0.500000 0.239280
0.548195 0.500000 0.237951
0.819735 0.500000 0.238377
1.000000 0.500000 0.239706
0.000000 0.750000 0.238861
0.269620 0.750000 0.240190
0.533925 0.750000 0.241519
0.792915 0.750000 0.242848
1.000000 0.750000 0.244176
0.000000 1.000000 0.243331
0.260680 1.000000 0.244660
0.516045 1.000000 0.245989
0.766095 1.000000 0.247317
1.000000 1.000000 0.248646
0.000000 0.000000 0.498195
0.254463 0.000000 0.495537
0.514240 0.000000 0.492880
0.779332 0.000000 0.490223
1.000000 0.000000 0.487565
0.000000 0.250000 0.489255
0.263402 0.250000 0.486598
0.532120 0.250000 0.483940
0.806152 0.250000 0.481283
1.000000 0.250000 0.478625
0.000000 0.500000 0.480315
0.272343 0.500000 0.477657
0.550000 0.500000 0.475000
0.817028 0.500000 0.477657
1.000000 0.500000 0.480315
0.000000 0.750000 0.478625
0.268717 0.750000 0.481283
0.532120 0.750000 0.483940
0.790208 0.750000 0.486598
1.000000 0.750000 0.489255
0.000000 1.000000 0.487565
0.259777 1.000000 0.490223
0.514240 1.000000 0.492880
0.763388 1.000000 0.495537
1.000000 1.000000 0.498195
0.000000 0.000000 0.745939
0.255365 0.000000 0.741952
0.516045 0.000000 0.737966
0.782040 0.000000 0.733980
1.000000 0.000000 0.729994
0.000000 0.250000 0.732529
0.264305 0.250000 0.728543
0.533925 0.250000 0.724556
0.808860 0.250000 0.720570
1.000000 0.250000 0.716584
0.000000 0.500000 0.719119
0.273245 0.500000 0.715132
0.548195 0.500000 0.713854
0.814320 0.500000 0.717840
1.000000 0.500000 0.721826
0.000000 0.750000 0.719291
0.267815 0.750000 0.723278
0.530315 0.750000 0.727264
0.787500 0.750000 0.731250
1.000000 0.750000 0.735236
0.000000 1.000000 0.732701
0.258875 1.000000 0.736687
0.512435 1.000000 0.740674
0.760680 1.000000 0.744660
1.000000 1.000000 0.748646
0.000000 0.000000 0.992780
0.256267 0.000000 0.987465
0.517850 0.000000 0.982150
0.784747 0.000000 0.976835
1.000000 0.000000 0.971520
0.000000 0.250000 0.974900
0.265207 0.250000 0.969585
0.535730 0.250000 0.964270
0.811568 0.250000 0.958955
1.000000 0.250000 0.953640
0.000000 0.500000 0.957020
0.274148 0.500000 0.951705
0.546390 0.500000 0.953610
0.811612 0.500000 0.958925
1.000000 0.500000 0.964240
0.000000 0.750000 0.960860
0.266912 0.750000 0.966175
0.528510 0.750000 0.971490
0.784793 0.750000 0.976805
1.000000 0.750000 0.982120
0.000000 1.000000 0.978740
0.257973 1.000000 0.984055
0.510630 1.000000 0.989370
0.757972 1.000000 0.994685
1.000000 1.000000 1.000000
