luts/warm_boost_17.cube
# Generated by scripts/recipes/generate_demo_luts.py
# Retouch Engine -- demo LUT (safe to redistribute).
# Mild warm midtone shift: R * 1.10 and B * 0.95 in midtones,
# weighted by a triangular bell peaking at L=0.5.
# Demonstrates a per-channel 'look' without being a real film stock.
TITLE "Demo Warm Boost 17x17x17"
LUT_3D_SIZE 9
DOMAIN_MIN 0.0 0.0 0.0
DOMAIN_MAX 1.0 1.0 1.0
0.000000 0.000000 0.000000
0.125664 0.000000 0.000000
0.252658 0.000000 0.000000
0.380979 0.000000 0.000000
0.510630 0.000000 0.000000
0.641609 0.000000 0.000000
0.773918 0.000000 0.000000
0.907554 0.000000 0.000000
1.000000 0.000000 0.000000
0.000000 0.125000 0.000000
0.127899 0.125000 0.000000
0.257127 0.125000 0.000000
0.387684 0.125000 0.000000
0.519570 0.125000 0.000000
0.652784 0.125000 0.000000
0.787328 0.125000 0.000000
0.923199 0.125000 0.000000
1.000000 0.125000 0.000000
0.000000 0.250000 0.000000
0.130134 0.250000 0.000000
0.261598 0.250000 0.000000
0.394389 0.250000 0.000000
0.528510 0.250000 0.000000
0.663959 0.250000 0.000000
0.800738 0.250000 0.000000
0.938844 0.250000 0.000000
1.000000 0.250000 0.000000
0.000000 0.375000 0.000000
0.132369 0.375000 0.000000
0.266068 0.375000 0.000000
0.401094 0.375000 0.000000
0.537450 0.375000 0.000000
0.675134 0.375000 0.000000
0.814148 0.375000 0.000000
0.954489 0.375000 0.000000
1.000000 0.375000 0.000000
0.000000 0.500000 0.000000
0.134604 0.500000 0.000000
0.270537 0.500000 0.000000
0.407799 0.500000 0.000000
0.546390 0.500000 0.000000
0.686309 0.500000 0.000000
0.822443 0.500000 0.000000
0.954866 0.500000 0.000000
1.000000 0.500000 0.000000
0.000000 0.625000 0.000000
0.136839 0.625000 0.000000
0.274992 0.625000 0.000000
0.410496 0.625000 0.000000
0.544670 0.625000 0.000000
0.677516 0.625000 0.000000
0.809032 0.625000 0.000000
0.939221 0.625000 0.000000
1.000000 0.625000 0.000000
0.000000 0.750000 0.000000
0.135926 0.750000 0.000000
0.270523 0.750000 0.000000
0.403791 0.750000 0.000000
0.535730 0.750000 0.000000
0.666341 0.750000 0.000000
0.795622 0.750000 0.000000
0.923576 0.750000 0.000000
1.000000 0.750000 0.000000
0.000000 0.875000 0.000000
0.133691 0.875000 0.000000
0.266052 0.875000 0.000000
0.397086 0.875000 0.000000
0.526790 0.875000 0.000000
0.655166 0.875000 0.000000
0.782212 0.875000 0.000000
0.907931 0.875000 0.000000
1.000000 0.875000 0.000000
0.000000 1.000000 0.000000
0.131456 1.000000 0.000000
0.261582 1.000000 0.000000
0.390381 1.000000 0.000000
0.517850 1.000000 0.000000
0.643991 1.000000 0.000000
0.768802 1.000000 0.000000
0.892286 1.000000 0.000000
1.000000 1.000000 0.000000
0.000000 0.000000 0.124887
0.125890 0.000000 0.124555
0.253109 0.000000 0.124223
0.381656 0.000000 0.123891
0.511532 0.000000 0.123558
0.642738 0.000000 0.123226
0.775271 0.000000 0.122894
0.909134 0.000000 0.122562
1.000000 0.000000 0.122230
0.000000 0.125000 0.123770
0.128125 0.125000 0.123438
0.257579 0.125000 0.123105
0.388361 0.125000 0.122773
0.520473 0.125000 0.122441
0.653912 0.125000 0.122109
0.788681 0.125000 0.121777
0.924779 0.125000 0.121444
1.000000 0.125000 0.121112
0.000000 0.250000 0.122652
0.130360 0.250000 0.122320
0.262049 0.250000 0.121988
0.395066 0.250000 0.121656
0.529413 0.250000 0.121323
0.665087 0.250000 0.120991
0.802091 0.250000 0.120659
0.940424 0.250000 0.120327
1.000000 0.250000 0.119995
0.000000 0.375000 0.121535
0.132595 0.375000 0.121202
0.266519 0.375000 0.120870
0.401771 0.375000 0.120538
0.538352 0.375000 0.120206
0.676262 0.375000 0.119874
0.815501 0.375000 0.119542
0.956069 0.375000 0.119209
1.000000 0.375000 0.118877
0.000000 0.500000 0.120417
0.134830 0.500000 0.120085
0.270989 0.500000 0.119753
0.408476 0.500000 0.119421
0.547292 0.500000 0.119088
0.687438 0.500000 0.118756
0.821089 0.500000 0.119076
0.953286 0.500000 0.119408
1.000000 0.500000 0.119740
0.000000 0.625000 0.119300
0.137065 0.625000 0.118968
0.274541 0.625000 0.118865
0.409819 0.625000 0.119197
0.543768 0.625000 0.119529
0.676387 0.625000 0.119861
0.807679 0.625000 0.120193
0.937641 0.625000 0.120526
1.000000 0.625000 0.120858
0.000000 0.750000 0.119318
0.135700 0.750000 0.119650
0.270071 0.750000 0.119982
0.403114 0.750000 0.120314
0.534827 0.750000 0.120647
0.665213 0.750000 0.120979
0.794269 0.750000 0.121311
0.921996 0.750000 0.121643
1.000000 0.750000 0.121975
0.000000 0.875000 0.120435
0.133465 0.875000 0.120767
0.265601 0.875000 0.121100
0.396409 0.875000 0.121432
0.525887 0.875000 0.121764
0.654038 0.875000 0.122096
0.780859 0.875000 0.122428
0.906351 0.875000 0.122761
1.000000 0.875000 0.123093
0.000000 1.000000 0.121553
0.131230 1.000000 0.121885
0.261131 1.000000 0.122217
0.389704 1.000000 0.122549
0.516948 1.000000 0.122882
0.642862 1.000000 0.123214
0.767449 1.000000 0.123546
0.890706 1.000000 0.123878
1.000000 1.000000 0.124210
0.000000 0.000000 0.249549
0.126116 0.000000 0.248884
0.253560 0.000000 0.248220
0.382333 0.000000 0.247556
0.512435 0.000000 0.246891
0.643866 0.000000 0.246227
0.776625 0.000000 0.245562
0.910713 0.000000 0.244898
1.000000 0.000000 0.244234
0.000000 0.125000 0.247314
0.128351 0.125000 0.246649
0.258030 0.125000 0.245985
0.389038 0.125000 0.245321
0.521375 0.125000 0.244656
0.655041 0.125000 0.243992
0.790035 0.125000 0.243327
0.926358 0.125000 0.242663
1.000000 0.125000 0.241999
0.000000 0.250000 0.245079
0.130586 0.250000 0.244414
0.262500 0.250000 0.243750
0.395743 0.250000 0.243086
0.530315 0.250000 0.242421
0.666216 0.250000 0.241757
0.803445 0.250000 0.241093
0.942003 0.250000 0.240428
1.000000 0.250000 0.239764
0.000000 0.375000 0.242844
0.132821 0.375000 0.242179
0.266970 0.375000 0.241515
0.402448 0.375000 0.240851
0.539255 0.375000 0.240186
0.677391 0.375000 0.239522
0.816855 0.375000 0.238858
0.957648 0.375000 0.238193
1.000000 0.375000 0.237529
0.000000 0.500000 0.240609
0.135056 0.500000 0.239944
0.271440 0.500000 0.239280
0.409153 0.500000 0.238616
0.548195 0.500000 0.237951
0.686434 0.500000 0.237713
0.819735 0.500000 0.238377
0.951707 0.500000 0.239042
1.000000 0.500000 0.239706
0.000000 0.625000 0.238374
0.137291 0.625000 0.237709
0.274090 0.625000 0.237955
0.409142 0.625000 0.238619
0.542865 0.625000 0.239284
0.675259 0.625000 0.239948
0.806325 0.625000 0.240613
0.936062 0.625000 0.241277
1.000000 0.625000 0.241941
0.000000 0.750000 0.238861
0.135474 0.750000 0.239526
0.269620 0.750000 0.240190
0.402437 0.750000 0.240854
0.533925 0.750000 0.241519
0.664084 0.750000 0.242183
0.792915 0.750000 0.242848
0.920417 0.750000 0.243512
1.000000 0.750000 0.244176
0.000000 0.875000 0.241096
0.133239 0.875000 0.241761
0.265150 0.875000 0.242425
0.395732 0.875000 0.243089
0.524985 0.875000 0.243754
0.652909 0.875000 0.244418
0.779505 0.875000 0.245082
0.904772 0.875000 0.245747
1.000000 0.875000 0.246411
0.000000 1.000000 0.243331
0.131004 1.000000 0.243996
0.260680 1.000000 0.244660
0.389027 1.000000 0.245324
0.516045 1.000000 0.245989
0.641734 1.000000 0.246653
0.766095 1.000000 0.247317
0.889127 1.000000 0.247982
1.000000 1.000000 0.248646
0.000000 0.000000 0.373985
0.126341 0.000000 0.372988
0.254011 0.000000 0.371992
0.383010 0.000000 0.370995
0.513337 0.000000 0.369998
0.644994 0.000000 0.369002
0.777979 0.000000 0.368005
0.912292 0.000000 0.367009
1.000000 0.000000 0.366012
0.000000 0.125000 0.370632
0.128576 0.125000 0.369636
0.258481 0.125000 0.368639
0.389715 0.125000 0.367642
0.522277 0.125000 0.366646
0.656169 0.125000 0.365649
0.791389 0.125000 0.364653
0.927938 0.125000 0.363656
1.000000 0.125000 0.362660
0.000000 0.250000 0.367280
0.130811 0.250000 0.366283
0.262951 0.250000 0.365287
0.396420 0.250000 0.364290
0.531218 0.250000 0.363293
0.667344 0.250000 0.362297
0.804799 0.250000 0.361300
0.943582 0.250000 0.360304
1.000000 0.250000 0.359307
0.000000 0.375000 0.363927
0.133046 0.375000 0.362931
0.267421 0.375000 0.361934
0.403125 0.375000 0.360937
0.540157 0.375000 0.359941
0.678519 0.375000 0.358944
0.818209 0.375000 0.357948
0.959227 0.375000 0.356951
1.000000 0.375000 0.356545
0.000000 0.500000 0.360575
0.135281 0.500000 0.359578
0.271891 0.500000 0.358582
0.409830 0.500000 0.357585
0.549097 0.500000 0.356588
0.685306 0.500000 0.356908
0.818381 0.500000 0.357905
0.950127 0.500000 0.358901
1.000000 0.500000 0.359898
0.000000 0.625000 0.357222
0.137484 0.625000 0.356274
0.273639 0.625000 0.357271
0.408465 0.625000 0.358268
0.541963 0.625000 0.359264
0.674131 0.625000 0.360261
0.804971 0.625000 0.361257
0.934483 0.625000 0.362254
1.000000 0.625000 0.363250
0.000000 0.750000 0.358630
0.135249 0.750000 0.359627
0.269169 0.750000 0.360623
0.401760 0.750000 0.361620
0.533023 0.750000 0.362617
0.662956 0.750000 0.363613
0.791561 0.750000 0.364610
0.918837 0.750000 0.365606
1.000000 0.750000 0.366603
0.000000 0.875000 0.361983
0.133014 0.875000 0.362979
0.264699 0.875000 0.363976
0.395055 0.875000 0.364973
0.524082 0.875000 0.365969
0.651781 0.875000 0.366966
0.778151 0.875000 0.367962
0.903193 0.875000 0.368959
1.000000 0.875000 0.369955
0.000000 1.000000 0.365335
0.130779 1.000000 0.366332
0.260229 1.000000 0.367328
0.388350 1.000000 0.368325
0.515143 1.000000 0.369322
0.640606 1.000000 0.370318
0.764741 1.000000 0.371315
0.887548 1.000000 0.372311
1.000000 1.000000 0.373308
0.000000 0.000000 0.498195
0.126567 0.000000 0.496866
0.254463 0.000000 0.495537
0.383687 0.000000 0.494209
0.514240 0.000000 0.492880
0.646122 0.000000 0.491551
0.779332 0.000000 0.490223
0.913872 0.000000 0.488894
1.000000 0.000000 0.487565
0.000000 0.125000 0.493725
0.128802 0.125000 0.492396
0.258933 0.125000 0.491067
0.390392 0.125000 0.489739
0.523180 0.125000 0.488410
0.657297 0.125000 0.487081
0.792742 0.125000 0.485752
0.929517 0.125000 0.484424
1.000000 0.125000 0.483095
0.000000 0.250000 0.489255
0.131037 0.250000 0.487926
0.263402 0.250000 0.486598
0.397097 0.250000 0.485269
0.532120 0.250000 0.483940
0.668472 0.250000 0.482611
0.806152 0.250000 0.481283
0.945162 0.250000 0.479954
1.000000 0.250000 0.478625
0.000000 0.375000 0.484785
0.133272 0.375000 0.483456
0.267873 0.375000 0.482127
0.403802 0.375000 0.480799
0.541060 0.375000 0.479470
0.679647 0.375000 0.478141
0.819562 0.375000 0.476813
0.960807 0.375000 0.475484
1.000000 0.375000 0.475845
0.000000 0.500000 0.480315
0.135507 0.500000 0.478986
0.272343 0.500000 0.477657
0.410507 0.500000 0.476329
0.550000 0.500000 0.475000
0.684178 0.500000 0.476329
0.817028 0.500000 0.477657
0.948548 0.500000 0.478986
1.000000 0.500000 0.480315
0.000000 0.625000 0.475845
0.137258 0.625000 0.475484
0.273187 0.625000 0.476813
0.407788 0.625000 0.478141
0.541060 0.625000 0.479470
0.673003 0.625000 0.480799
0.803618 0.625000 0.482127
0.932903 0.625000 0.483456
1.000000 0.625000 0.484785
0.000000 0.750000 0.478625
0.135023 0.750000 0.479954
0.268717 0.750000 0.481283
0.401083 0.750000 0.482611
0.532120 0.750000 0.483940
0.661828 0.750000 0.485269
0.790208 0.750000 0.486598
0.917258 0.750000 0.487926
1.000000 0.750000 0.489255
0.000000 0.875000 0.483095
0.132788 0.875000 0.484424
0.264248 0.875000 0.485752
0.394378 0.875000 0.487081
0.523180 0.875000 0.488410
0.650653 0.875000 0.489739
0.776798 0.875000 0.491067
0.901613 0.875000 0.492396
1.000000 0.875000 0.493725
0.000000 1.000000 0.487565
0.130553 1.000000 0.488894
0.259777 1.000000 0.490223
0.387673 1.000000 0.491551
0.514240 1.000000 0.492880
0.639478 1.000000 0.494209
0.763388 1.000000 0.495537
0.885968 1.000000 0.496866
1.000000 1.000000 0.498195
0.000000 0.000000 0.622180
0.126793 0.000000 0.620519
0.254914 0.000000 0.618858
0.384364 0.000000 0.617197
0.515143 0.000000 0.615536
0.647250 0.000000 0.613875
0.780686 0.000000 0.612214
0.915451 0.000000 0.610553
1.000000 0.000000 0.608892
0.000000 0.125000 0.616592
0.129028 0.125000 0.614931
0.259384 0.125000 0.613270
0.391069 0.125000 0.611609
0.524082 0.125000 0.609948
0.658425 0.125000 0.608288
0.794096 0.125000 0.606627
0.931096 0.125000 0.604966
1.000000 0.125000 0.603305
0.000000 0.250000 0.611005
0.131262 0.250000 0.609344
0.263854 0.250000 0.607683
0.397774 0.250000 0.606022
0.533023 0.250000 0.604361
0.669600 0.250000 0.602700
0.807506 0.250000 0.601039
0.946741 0.250000 0.599378
1.000000 0.250000 0.597717
0.000000 0.375000 0.605417
0.133498 0.375000 0.603756
0.268324 0.375000 0.602095
0.404479 0.375000 0.600434
0.541963 0.375000 0.598773
0.680775 0.375000 0.597113
0.820916 0.375000 0.595452
0.962386 0.375000 0.593791
1.000000 0.375000 0.595370
0.000000 0.500000 0.599830
0.135733 0.500000 0.598169
0.272794 0.500000 0.596508
0.411184 0.500000 0.594847
0.549097 0.500000 0.594314
0.683050 0.500000 0.595975
0.815674 0.500000 0.597636
0.946969 0.500000 0.599297
1.000000 0.500000 0.600958
0.000000 0.625000 0.594242
0.137032 0.625000 0.594919
0.272736 0.625000 0.596580
0.407111 0.625000 0.598241
0.540157 0.625000 0.599902
0.671875 0.625000 0.601562
0.802264 0.625000 0.603223
0.931324 0.625000 0.604884
1.000000 0.625000 0.606545
0.000000 0.750000 0.598845
0.134797 0.750000 0.600506
0.268266 0.750000 0.602167
0.400406 0.750000 0.603828
0.531218 0.750000 0.605489
0.660700 0.750000 0.607150
0.788854 0.750000 0.608811
0.915679 0.750000 0.610472
1.000000 0.750000 0.612133
0.000000 0.875000 0.604433
0.132563 0.875000 0.606094
0.263796 0.875000 0.607755
0.393701 0.875000 0.609416
0.522277 0.875000 0.611077
0.649525 0.875000 0.612737
0.775444 0.875000 0.614398
0.900034 0.875000 0.616059
1.000000 0.875000 0.617720
0.000000 1.000000 0.610020
0.130327 1.000000 0.611681
0.259326 1.000000 0.613342
0.386996 1.000000 0.615003
0.513337 1.000000 0.616664
0.638350 1.000000 0.618325
0.762034 1.000000 0.619986
0.884389 1.000000 0.621647
1.000000 1.000000 0.623308
0.000000 0.000000 0.745939
0.127018 0.000000 0.743946
0.255365 0.000000 0.741952
0.385041 0.000000 0.739959
0.516045 0.000000 0.737966
0.648378 0.000000 0.735973
0.782040 0.000000 0.733980
0.917031 0.000000 0.731987
1.000000 0.000000 0.729994
0.000000 0.125000 0.739234
0.129253 0.125000 0.737241
0.259835 0.125000 0.735247
0.391746 0.125000 0.733254
0.524985 0.125000 0.731261
0.659553 0.125000 0.729268
0.795450 0.125000 0.727275
0.932676 0.125000 0.725282
1.000000 0.125000 0.723289
0.000000 0.250000 0.732529
0.131488 0.250000 0.730536
0.264305 0.250000 0.728543
0.398451 0.250000 0.726549
0.533925 0.250000 0.724556
0.670728 0.250000 0.722563
0.808860 0.250000 0.720570
0.948321 0.250000 0.718577
1.000000 0.250000 0.716584
0.000000 0.375000 0.725824
0.133723 0.375000 0.723831
0.268775 0.375000 0.721838
0.405156 0.375000 0.719844
0.542865 0.375000 0.717851
0.681903 0.375000 0.715858
0.822270 0.375000 0.713865
0.961034 0.375000 0.713128
1.000000 0.375000 0.715121
0.000000 0.500000 0.719119
0.135958 0.500000 0.717126
0.273245 0.500000 0.715132
0.411861 0.500000 0.713139
0.548195 0.500000 0.713854
0.681922 0.500000 0.715847
0.814320 0.500000 0.717840
0.945389 0.500000 0.719833
1.000000 0.500000 0.721826
0.000000 0.625000 0.712586
0.136807 0.625000 0.714579
0.272285 0.625000 0.716572
0.406434 0.625000 0.718566
0.539255 0.625000 0.720559
0.670747 0.625000 0.722552
0.800910 0.625000 0.724545
0.929744 0.625000 0.726538
1.000000 0.625000 0.728531
0.000000 0.750000 0.719291
0.134572 0.750000 0.721284
0.267815 0.750000 0.723278
0.399729 0.750000 0.725271
0.530315 0.750000 0.727264
0.659572 0.750000 0.729257
0.787500 0.750000 0.731250
0.914099 0.750000 0.733243
1.000000 0.750000 0.735236
0.000000 0.875000 0.725996
0.132337 0.875000 0.727989
0.263345 0.875000 0.729982
0.393024 0.875000 0.731976
0.521375 0.875000 0.733969
0.648397 0.875000 0.735962
0.774090 0.875000 0.737955
0.898454 0.875000 0.739948
1.000000 0.875000 0.741941
0.000000 1.000000 0.732701
0.130102 1.000000 0.734694
0.258875 1.000000 0.736687
0.386319 1.000000 0.738681
0.512435 1.000000 0.740674
0.637222 1.000000 0.742667
0.760680 1.000000 0.744660
0.882809 1.000000 0.746653
1.000000 1.000000 0.748646
0.000000 0.000000 0.869472
0.127244 0.000000 0.867147
0.255816 0.000000 0.864822
0.385717 0.000000 0.862496
0.516948 0.000000 0.860171
0.649506 0.000000 0.857846
0.783394 0.000000 0.855520
0.918610 0.000000 0.853195
1.000000 0.000000 0.850870
0.000000 0.125000 0.861650
0.129479 0.125000 0.859324
0.260286 0.125000 0.856999
0.392422 0.125000 0.854674
0.525887 0.125000 0.852348
0.660681 0.125000 0.850023
0.796804 0.125000 0.847698
0.934255 0.125000 0.845373
1.000000 0.125000 0.843047
0.000000 0.250000 0.853827
0.131714 0.250000 0.851502
0.264756 0.250000 0.849177
0.399127 0.250000 0.846851
0.534827 0.250000 0.844526
0.671856 0.250000 0.842201
0.810214 0.250000 0.839875
0.949900 0.250000 0.837550
1.000000 0.250000 0.835225
0.000000 0.375000 0.846005
0.133949 0.375000 0.843679
0.269226 0.375000 0.841354
0.405832 0.375000 0.839029
0.543768 0.375000 0.836703
0.683031 0.375000 0.834378
0.823624 0.375000 0.832053
0.959455 0.375000 0.832772
1.000000 0.375000 0.835098
0.000000 0.500000 0.838182
0.136184 0.500000 0.835857
0.273696 0.500000 0.833532
0.412463 0.500000 0.831294
0.547292 0.500000 0.833619
0.680794 0.500000 0.835944
0.812966 0.500000 0.838270
0.943810 0.500000 0.840595
1.000000 0.500000 0.842920
0.000000 0.625000 0.832140
0.136581 0.625000 0.834466
0.271834 0.625000 0.836791
0.405758 0.625000 0.839116
0.538352 0.625000 0.841442
0.669619 0.625000 0.843767
0.799556 0.625000 0.846092
0.928165 0.625000 0.848418
1.000000 0.625000 0.850743
0.000000 0.750000 0.839963
0.134346 0.750000 0.842288
0.267364 0.750000 0.844613
0.399053 0.750000 0.846939
0.529413 0.750000 0.849264
0.658444 0.750000 0.851589
0.786146 0.750000 0.853915
0.912520 0.750000 0.856240
1.000000 0.750000 0.858565
0.000000 0.875000 0.847785
0.132111 0.875000 0.850111
0.262894 0.875000 0.852436
0.392348 0.875000 0.854761
0.520473 0.875000 0.857087
0.647269 0.875000 0.859412
0.772736 0.875000 0.861737
0.896875 0.875000 0.864062
1.000000 0.875000 0.866388
0.000000 1.000000 0.855608
0.129876 1.000000 0.857933
0.258424 1.000000 0.860258
0.385643 1.000000 0.862584
0.511532 1.000000 0.864909
0.636094 1.000000 0.867234
0.759326 1.000000 0.869560
0.881230 1.000000 0.871885
1.000000 1.000000 0.874210
0.000000 0.000000 0.992780
0.127469 0.000000 0.990122
0.256267 0.000000 0.987465
0.386394 0.000000 0.984807
0.517850 0.000000 0.982150
0.650634 0.000000 0.979492
0.784747 0.000000 0.976835
0.920189 0.000000 0.974177
1.000000 0.000000 0.971520
0.000000 0.125000 0.983840
0.129704 0.125000 0.981183
0.260738 0.125000 0.978525
0.393099 0.125000 0.975868
0.526790 0.125000 0.973210
0.661809 0.125000 0.970553
0.798157 0.125000 0.967895
0.935834 0.125000 0.965237
1.000000 0.125000 0.962580
0.000000 0.250000 0.974900
0.131939 0.250000 0.972242
0.265207 0.250000 0.969585
0.399804 0.250000 0.966928
0.535730 0.250000 0.964270
0.672984 0.250000 0.961613
0.811568 0.250000 0.958955
0.951479 0.250000 0.956298
1.000000 0.250000 0.953640
0.000000 0.375000 0.965960
0.134174 0.375000 0.963302
0.269677 0.375000 0.960645
0.406509 0.375000 0.957987
0.544670 0.375000 0.955330
0.684159 0.375000 0.952672
0.824978 0.375000 0.950015
0.957876 0.375000 0.952643
1.000000 0.375000 0.955300
0.000000 0.500000 0.957020
0.136409 0.500000 0.954363
0.274148 0.500000 0.951705
0.411786 0.500000 0.950953
0.546390 0.500000 0.953610
0.679666 0.500000 0.956267
0.811612 0.500000 0.958925
0.942231 0.500000 0.961582
1.000000 0.500000 0.964240
0.000000 0.625000 0.951920
0.136356 0.625000 0.954578
0.271383 0.625000 0.957235
0.405081 0.625000 0.959893
0.537450 0.625000 0.962550
0.668491 0.625000 0.965208
0.798203 0.625000 0.967865
0.926586 0.625000 0.970523
1.000000 0.625000 0.973180
0.000000 0.750000 0.960860
0.134121 0.750000 0.963517
0.266912 0.750000 0.966175
0.398376 0.750000 0.968832
0.528510 0.750000 0.971490
0.657316 0.750000 0.974147
0.784793 0.750000 0.976805
0.910941 0.750000 0.979463
1.000000 0.750000 0.982120
0.000000 0.875000 0.969800
0.131886 0.875000 0.972458
0.262442 0.875000 0.975115
0.391671 0.875000 0.977772
0.519570 0.875000 0.980430
0.646141 0.875000 0.983087
0.771382 0.875000 0.985745
0.895296 0.875000 0.988402
1.000000 0.875000 0.991060
0.000000 1.000000 0.978740
0.129651 1.000000 0.981398
0.257973 1.000000 0.984055
0.384966 1.000000 0.986713
0.510630 1.000000 0.989370
0.634966 1.000000 0.992028
0.757972 1.000000 0.994685
0.879651 1.000000 0.997342
1.000000 1.000000 1.000000
