luts/warm_boost_17.cube
# Generated by scripts/recipes/generate_demo_luts.py
# Retouch Engine -- demo LUT (safe to redistribute).
# Mild warm midtone shift: R * 1.10 and B * 0.95 in midtones,
# weighted by a triangular bell peaking at L=0.5.
# Demonstrates a per-channel 'look' without being a real film stock.
TITLE "Demo Warm Boost 17x17x17"
LUT_3D_SIZE 17
DOMAIN_MIN 0.0 0.0 0.0
DOMAIN_MAX 1.0 1.0 1.0
0.000000 0.000000 0.000000
0.062666 0.000000 0.000000
0.125664 0.000000 0.000000
0.188995 0.000000 0.000000
0.252658 0.000000 0.000000
0.316652 0.000000 0.000000
0.380979 0.000000 0.000000
0.445639 0.000000 0.000000
0.510630 0.000000 0.000000
0.575954 0.000000 0.000000
0.641609 0.000000 0.000000
0.707597 0.000000 0.000000
0.773918 0.000000 0.000000
0.840570 0.000000 0.000000
0.907554 0.000000 0.000000
0.974871 0.000000 0.000000
1.000000 0.000000 0.000000
0.000000 0.062500 0.000000
0.063225 0.062500 0.000000
0.126782 0.062500 0.000000
0.190671 0.062500 0.000000
0.254892 0.062500 0.000000
0.319446 0.062500 0.000000
0.384332 0.062500 0.000000
0.449550 0.062500 0.000000
0.515100 0.062500 0.000000
0.580982 0.062500 0.000000
0.647197 0.062500 0.000000
0.713744 0.062500 0.000000
0.780622 0.062500 0.000000
0.847834 0.062500 0.000000
0.915377 0.062500 0.000000
0.983252 0.062500 0.000000
1.000000 0.062500 0.000000
0.000000 0.125000 0.000000
0.063784 0.125000 0.000000
0.127899 0.125000 0.000000
0.192347 0.125000 0.000000
0.257127 0.125000 0.000000
0.322240 0.125000 0.000000
0.387684 0.125000 0.000000
0.453461 0.125000 0.000000
0.519570 0.125000 0.000000
0.586011 0.125000 0.000000
0.652784 0.125000 0.000000
0.719890 0.125000 0.000000
0.787328 0.125000 0.000000
0.855097 0.125000 0.000000
0.923199 0.125000 0.000000
0.991634 0.125000 0.000000
1.000000 0.125000 0.000000
0.000000 0.187500 0.000000
0.064342 0.187500 0.000000
0.129017 0.187500 0.000000
0.194024 0.187500 0.000000
0.259362 0.187500 0.000000
0.325034 0.187500 0.000000
0.391037 0.187500 0.000000
0.457372 0.187500 0.000000
0.524040 0.187500 0.000000
0.591040 0.187500 0.000000
0.658372 0.187500 0.000000
0.726036 0.187500 0.000000
0.794032 0.187500 0.000000
0.862361 0.187500 0.000000
0.931022 0.187500 0.000000
1.000000 0.187500 0.000000
1.000000 0.187500 0.000000
0.000000 0.250000 0.000000
0.064901 0.250000 0.000000
0.130134 0.250000 0.000000
0.195700 0.250000 0.000000
0.261598 0.250000 0.000000
0.327827 0.250000 0.000000
0.394389 0.250000 0.000000
0.461284 0.250000 0.000000
0.528510 0.250000 0.000000
0.596069 0.250000 0.000000
0.663959 0.250000 0.000000
0.732182 0.250000 0.000000
0.800738 0.250000 0.000000
0.869625 0.250000 0.000000
0.938844 0.250000 0.000000
1.000000 0.250000 0.000000
1.000000 0.250000 0.000000
0.000000 0.312500 0.000000
0.065460 0.312500 0.000000
0.131252 0.312500 0.000000
0.197376 0.312500 0.000000
0.263833 0.312500 0.000000
0.330621 0.312500 0.000000
0.397742 0.312500 0.000000
0.465195 0.312500 0.000000
0.532980 0.312500 0.000000
0.601097 0.312500 0.000000
0.669547 0.312500 0.000000
0.738329 0.312500 0.000000
0.807443 0.312500 0.000000
0.876889 0.312500 0.000000
0.946667 0.312500 0.000000
1.000000 0.312500 0.000000
1.000000 0.312500 0.000000
0.000000 0.375000 0.000000
0.066019 0.375000 0.000000
0.132369 0.375000 0.000000
0.199052 0.375000 0.000000
0.266068 0.375000 0.000000
0.333415 0.375000 0.000000
0.401094 0.375000 0.000000
0.469106 0.375000 0.000000
0.537450 0.375000 0.000000
0.606126 0.375000 0.000000
0.675134 0.375000 0.000000
0.744475 0.375000 0.000000
0.814148 0.375000 0.000000
0.884152 0.375000 0.000000
0.954489 0.375000 0.000000
1.000000 0.375000 0.000000
1.000000 0.375000 0.000000
0.000000 0.437500 0.000000
0.066577 0.437500 0.000000
0.133487 0.437500 0.000000
0.200729 0.437500 0.000000
0.268303 0.437500 0.000000
0.336209 0.437500 0.000000
0.404447 0.437500 0.000000
0.473017 0.437500 0.000000
0.541920 0.437500 0.000000
0.611155 0.437500 0.000000
0.680722 0.437500 0.000000
0.750621 0.437500 0.000000
0.820853 0.437500 0.000000
0.891416 0.437500 0.000000
0.962312 0.437500 0.000000
1.000000 0.437500 0.000000
1.000000 0.437500 0.000000
0.000000 0.500000 0.000000
0.067136 0.500000 0.000000
0.134604 0.500000 0.000000
0.202405 0.500000 0.000000
0.270537 0.500000 0.000000
0.339002 0.500000 0.000000
0.407799 0.500000 0.000000
0.476929 0.500000 0.000000
0.546390 0.500000 0.000000
0.616184 0.500000 0.000000
0.686309 0.500000 0.000000
0.755733 0.500000 0.000000
0.822443 0.500000 0.000000
0.888820 0.500000 0.000000
0.954866 0.500000 0.000000
1.000000 0.500000 0.000000
1.000000 0.500000 0.000000
0.000000 0.562500 0.000000
0.067695 0.562500 0.000000
0.135722 0.562500 0.000000
0.204081 0.562500 0.000000
0.272772 0.562500 0.000000
0.341796 0.562500 0.000000
0.411152 0.562500 0.000000
0.480840 0.562500 0.000000
0.549140 0.562500 0.000000
0.616288 0.562500 0.000000
0.683103 0.562500 0.000000
0.749586 0.562500 0.000000
0.815738 0.562500 0.000000
0.881556 0.562500 0.000000
0.947043 0.562500 0.000000
1.000000 0.562500 0.000000
1.000000 0.562500 0.000000
0.000000 0.625000 0.000000
0.068254 0.625000 0.000000
0.136839 0.625000 0.000000
0.205757 0.625000 0.000000
0.274992 0.625000 0.000000
0.342910 0.625000 0.000000
0.410496 0.625000 0.000000
0.477749 0.625000 0.000000
0.544670 0.625000 0.000000
0.611259 0.625000 0.000000
0.677516 0.625000 0.000000
0.743440 0.625000 0.000000
0.809032 0.625000 0.000000
0.874293 0.625000 0.000000
0.939221 0.625000 0.000000
1.000000 0.625000 0.000000
1.000000 0.625000 0.000000
0.000000 0.687500 0.000000
0.068688 0.687500 0.000000
0.137043 0.687500 0.000000
0.205066 0.687500 0.000000
0.272758 0.687500 0.000000
0.340116 0.687500 0.000000
0.407143 0.687500 0.000000
0.473838 0.687500 0.000000
0.540200 0.687500 0.000000
0.606230 0.687500 0.000000
0.671928 0.687500 0.000000
0.737294 0.687500 0.000000
0.802328 0.687500 0.000000
0.867029 0.687500 0.000000
0.931398 0.687500 0.000000
0.995435 0.687500 0.000000
1.000000 0.687500 0.000000
0.000000 0.750000 0.000000
0.068129 0.750000 0.000000
0.135926 0.750000 0.000000
0.203390 0.750000 0.000000
0.270523 0.750000 0.000000
0.337323 0.750000 0.000000
0.403791 0.750000 0.000000
0.469926 0.750000 0.000000
0.535730 0.750000 0.000000
0.601201 0.750000 0.000000
0.666341 0.750000 0.000000
0.731148 0.750000 0.000000
0.795622 0.750000 0.000000
0.859765 0.750000 0.000000
0.923576 0.750000 0.000000
0.987054 0.750000 0.000000
1.000000 0.750000 0.000000
0.000000 0.812500 0.000000
0.067570 0.812500 0.000000
0.134808 0.812500 0.000000
0.201714 0.812500 0.000000
0.268288 0.812500 0.000000
0.334529 0.812500 0.000000
0.400438 0.812500 0.000000
0.466015 0.812500 0.000000
0.531260 0.812500 0.000000
0.596173 0.812500 0.000000
0.660753 0.812500 0.000000
0.725001 0.812500 0.000000
0.788918 0.812500 0.000000
0.852501 0.812500 0.000000
0.915753 0.812500 0.000000
0.978673 0.812500 0.000000
1.000000 0.812500 0.000000
0.000000 0.875000 0.000000
0.067011 0.875000 0.000000
0.133691 0.875000 0.000000
0.200038 0.875000 0.000000
0.266052 0.875000 0.000000
0.331735 0.875000 0.000000
0.397086 0.875000 0.000000
0.462104 0.875000 0.000000
0.526790 0.875000 0.000000
0.591144 0.875000 0.000000
0.655166 0.875000 0.000000
0.718855 0.875000 0.000000
0.782212 0.875000 0.000000
0.845238 0.875000 0.000000
0.907931 0.875000 0.000000
0.970291 0.875000 0.000000
1.000000 0.875000 0.000000
0.000000 0.937500 0.000000
0.066453 0.937500 0.000000
0.132573 0.937500 0.000000
0.198361 0.937500 0.000000
0.263817 0.937500 0.000000
0.328941 0.937500 0.000000
0.393733 0.937500 0.000000
0.458193 0.937500 0.000000
0.522320 0.937500 0.000000
0.586115 0.937500 0.000000
0.649578 0.937500 0.000000
0.712709 0.937500 0.000000
0.775508 0.937500 0.000000
0.837974 0.937500 0.000000
0.900108 0.937500 0.000000
0.961910 0.937500 0.000000
1.000000 0.937500 0.000000
0.000000 1.000000 0.000000
0.065894 1.000000 0.000000
0.131456 1.000000 0.000000
0.196685 1.000000 0.000000
0.261582 1.000000 0.000000
0.326148 1.000000 0.000000
0.390381 1.000000 0.000000
0.454281 1.000000 0.000000
0.517850 1.000000 0.000000
0.581086 1.000000 0.000000
0.643991 1.000000 0.000000
0.706563 1.000000 0.000000
0.768802 1.000000 0.000000
0.830710 1.000000 0.000000
0.892286 1.000000 0.000000
0.953529 1.000000 0.000000
1.000000 1.000000 0.000000
0.000000 0.000000 0.062472
0.062722 0.000000 0.062389
0.125777 0.000000 0.062306
0.189164 0.000000 0.062223
0.252883 0.000000 0.062140
0.316934 0.000000 0.062057
0.381318 0.000000 0.061974
0.446033 0.000000 0.061890
0.511081 0.000000 0.061807
0.576461 0.000000 0.061724
0.642173 0.000000 0.061641
0.708218 0.000000 0.061558
0.774594 0.000000 0.061475
0.841303 0.000000 0.061392
0.908344 0.000000 0.061309
0.975717 0.000000 0.061226
1.000000 0.000000 0.061143
0.000000 0.062500 0.062192
0.063281 0.062500 0.062109
0.126895 0.062500 0.062026
0.190840 0.062500 0.061943
0.255118 0.062500 0.061860
0.319728 0.062500 0.061777
0.384670 0.062500 0.061694
0.449945 0.062500 0.061611
0.515551 0.062500 0.061528
0.581490 0.062500 0.061445
0.647761 0.062500 0.061362
0.714364 0.062500 0.061279
0.781299 0.062500 0.061196
0.848567 0.062500 0.061113
0.916167 0.062500 0.061030
0.984098 0.062500 0.060947
1.000000 0.062500 0.060864
0.000000 0.125000 0.061913
0.063840 0.125000 0.061830
0.128012 0.125000 0.061747
0.192517 0.125000 0.061664
0.257353 0.125000 0.061581
0.322522 0.125000 0.061498
0.388023 0.125000 0.061415
0.453856 0.125000 0.061332
0.520021 0.125000 0.061249
0.586519 0.125000 0.061166
0.653348 0.125000 0.061083
0.720510 0.125000 0.061000
0.788004 0.125000 0.060916
0.855831 0.125000 0.060833
0.923989 0.125000 0.060750
0.992480 0.125000 0.060667
1.000000 0.125000 0.060584
0.000000 0.187500 0.061634
0.064399 0.187500 0.061551
0.129130 0.187500 0.061468
0.194193 0.187500 0.061385
0.259588 0.187500 0.061301
0.325316 0.187500 0.061218
0.391375 0.187500 0.061135
0.457767 0.187500 0.061052
0.524491 0.187500 0.060969
0.591547 0.187500 0.060886
0.658936 0.187500 0.060803
0.726657 0.187500 0.060720
0.794709 0.187500 0.060637
0.863094 0.187500 0.060554
0.931812 0.187500 0.060471
1.000000 0.187500 0.060388
1.000000 0.187500 0.060305
0.000000 0.250000 0.061354
0.064957 0.250000 0.061271
0.130247 0.250000 0.061188
0.195869 0.250000 0.061105
0.261823 0.250000 0.061022
0.328109 0.250000 0.060939
0.394728 0.250000 0.060856
0.461678 0.250000 0.060773
0.528961 0.250000 0.060690
0.596576 0.250000 0.060607
0.664523 0.250000 0.060524
0.732803 0.250000 0.060441
0.801414 0.250000 0.060358
0.870358 0.250000 0.060275
0.939634 0.250000 0.060192
1.000000 0.250000 0.060109
1.000000 0.250000 0.060026
0.000000 0.312500 0.061075
0.065516 0.312500 0.060992
0.131365 0.312500 0.060909
0.197545 0.312500 0.060826
0.264058 0.312500 0.060743
0.330903 0.312500 0.060660
0.398080 0.312500 0.060577
0.465590 0.312500 0.060494
0.533431 0.312500 0.060411
0.601605 0.312500 0.060328
0.670111 0.312500 0.060244
0.738949 0.312500 0.060161
0.808119 0.312500 0.060078
0.877622 0.312500 0.059995
0.947457 0.312500 0.059912
1.000000 0.312500 0.059829
1.000000 0.312500 0.059746
0.000000 0.375000 0.060796
0.066075 0.375000 0.060713
0.132482 0.375000 0.060629
0.199222 0.375000 0.060546
0.266293 0.375000 0.060463
0.333697 0.375000 0.060380
0.401433 0.375000 0.060297
0.469501 0.375000 0.060214
0.537901 0.375000 0.060131
0.606634 0.375000 0.060048
0.675698 0.375000 0.059965
0.745095 0.375000 0.059882
0.814824 0.375000 0.059799
0.884886 0.375000 0.059716
0.955279 0.375000 0.059633
1.000000 0.375000 0.059550
1.000000 0.375000 0.059467
0.000000 0.437500 0.060516
0.066634 0.437500 0.060433
0.133600 0.437500 0.060350
0.200898 0.437500 0.060267
0.268528 0.437500 0.060184
0.336491 0.437500 0.060101
0.404785 0.437500 0.060018
0.473412 0.437500 0.059935
0.542371 0.437500 0.059852
0.611663 0.437500 0.059769
0.681286 0.437500 0.059686
0.751242 0.437500 0.059603
0.821529 0.437500 0.059520
0.892149 0.437500 0.059437
0.961898 0.437500 0.059396
1.000000 0.437500 0.059480
1.000000 0.437500 0.059563
0.000000 0.500000 0.060237
0.067193 0.500000 0.060154
0.134717 0.500000 0.060071
0.202574 0.500000 0.059988
0.270763 0.500000 0.059905
0.339284 0.500000 0.059822
0.408138 0.500000 0.059739
0.477323 0.500000 0.059655
0.546841 0.500000 0.059572
0.616691 0.500000 0.059489
0.686873 0.500000 0.059406
0.755112 0.500000 0.059427
0.821766 0.500000 0.059510
0.888087 0.500000 0.059593
0.954076 0.500000 0.059676
1.000000 0.500000 0.059759
1.000000 0.500000 0.059842
0.000000 0.562500 0.059957
0.067751 0.562500 0.059874
0.135835 0.562500 0.059791
0.204250 0.562500 0.059708
0.272998 0.562500 0.059625
0.342078 0.562500 0.059542
0.411490 0.562500 0.059459
0.481235 0.562500 0.059376
0.548689 0.562500 0.059457
0.615780 0.562500 0.059540
0.682539 0.562500 0.059623
0.748966 0.562500 0.059706
0.815061 0.562500 0.059789
0.880823 0.562500 0.059872
0.946253 0.562500 0.059955
1.000000 0.562500 0.060038
1.000000 0.562500 0.060121
0.000000 0.625000 0.059678
0.068310 0.625000 0.059595
0.136952 0.625000 0.059512
0.205927 0.625000 0.059429
0.274767 0.625000 0.059404
0.342628 0.625000 0.059487
0.410157 0.625000 0.059570
0.477354 0.625000 0.059653
0.544219 0.625000 0.059736
0.610751 0.625000 0.059819
0.676952 0.625000 0.059902
0.742820 0.625000 0.059985
0.808356 0.625000 0.060069
0.873559 0.625000 0.060152
0.938431 0.625000 0.060235
1.000000 0.625000 0.060318
1.000000 0.625000 0.060401
0.000000 0.687500 0.059399
0.068631 0.687500 0.059434
0.136930 0.687500 0.059517
0.204897 0.687500 0.059600
0.272532 0.687500 0.059684
0.339834 0.687500 0.059767
0.406805 0.687500 0.059850
0.473443 0.687500 0.059933
0.539749 0.687500 0.060016
0.605723 0.687500 0.060099
0.671364 0.687500 0.060182
0.736673 0.687500 0.060265
0.801651 0.687500 0.060348
0.866296 0.687500 0.060431
0.930608 0.687500 0.060514
0.994589 0.687500 0.060597
1.000000 0.687500 0.060680
0.000000 0.750000 0.059631
0.068072 0.750000 0.059714
0.135813 0.750000 0.059797
0.203221 0.750000 0.059880
0.270297 0.750000 0.059963
0.337041 0.750000 0.060046
0.403452 0.750000 0.060129
0.469532 0.750000 0.060212
0.535279 0.750000 0.060295
0.600694 0.750000 0.060378
0.665777 0.750000 0.060461
0.730527 0.750000 0.060544
0.794946 0.750000 0.060627
0.859032 0.750000 0.060710
0.922786 0.750000 0.060793
0.986208 0.750000 0.060876
1.000000 0.750000 0.060959
0.000000 0.812500 0.059910
0.067514 0.812500 0.059993
0.134695 0.812500 0.060076
0.201545 0.812500 0.060159
0.268062 0.812500 0.060242
0.334247 0.812500 0.060325
0.400100 0.812500 0.060408
0.465620 0.812500 0.060491
0.530809 0.812500 0.060574
0.595665 0.812500 0.060658
0.660189 0.812500 0.060741
0.724381 0.812500 0.060824
0.788241 0.812500 0.060907
0.851768 0.812500 0.060990
0.914963 0.812500 0.061073
0.977827 0.812500 0.061156
1.000000 0.812500 0.061239
0.000000 0.875000 0.060189
0.066955 0.875000 0.060272
0.133578 0.875000 0.060356
0.199868 0.875000 0.060439
0.265827 0.875000 0.060522
0.331453 0.875000 0.060605
0.396747 0.875000 0.060688
0.461709 0.875000 0.060771
0.526339 0.875000 0.060854
0.590636 0.875000 0.060937
0.654602 0.875000 0.061020
0.718235 0.875000 0.061103
0.781536 0.875000 0.061186
0.844504 0.875000 0.061269
0.907141 0.875000 0.061352
0.969445 0.875000 0.061435
1.000000 0.875000 0.061518
0.000000 0.937500 0.060469
0.066396 0.937500 0.060552
0.132460 0.937500 0.060635
0.198192 0.937500 0.060718
0.263592 0.937500 0.060801
0.328659 0.937500 0.060884
0.393395 0.937500 0.060967
0.457798 0.937500 0.061050
0.521869 0.937500 0.061133
0.585608 0.937500 0.061216
0.649014 0.937500 0.061299
0.712088 0.937500 0.061382
0.774831 0.937500 0.061465
0.837241 0.937500 0.061548
0.899318 0.937500 0.061631
0.961064 0.937500 0.061715
1.000000 0.937500 0.061798
0.000000 1.000000 0.060748
0.065838 1.000000 0.060831
0.131343 1.000000 0.060914
0.196516 1.000000 0.060997
0.261357 1.000000 0.061080
0.325866 1.000000 0.061163
0.390042 1.000000 0.061246
0.453887 1.000000 0.061330
0.517399 1.000000 0.061413
0.580579 1.000000 0.061496
0.643427 1.000000 0.061579
0.705942 1.000000 0.061662
0.768126 1.000000 0.061745
0.829977 1.000000 0.061828
0.891496 1.000000 0.061911
0.952683 1.000000 0.061994
1.000000 1.000000 0.062077
0.000000 0.000000 0.124887
0.062779 0.000000 0.124721
0.125890 0.000000 0.124555
0.189333 0.000000 0.124389
0.253109 0.000000 0.124223
0.317216 0.000000 0.124057
0.381656 0.000000 0.123891
0.446428 0.000000 0.123725
0.511532 0.000000 0.123558
0.576969 0.000000 0.123392
0.642738 0.000000 0.123226
0.708838 0.000000 0.123060
0.775271 0.000000 0.122894
0.842036 0.000000 0.122728
0.909134 0.000000 0.122562
0.976563 0.000000 0.122396
1.000000 0.000000 0.122230
0.000000 0.062500 0.124328
0.063338 0.062500 0.124162
0.127007 0.062500 0.123996
0.191010 0.062500 0.123830
0.255344 0.062500 0.123664
0.320010 0.062500 0.123498
0.385009 0.062500 0.123332
0.450340 0.062500 0.123166
0.516002 0.062500 0.123000
0.581998 0.062500 0.122834
0.648325 0.062500 0.122667
0.714985 0.062500 0.122501
0.781976 0.062500 0.122335
0.849300 0.062500 0.122169
0.916956 0.062500 0.122003
0.984944 0.062500 0.121837
1.000000 0.062500 0.121671
0.000000 0.125000 0.123770
0.063896 0.125000 0.123604
0.128125 0.125000 0.123438
0.192686 0.125000 0.123271
0.257579 0.125000 0.123105
0.322804 0.125000 0.122939
0.388361 0.125000 0.122773
0.454251 0.125000 0.122607
0.520473 0.125000 0.122441
0.587026 0.125000 0.122275
0.653912 0.125000 0.122109
0.721131 0.125000 0.121943
0.788681 0.125000 0.121777
0.856564 0.125000 0.121610
0.924779 0.125000 0.121444
0.993326 0.125000 0.121278
1.000000 0.125000 0.121112
0.000000 0.187500 0.123211
0.064455 0.187500 0.123045
0.129242 0.187500 0.122879
0.194362 0.187500 0.122713
0.259814 0.187500 0.122547
0.325598 0.187500 0.122380
0.391714 0.187500 0.122214
0.458162 0.187500 0.122048
0.524943 0.187500 0.121882
0.592055 0.187500 0.121716
0.659500 0.187500 0.121550
0.727277 0.187500 0.121384
0.795386 0.187500 0.121218
0.863828 0.187500 0.121052
0.932601 0.187500 0.120886
1.000000 0.187500 0.120720
1.000000 0.187500 0.120553
0.000000 0.250000 0.122652
0.065014 0.250000 0.122486
0.130360 0.250000 0.122320
0.196038 0.250000 0.122154
0.262049 0.250000 0.121988
0.328391 0.250000 0.121822
0.395066 0.250000 0.121656
0.462073 0.250000 0.121490
0.529413 0.250000 0.121323
0.597084 0.250000 0.121157
0.665087 0.250000 0.120991
0.733423 0.250000 0.120825
0.802091 0.250000 0.120659
0.871091 0.250000 0.120493
0.940424 0.250000 0.120327
1.000000 0.250000 0.120161
1.000000 0.250000 0.119995
0.000000 0.312500 0.122093
0.065573 0.312500 0.121927
0.131478 0.312500 0.121761
0.197715 0.312500 0.121595
0.264284 0.312500 0.121429
0.331185 0.312500 0.121263
0.398419 0.312500 0.121097
0.465985 0.312500 0.120931
0.533882 0.312500 0.120765
0.602113 0.312500 0.120599
0.670675 0.312500 0.120433
0.739570 0.312500 0.120266
0.808796 0.312500 0.120100
0.878355 0.312500 0.119934
0.948246 0.312500 0.119768
1.000000 0.312500 0.119602
1.000000 0.312500 0.119436
0.000000 0.375000 0.121535
0.066131 0.375000 0.121369
0.132595 0.375000 0.121202
0.199391 0.375000 0.121036
0.266519 0.375000 0.120870
0.333979 0.375000 0.120704
0.401771 0.375000 0.120538
0.469896 0.375000 0.120372
0.538352 0.375000 0.120206
0.607141 0.375000 0.120040
0.676262 0.375000 0.119874
0.745716 0.375000 0.119708
0.815501 0.375000 0.119542
0.885619 0.375000 0.119375
0.956069 0.375000 0.119209
1.000000 0.375000 0.119043
1.000000 0.375000 0.118877
0.000000 0.437500 0.120976
0.066690 0.437500 0.120810
0.133713 0.437500 0.120644
0.201067 0.437500 0.120478
0.268754 0.437500 0.120312
0.336773 0.437500 0.120145
0.405124 0.437500 0.119979
0.473807 0.437500 0.119813
0.542822 0.437500 0.119647
0.612170 0.437500 0.119481
0.681850 0.437500 0.119315
0.751862 0.437500 0.119149
0.822206 0.437500 0.118983
0.892883 0.437500 0.118817
0.961109 0.437500 0.118849
1.000000 0.437500 0.119015
1.000000 0.437500 0.119182
0.000000 0.500000 0.120417
0.067249 0.500000 0.120251
0.134830 0.500000 0.120085
0.202743 0.500000 0.119919
0.270989 0.500000 0.119753
0.339566 0.500000 0.119587
0.408476 0.500000 0.119421
0.477718 0.500000 0.119255
0.547292 0.500000 0.119088
0.617199 0.500000 0.118922
0.687438 0.500000 0.118756
0.754492 0.500000 0.118910
0.821089 0.500000 0.119076
0.887354 0.500000 0.119242
0.953286 0.500000 0.119408
1.000000 0.500000 0.119574
1.000000 0.500000 0.119740
0.000000 0.562500 0.119858
0.067808 0.562500 0.119692
0.135947 0.562500 0.119526
0.204420 0.562500 0.119360
0.273224 0.562500 0.119194
0.342360 0.562500 0.119028
0.411829 0.562500 0.118862
0.480870 0.562500 0.118804
0.548238 0.562500 0.118970
0.615272 0.562500 0.119136
0.681975 0.562500 0.119302
0.748345 0.562500 0.119469
0.814384 0.562500 0.119635
0.880090 0.562500 0.119801
0.945464 0.562500 0.119967
1.000000 0.562500 0.120133
1.000000 0.562500 0.120299
0.000000 0.625000 0.119300
0.068366 0.625000 0.119134
0.137065 0.625000 0.118968
0.206096 0.625000 0.118801
0.274541 0.625000 0.118865
0.342346 0.625000 0.119031
0.409819 0.625000 0.119197
0.476959 0.625000 0.119363
0.543768 0.625000 0.119529
0.610244 0.625000 0.119695
0.676387 0.625000 0.119861
0.742199 0.625000 0.120027
0.807679 0.625000 0.120193
0.872826 0.625000 0.120360
0.937641 0.625000 0.120526
1.000000 0.625000 0.120692
1.000000 0.625000 0.120858
0.000000 0.687500 0.118759
0.068575 0.687500 0.118925
0.136817 0.687500 0.119091
0.204728 0.687500 0.119257
0.272306 0.687500 0.119423
0.339552 0.687500 0.119590
0.406466 0.687500 0.119756
0.473048 0.687500 0.119922
0.539298 0.687500 0.120088
0.605215 0.687500 0.120254
0.670800 0.687500 0.120420
0.736053 0.687500 0.120586
0.800974 0.687500 0.120752
0.865562 0.687500 0.120918
0.929819 0.687500 0.121084
0.993743 0.687500 0.121250
1.000000 0.687500 0.121417
0.000000 0.750000 0.119318
0.068016 0.750000 0.119484
0.135700 0.750000 0.119650
0.203052 0.750000 0.119816
0.270071 0.750000 0.119982
0.336759 0.750000 0.120148
0.403114 0.750000 0.120314
0.469137 0.750000 0.120480
0.534827 0.750000 0.120647
0.600186 0.750000 0.120813
0.665213 0.750000 0.120979
0.729907 0.750000 0.121145
0.794269 0.750000 0.121311
0.858299 0.750000 0.121477
0.921996 0.750000 0.121643
0.985362 0.750000 0.121809
1.000000 0.750000 0.121975
0.000000 0.812500 0.119877
0.067457 0.812500 0.120043
0.134583 0.812500 0.120209
0.201375 0.812500 0.120375
0.267836 0.812500 0.120541
0.333965 0.812500 0.120707
0.399761 0.812500 0.120873
0.465225 0.812500 0.121039
0.530357 0.812500 0.121205
0.595157 0.812500 0.121371
0.659625 0.812500 0.121537
0.723760 0.812500 0.121704
0.787564 0.812500 0.121870
0.851035 0.812500 0.122036
0.914174 0.812500 0.122202
0.976980 0.812500 0.122368
1.000000 0.812500 0.122534
0.000000 0.875000 0.120435
0.066899 0.875000 0.120601
0.133465 0.875000 0.120767
0.199699 0.875000 0.120934
0.265601 0.875000 0.121100
0.331171 0.875000 0.121266
0.396409 0.875000 0.121432
0.461314 0.875000 0.121598
0.525887 0.875000 0.121764
0.590129 0.875000 0.121930
0.654038 0.875000 0.122096
0.717614 0.875000 0.122262
0.780859 0.875000 0.122428
0.843771 0.875000 0.122595
0.906351 0.875000 0.122761
0.968599 0.875000 0.122927
1.000000 0.875000 0.123093
0.000000 0.937500 0.120994
0.066340 0.937500 0.121160
0.132347 0.937500 0.121326
0.198023 0.937500 0.121492
0.263366 0.937500 0.121658
0.328377 0.937500 0.121825
0.393056 0.937500 0.121991
0.457403 0.937500 0.122157
0.521417 0.937500 0.122323
0.585100 0.937500 0.122489
0.648450 0.937500 0.122655
0.711468 0.937500 0.122821
0.774154 0.937500 0.122987
0.836507 0.937500 0.123153
0.898529 0.937500 0.123319
0.960218 0.937500 0.123485
1.000000 0.937500 0.123652
0.000000 1.000000 0.121553
0.065781 1.000000 0.121719
0.131230 1.000000 0.121885
0.196347 1.000000 0.122051
0.261131 1.000000 0.122217
0.325584 1.000000 0.122383
0.389704 1.000000 0.122549
0.453492 1.000000 0.122715
0.516948 1.000000 0.122882
0.580071 1.000000 0.123048
0.642862 1.000000 0.123214
0.705322 1.000000 0.123380
0.767449 1.000000 0.123546
0.829244 1.000000 0.123712
0.890706 1.000000 0.123878
0.951837 1.000000 0.124044
1.000000 1.000000 0.124210
0.000000 0.000000 0.187246
0.062835 0.000000 0.186997
0.126003 0.000000 0.186748
0.189502 0.000000 0.186499
0.253334 0.000000 0.186250
0.317498 0.000000 0.186000
0.381995 0.000000 0.185751
